(G-CODE GENERATED BY FLATCAM v8.994 - www.flatcam.org - Version Date: 2020/11/7)

(Name: test.drl_cnc)
(Type: G-code from Geometry)
(Units: MM)

(Created on Thursday, 21 December 2023 at 11:32)

(This preprocessor is the default preprocessor used by FlatCAM.)
(It is made to work with MACH3 compatible motion controllers.)


(TOOLS DIAMETER: )
(Tool: 1 -> Dia: 1.0)

(FEEDRATE Z: )
(Tool: 1 -> Feedrate: 300)

(FEEDRATE RAPIDS: )
(Tool: 1 -> Feedrate Rapids: 1500)

(Z_CUT: )
(Tool: 1 -> Z_Cut: -1.9)

(Tools Offset: )
(Tool: 1 -> Offset Z: 0.0)

(Z_MOVE: )
(Tool: 1 -> Z_Move: 2)

(Z Toolchange: 15 mm)
(X,Y Toolchange: 0.0000, 0.0000 mm)
(Z Start: None mm)
(Z End: 0.5 mm)
(X,Y End: None mm)
(Steps per circle: 64)
(Preprocessor Excellon: default)

(X range:   47.7600 ...   76.7000  mm)
(Y range:  -81.7800 ...  -40.1400  mm)

(Spindle Speed: 0 RPM)
G21
G90
G94

G01 F300.00

M5
G00 Z15.0000
T1
G00 X0.0000 Y0.0000                
M6
(MSG, Change to Tool Dia = 1.0000 ||| Total drills for tool T1 = 30)
M0
G00 Z15.0000

G01 F300.00
M03
G00 X48.2600 Y-40.6400
G01 Z-1.9000
G01 Z0
G00 Z2.0000
G00 X48.2600 Y-43.1800
G01 Z-1.9000
G01 Z0
G00 Z2.0000
G00 X48.2600 Y-45.7200
G01 Z-1.9000
G01 Z0
G00 Z2.0000
G00 X48.2600 Y-48.2600
G01 Z-1.9000
G01 Z0
G00 Z2.0000
G00 X48.2600 Y-50.8000
G01 Z-1.9000
G01 Z0
G00 Z2.0000
G00 X48.2600 Y-53.3400
G01 Z-1.9000
G01 Z0
G00 Z2.0000
G00 X48.2600 Y-55.8800
G01 Z-1.9000
G01 Z0
G00 Z2.0000
G00 X48.2600 Y-58.4200
G01 Z-1.9000
G01 Z0
G00 Z2.0000
G00 X48.2600 Y-60.9600
G01 Z-1.9000
G01 Z0
G00 Z2.0000
G00 X48.2600 Y-63.5000
G01 Z-1.9000
G01 Z0
G00 Z2.0000
G00 X50.8000 Y-81.2800
G01 Z-1.9000
G01 Z0
G00 Z2.0000
G00 X53.3400 Y-81.2800
G01 Z-1.9000
G01 Z0
G00 Z2.0000
G00 X55.8800 Y-81.2800
G01 Z-1.9000
G01 Z0
G00 Z2.0000
G00 X58.4200 Y-81.2800
G01 Z-1.9000
G01 Z0
G00 Z2.0000
G00 X60.9600 Y-81.2800
G01 Z-1.9000
G01 Z0
G00 Z2.0000
G00 X63.5000 Y-81.2800
G01 Z-1.9000
G01 Z0
G00 Z2.0000
G00 X66.0400 Y-81.2800
G01 Z-1.9000
G01 Z0
G00 Z2.0000
G00 X68.5800 Y-81.2800
G01 Z-1.9000
G01 Z0
G00 Z2.0000
G00 X71.1200 Y-81.2800
G01 Z-1.9000
G01 Z0
G00 Z2.0000
G00 X73.6600 Y-81.2800
G01 Z-1.9000
G01 Z0
G00 Z2.0000
G00 X76.2000 Y-63.5000
G01 Z-1.9000
G01 Z0
G00 Z2.0000
G00 X76.2000 Y-60.9600
G01 Z-1.9000
G01 Z0
G00 Z2.0000
G00 X76.2000 Y-58.4200
G01 Z-1.9000
G01 Z0
G00 Z2.0000
G00 X76.2000 Y-55.8800
G01 Z-1.9000
G01 Z0
G00 Z2.0000
G00 X76.2000 Y-53.3400
G01 Z-1.9000
G01 Z0
G00 Z2.0000
G00 X76.2000 Y-50.8000
G01 Z-1.9000
G01 Z0
G00 Z2.0000
G00 X76.2000 Y-48.2600
G01 Z-1.9000
G01 Z0
G00 Z2.0000
G00 X76.2000 Y-45.7200
G01 Z-1.9000
G01 Z0
G00 Z2.0000
G00 X76.2000 Y-43.1800
G01 Z-1.9000
G01 Z0
G00 Z2.0000
G00 X76.2000 Y-40.6400
G01 Z-1.9000
G01 Z0
G00 Z2.0000
M05
G00 Z0.50


