(G-CODE GENERATED BY FLATCAM v8.994 - www.flatcam.org - Version Date: 2020/11/7)

(Name: test-F_Cu.gbr_iso_combined_cnc)
(Type: G-code from Geometry)
(Units: MM)

(Created on Thursday, 21 December 2023 at 11:31)

(This preprocessor is the default preprocessor used by FlatCAM.)
(It is made to work with MACH3 compatible motion controllers.)

(TOOL DIAMETER: 0.1536 mm)
(Feedrate_XY: 120.0 mm/min)
(Feedrate_Z: 60.0 mm/min)
(Feedrate rapids 1500.0 mm/min)

(Z_Cut: -0.1 mm)
(Z_Move: 2.0 mm)
(Z Start: None mm)
(Z End: 15.0 mm)
(X,Y End: None mm)
(Steps per circle: 64)
(Preprocessor Geometry: default)

(X range:   20.1181 ...   77.1268  mm)
(Y range: -106.8819 ...  -39.7132  mm)

(Spindle Speed: 0.0 RPM)
G21
G90
G94

G01 F120.00

M5
G00 Z15.0000
G00 X0.0000 Y0.0000
T1
M6    
(MSG, Change to Tool Dia = 0.1536)
M0
G00 Z15.0000

M03
G01 F120.00
G00 X20.1182 Y-81.2838
G01 F60.00
G01 Z-0.1000
G01 F120.00
G01 X20.1191 Y-81.2998
G01 X20.1220 Y-81.3194
G01 X20.1268 Y-81.3386
G01 X20.1335 Y-81.3572
G01 X20.1420 Y-81.3752
G01 X20.1522 Y-81.3921
G01 X20.1640 Y-81.4081
G01 X20.1773 Y-81.4227
G01 X45.5773 Y-106.8227
G01 X45.5919 Y-106.8360
G01 X45.6079 Y-106.8478
G01 X45.6248 Y-106.8580
G01 X45.6428 Y-106.8665
G01 X45.6578 Y-106.8720
G01 X45.6650 Y-106.8742
G01 X45.6843 Y-106.8786
G01 X45.7002 Y-106.8809
G01 X45.7200 Y-106.8819
G01 X50.8000 Y-106.8819
G01 X50.8198 Y-106.8809
G01 X50.8357 Y-106.8786
G01 X50.8431 Y-106.8772
G01 X50.8586 Y-106.8732
G01 X50.8772 Y-106.8665
G01 X50.8918 Y-106.8597
G01 X50.8984 Y-106.8562
G01 X50.9152 Y-106.8457
G01 X50.9281 Y-106.8360
G01 X50.9427 Y-106.8227
G01 X73.8027 Y-83.9627
G01 X73.8136 Y-83.9509
G01 X73.8184 Y-83.9451
G01 X73.8299 Y-83.9290
G01 X73.8389 Y-83.9135
G01 X73.8472 Y-83.8955
G01 X73.8532 Y-83.8786
G01 X73.8580 Y-83.8594
G01 X73.8609 Y-83.8398
G01 X73.8618 Y-83.8219
G01 X73.8619 Y-82.2068
G01 X74.5156 Y-82.2066
G01 X74.5213 Y-82.2060
G01 X74.5287 Y-82.2045
G01 X74.5394 Y-82.2010
G01 X74.5495 Y-82.1959
G01 X74.5557 Y-82.1917
G01 X74.5602 Y-82.1882
G01 X74.5643 Y-82.1843
G01 X74.5694 Y-82.1787
G01 X74.5759 Y-82.1695
G01 X74.5786 Y-82.1645
G01 X74.5817 Y-82.1576
G01 X74.5849 Y-82.1468
G01 X74.5862 Y-82.1394
G01 X74.5868 Y-82.1300
G01 X74.5868 Y-80.4300
G01 X74.5866 Y-80.4244
G01 X74.5857 Y-80.4169
G01 X74.5829 Y-80.4059
G01 X74.5810 Y-80.4006
G01 X74.5777 Y-80.3938
G01 X74.5717 Y-80.3843
G01 X74.5656 Y-80.3770
G01 X74.5602 Y-80.3718
G01 X74.5527 Y-80.3661
G01 X74.5445 Y-80.3614
G01 X74.5359 Y-80.3577
G01 X74.5287 Y-80.3555
G01 X74.5213 Y-80.3540
G01 X74.5119 Y-80.3532
G01 X72.8100 Y-80.3532
G01 X72.8044 Y-80.3534
G01 X72.7969 Y-80.3543
G01 X72.7859 Y-80.3571
G01 X72.7755 Y-80.3614
G01 X72.7658 Y-80.3672
G01 X72.7570 Y-80.3744
G01 X72.7531 Y-80.3784
G01 X72.7483 Y-80.3843
G01 X72.7451 Y-80.3889
G01 X72.7414 Y-80.3955
G01 X72.7371 Y-80.4059
G01 X72.7355 Y-80.4113
G01 X72.7340 Y-80.4187
G01 X72.7332 Y-80.4300
G01 X72.7332 Y-82.1300
G01 X72.7336 Y-82.1375
G01 X72.7351 Y-82.1468
G01 X72.7383 Y-82.1576
G01 X72.7406 Y-82.1628
G01 X72.7441 Y-82.1695
G01 X72.7506 Y-82.1787
G01 X72.7544 Y-82.1830
G01 X72.7598 Y-82.1882
G01 X72.7689 Y-82.1949
G01 X72.7755 Y-82.1986
G01 X72.7806 Y-82.2010
G01 X72.7859 Y-82.2029
G01 X72.7932 Y-82.2049
G01 X72.8044 Y-82.2066
G01 X73.4581 Y-82.2068
G01 X73.4581 Y-83.7364
G01 X50.7164 Y-106.4781
G01 X45.8036 Y-106.4781
G01 X20.5219 Y-81.1964
G01 X20.5219 Y-66.1236
G01 X45.8036 Y-40.8419
G01 X47.3332 Y-40.8419
G01 X47.3332 Y-41.4900
G01 X47.3336 Y-41.4975
G01 X47.3347 Y-41.5050
G01 X47.3365 Y-41.5123
G01 X47.3383 Y-41.5176
G01 X47.3414 Y-41.5245
G01 X47.3441 Y-41.5295
G01 X47.3483 Y-41.5357
G01 X47.3531 Y-41.5416
G01 X47.3570 Y-41.5456
G01 X47.3613 Y-41.5494
G01 X47.3673 Y-41.5539
G01 X47.3738 Y-41.5577
G01 X47.3806 Y-41.5610
G01 X47.3877 Y-41.5635
G01 X47.3950 Y-41.5653
G01 X47.4025 Y-41.5664
G01 X47.4081 Y-41.5668
G01 X49.1100 Y-41.5668
G01 X49.1175 Y-41.5664
G01 X49.1250 Y-41.5653
G01 X49.1323 Y-41.5635
G01 X49.1394 Y-41.5610
G01 X49.1495 Y-41.5559
G01 X49.1572 Y-41.5505
G01 X49.1643 Y-41.5443
G01 X49.1717 Y-41.5357
G01 X49.1768 Y-41.5279
G01 X49.1817 Y-41.5176
G01 X49.1849 Y-41.5068
G01 X49.1866 Y-41.4956
G01 X49.1868 Y-40.8419
G01 X75.2732 Y-40.8419
G01 X75.2734 Y-41.4956
G01 X75.2747 Y-41.5050
G01 X75.2777 Y-41.5159
G01 X75.2814 Y-41.5245
G01 X75.2872 Y-41.5342
G01 X75.2944 Y-41.5430
G01 X75.3013 Y-41.5494
G01 X75.3105 Y-41.5559
G01 X75.3206 Y-41.5610
G01 X75.3277 Y-41.5635
G01 X75.3350 Y-41.5653
G01 X75.3425 Y-41.5664
G01 X75.3500 Y-41.5668
G01 X77.0519 Y-41.5668
G01 X77.0594 Y-41.5662
G01 X77.0668 Y-41.5649
G01 X77.0741 Y-41.5629
G01 X77.0794 Y-41.5610
G01 X77.0862 Y-41.5577
G01 X77.0927 Y-41.5539
G01 X77.0987 Y-41.5494
G01 X77.1043 Y-41.5443
G01 X77.1082 Y-41.5402
G01 X77.1128 Y-41.5342
G01 X77.1168 Y-41.5279
G01 X77.1202 Y-41.5211
G01 X77.1229 Y-41.5141
G01 X77.1249 Y-41.5068
G01 X77.1262 Y-41.4994
G01 X77.1268 Y-41.4919
G01 X77.1268 Y-39.7900
G01 X77.1266 Y-39.7844
G01 X77.1257 Y-39.7769
G01 X77.1229 Y-39.7659
G01 X77.1210 Y-39.7606
G01 X77.1177 Y-39.7538
G01 X77.1117 Y-39.7443
G01 X77.1069 Y-39.7384
G01 X77.1002 Y-39.7318
G01 X77.0942 Y-39.7272
G01 X77.0862 Y-39.7223
G01 X77.0794 Y-39.7190
G01 X77.0705 Y-39.7160
G01 X77.0613 Y-39.7140
G01 X77.0519 Y-39.7132
G01 X75.3500 Y-39.7132
G01 X75.3444 Y-39.7134
G01 X75.3369 Y-39.7143
G01 X75.3295 Y-39.7160
G01 X75.3224 Y-39.7183
G01 X75.3121 Y-39.7232
G01 X75.3043 Y-39.7283
G01 X75.2957 Y-39.7357
G01 X75.2883 Y-39.7443
G01 X75.2832 Y-39.7521
G01 X75.2783 Y-39.7624
G01 X75.2751 Y-39.7732
G01 X75.2734 Y-39.7844
G01 X75.2732 Y-40.4381
G01 X49.1868 Y-40.4381
G01 X49.1866 Y-39.7844
G01 X49.1849 Y-39.7732
G01 X49.1823 Y-39.7641
G01 X49.1786 Y-39.7555
G01 X49.1728 Y-39.7458
G01 X49.1669 Y-39.7384
G01 X49.1587 Y-39.7306
G01 X49.1495 Y-39.7241
G01 X49.1394 Y-39.7190
G01 X49.1323 Y-39.7165
G01 X49.1250 Y-39.7147
G01 X49.1175 Y-39.7136
G01 X49.1100 Y-39.7132
G01 X47.4081 Y-39.7132
G01 X47.4025 Y-39.7136
G01 X47.3950 Y-39.7147
G01 X47.3877 Y-39.7165
G01 X47.3806 Y-39.7190
G01 X47.3738 Y-39.7223
G01 X47.3689 Y-39.7251
G01 X47.3628 Y-39.7295
G01 X47.3570 Y-39.7344
G01 X47.3518 Y-39.7398
G01 X47.3483 Y-39.7443
G01 X47.3451 Y-39.7489
G01 X47.3414 Y-39.7555
G01 X47.3383 Y-39.7624
G01 X47.3365 Y-39.7677
G01 X47.3347 Y-39.7750
G01 X47.3336 Y-39.7825
G01 X47.3332 Y-39.7900
G01 X47.3332 Y-40.4381
G01 X45.7181 Y-40.4382
G01 X45.7002 Y-40.4391
G01 X45.6843 Y-40.4414
G01 X45.6769 Y-40.4428
G01 X45.6596 Y-40.4474
G01 X45.6428 Y-40.4535
G01 X45.6265 Y-40.4611
G01 X45.6110 Y-40.4701
G01 X45.6048 Y-40.4743
G01 X45.5919 Y-40.4840
G01 X45.5773 Y-40.4973
G01 X20.1773 Y-65.8973
G01 X20.1640 Y-65.9119
G01 X20.1511 Y-65.9294
G01 X20.1420 Y-65.9448
G01 X20.1350 Y-65.9593
G01 X20.1321 Y-65.9663
G01 X20.1268 Y-65.9814
G01 X20.1220 Y-66.0006
G01 X20.1196 Y-66.0165
G01 X20.1188 Y-66.0240
G01 X20.1181 Y-66.0400
G01 X20.1182 Y-81.2838
G00 Z2.0000
G00 X22.6582 Y-81.2838
G01 F60.00
G01 Z-0.1000
G01 F120.00
G01 X22.6591 Y-81.2998
G01 X22.6620 Y-81.3194
G01 X22.6668 Y-81.3386
G01 X22.6735 Y-81.3572
G01 X22.6820 Y-81.3752
G01 X22.6922 Y-81.3921
G01 X22.7040 Y-81.4081
G01 X22.7173 Y-81.4227
G01 X45.5773 Y-104.2827
G01 X45.5919 Y-104.2960
G01 X45.6079 Y-104.3078
G01 X45.6248 Y-104.3180
G01 X45.6428 Y-104.3265
G01 X45.6578 Y-104.3320
G01 X45.6650 Y-104.3342
G01 X45.6843 Y-104.3386
G01 X45.7002 Y-104.3409
G01 X45.7200 Y-104.3419
G01 X50.8000 Y-104.3419
G01 X50.8198 Y-104.3409
G01 X50.8357 Y-104.3386
G01 X50.8431 Y-104.3372
G01 X50.8586 Y-104.3332
G01 X50.8772 Y-104.3265
G01 X50.8918 Y-104.3197
G01 X50.8984 Y-104.3162
G01 X50.9137 Y-104.3068
G01 X50.9281 Y-104.2960
G01 X50.9427 Y-104.2827
G01 X71.2627 Y-83.9627
G01 X71.2736 Y-83.9509
G01 X71.2784 Y-83.9451
G01 X71.2899 Y-83.9290
G01 X71.2989 Y-83.9135
G01 X71.3072 Y-83.8955
G01 X71.3132 Y-83.8786
G01 X71.3180 Y-83.8594
G01 X71.3209 Y-83.8398
G01 X71.3218 Y-83.8219
G01 X71.3219 Y-82.1838
G01 X71.3890 Y-82.1669
G01 X71.4712 Y-82.1376
G01 X71.4781 Y-82.1347
G01 X71.5535 Y-82.0991
G01 X71.5602 Y-82.0955
G01 X71.6349 Y-82.0506
G01 X71.7080 Y-81.9964
G01 X71.7726 Y-81.9379
G01 X71.7779 Y-81.9326
G01 X71.8364 Y-81.8680
G01 X71.8884 Y-81.7980
G01 X71.8926 Y-81.7917
G01 X71.9374 Y-81.7169
G01 X71.9770 Y-81.6329
G01 X72.0057 Y-81.5526
G01 X72.0079 Y-81.5454
G01 X72.0290 Y-81.4608
G01 X72.0419 Y-81.3746
G01 X72.0426 Y-81.3671
G01 X72.0468 Y-81.2800
G01 X72.0423 Y-81.1892
G01 X72.0296 Y-81.1029
G01 X72.0282 Y-81.0955
G01 X72.0069 Y-81.0110
G01 X71.9776 Y-80.9288
G01 X71.9747 Y-80.9219
G01 X71.9374 Y-80.8431
G01 X71.8926 Y-80.7683
G01 X71.8884 Y-80.7620
G01 X71.8364 Y-80.6920
G01 X71.7779 Y-80.6274
G01 X71.7726 Y-80.6221
G01 X71.7080 Y-80.5636
G01 X71.6349 Y-80.5094
G01 X71.5602 Y-80.4645
G01 X71.5535 Y-80.4609
G01 X71.4747 Y-80.4237
G01 X71.3926 Y-80.3943
G01 X71.3854 Y-80.3921
G01 X71.3008 Y-80.3710
G01 X71.2108 Y-80.3577
G01 X71.1238 Y-80.3533
G01 X71.1162 Y-80.3533
G01 X71.0292 Y-80.3577
G01 X70.9429 Y-80.3704
G01 X70.9355 Y-80.3718
G01 X70.8510 Y-80.3931
G01 X70.7688 Y-80.4224
G01 X70.7619 Y-80.4253
G01 X70.6831 Y-80.4626
G01 X70.6083 Y-80.5074
G01 X70.6020 Y-80.5116
G01 X70.5350 Y-80.5613
G01 X70.5292 Y-80.5660
G01 X70.4647 Y-80.6247
G01 X70.4060 Y-80.6892
G01 X70.4013 Y-80.6950
G01 X70.3494 Y-80.7651
G01 X70.3045 Y-80.8398
G01 X70.3009 Y-80.8465
G01 X70.2637 Y-80.9253
G01 X70.2337 Y-81.0092
G01 X70.2110 Y-81.0992
G01 X70.1977 Y-81.1892
G01 X70.1932 Y-81.2800
G01 X70.1977 Y-81.3708
G01 X70.2110 Y-81.4608
G01 X70.2331 Y-81.5490
G01 X70.2637 Y-81.6347
G01 X70.3035 Y-81.7185
G01 X70.3494 Y-81.7949
G01 X70.4036 Y-81.8680
G01 X70.4647 Y-81.9353
G01 X70.5292 Y-81.9940
G01 X70.5350 Y-81.9987
G01 X70.6051 Y-82.0506
G01 X70.6798 Y-82.0955
G01 X70.6865 Y-82.0991
G01 X70.7619 Y-82.1347
G01 X70.7688 Y-82.1376
G01 X70.8510 Y-82.1669
G01 X70.9181 Y-82.1838
G01 X70.9181 Y-83.7364
G01 X50.7164 Y-103.9381
G01 X45.8036 Y-103.9381
G01 X23.0619 Y-81.1964
G01 X23.0619 Y-66.1236
G01 X45.8036 Y-43.3819
G01 X47.3562 Y-43.3819
G01 X47.3731 Y-43.4490
G01 X47.4037 Y-43.5347
G01 X47.4426 Y-43.6169
G01 X47.4874 Y-43.6917
G01 X47.4916 Y-43.6980
G01 X47.5413 Y-43.7650
G01 X47.5460 Y-43.7708
G01 X47.6047 Y-43.8353
G01 X47.6720 Y-43.8964
G01 X47.7451 Y-43.9506
G01 X47.8198 Y-43.9955
G01 X47.8265 Y-43.9991
G01 X47.9019 Y-44.0347
G01 X47.9088 Y-44.0376
G01 X47.9910 Y-44.0669
G01 X48.0792 Y-44.0890
G01 X48.1692 Y-44.1023
G01 X48.2600 Y-44.1068
G01 X48.3508 Y-44.1023
G01 X48.4408 Y-44.0890
G01 X48.5290 Y-44.0669
G01 X48.6112 Y-44.0376
G01 X48.6181 Y-44.0347
G01 X48.6935 Y-43.9991
G01 X48.7002 Y-43.9955
G01 X48.7749 Y-43.9506
G01 X48.8480 Y-43.8964
G01 X48.9153 Y-43.8353
G01 X48.9740 Y-43.7708
G01 X48.9787 Y-43.7650
G01 X49.0284 Y-43.6980
G01 X49.0326 Y-43.6917
G01 X49.0774 Y-43.6169
G01 X49.1163 Y-43.5347
G01 X49.1469 Y-43.4490
G01 X49.1638 Y-43.3819
G01 X75.2962 Y-43.3819
G01 X75.3131 Y-43.4490
G01 X75.3437 Y-43.5347
G01 X75.3826 Y-43.6169
G01 X75.4274 Y-43.6917
G01 X75.4316 Y-43.6980
G01 X75.4813 Y-43.7650
G01 X75.4860 Y-43.7708
G01 X75.5447 Y-43.8353
G01 X75.6120 Y-43.8964
G01 X75.6851 Y-43.9506
G01 X75.7631 Y-43.9974
G01 X75.8453 Y-44.0363
G01 X75.9274 Y-44.0657
G01 X75.9346 Y-44.0679
G01 X76.0155 Y-44.0882
G01 X76.0229 Y-44.0896
G01 X76.1092 Y-44.1023
G01 X76.2019 Y-44.1068
G01 X76.2908 Y-44.1023
G01 X76.3771 Y-44.0896
G01 X76.3845 Y-44.0882
G01 X76.4690 Y-44.0669
G01 X76.5512 Y-44.0376
G01 X76.5581 Y-44.0347
G01 X76.6369 Y-43.9974
G01 X76.7117 Y-43.9526
G01 X76.7180 Y-43.9484
G01 X76.7880 Y-43.8964
G01 X76.8526 Y-43.8379
G01 X76.8579 Y-43.8326
G01 X76.9164 Y-43.7680
G01 X76.9684 Y-43.6980
G01 X76.9726 Y-43.6917
G01 X77.0174 Y-43.6169
G01 X77.0547 Y-43.5381
G01 X77.0576 Y-43.5312
G01 X77.0869 Y-43.4490
G01 X77.1090 Y-43.3608
G01 X77.1219 Y-43.2746
G01 X77.1226 Y-43.2671
G01 X77.1268 Y-43.1800
G01 X77.1226 Y-43.0929
G01 X77.1219 Y-43.0854
G01 X77.1090 Y-42.9992
G01 X77.0879 Y-42.9146
G01 X77.0857 Y-42.9074
G01 X77.0563 Y-42.8253
G01 X77.0191 Y-42.7465
G01 X77.0155 Y-42.7398
G01 X76.9695 Y-42.6635
G01 X76.9187 Y-42.5950
G01 X76.9140 Y-42.5892
G01 X76.8553 Y-42.5247
G01 X76.7908 Y-42.4660
G01 X76.7850 Y-42.4613
G01 X76.7149 Y-42.4094
G01 X76.6369 Y-42.3626
G01 X76.5547 Y-42.3237
G01 X76.4726 Y-42.2943
G01 X76.4654 Y-42.2921
G01 X76.3808 Y-42.2710
G01 X76.2946 Y-42.2581
G01 X76.2871 Y-42.2574
G01 X76.2000 Y-42.2532
G01 X76.1092 Y-42.2577
G01 X76.0192 Y-42.2710
G01 X75.9310 Y-42.2931
G01 X75.8488 Y-42.3224
G01 X75.8419 Y-42.3253
G01 X75.7665 Y-42.3609
G01 X75.7598 Y-42.3645
G01 X75.6851 Y-42.4094
G01 X75.6120 Y-42.4636
G01 X75.5447 Y-42.5247
G01 X75.4860 Y-42.5892
G01 X75.4813 Y-42.5950
G01 X75.4316 Y-42.6620
G01 X75.4274 Y-42.6683
G01 X75.3826 Y-42.7431
G01 X75.3437 Y-42.8253
G01 X75.3131 Y-42.9110
G01 X75.2962 Y-42.9781
G01 X49.1638 Y-42.9781
G01 X49.1469 Y-42.9110
G01 X49.1163 Y-42.8253
G01 X49.0774 Y-42.7431
G01 X49.0326 Y-42.6683
G01 X49.0284 Y-42.6620
G01 X48.9787 Y-42.5950
G01 X48.9740 Y-42.5892
G01 X48.9153 Y-42.5247
G01 X48.8480 Y-42.4636
G01 X48.7749 Y-42.4094
G01 X48.7002 Y-42.3645
G01 X48.6935 Y-42.3609
G01 X48.6181 Y-42.3253
G01 X48.6112 Y-42.3224
G01 X48.5290 Y-42.2931
G01 X48.4408 Y-42.2710
G01 X48.3508 Y-42.2577
G01 X48.2600 Y-42.2532
G01 X48.1692 Y-42.2577
G01 X48.0792 Y-42.2710
G01 X47.9910 Y-42.2931
G01 X47.9088 Y-42.3224
G01 X47.9019 Y-42.3253
G01 X47.8265 Y-42.3609
G01 X47.8198 Y-42.3645
G01 X47.7451 Y-42.4094
G01 X47.6720 Y-42.4636
G01 X47.6047 Y-42.5247
G01 X47.5460 Y-42.5892
G01 X47.5413 Y-42.5950
G01 X47.4916 Y-42.6620
G01 X47.4874 Y-42.6683
G01 X47.4426 Y-42.7431
G01 X47.4037 Y-42.8253
G01 X47.3731 Y-42.9110
G01 X47.3562 Y-42.9781
G01 X45.7181 Y-42.9782
G01 X45.7002 Y-42.9791
G01 X45.6843 Y-42.9814
G01 X45.6769 Y-42.9828
G01 X45.6614 Y-42.9868
G01 X45.6428 Y-42.9935
G01 X45.6282 Y-43.0003
G01 X45.6216 Y-43.0038
G01 X45.6063 Y-43.0132
G01 X45.5919 Y-43.0240
G01 X45.5773 Y-43.0373
G01 X22.7173 Y-65.8973
G01 X22.7040 Y-65.9119
G01 X22.6943 Y-65.9248
G01 X22.6901 Y-65.9310
G01 X22.6820 Y-65.9448
G01 X22.6750 Y-65.9593
G01 X22.6721 Y-65.9663
G01 X22.6668 Y-65.9814
G01 X22.6620 Y-66.0006
G01 X22.6596 Y-66.0165
G01 X22.6588 Y-66.0240
G01 X22.6581 Y-66.0400
G01 X22.6582 Y-81.2838
G00 Z2.0000
G00 X25.1982 Y-81.2838
G01 F60.00
G01 Z-0.1000
G01 F120.00
G01 X25.1991 Y-81.2998
G01 X25.2020 Y-81.3194
G01 X25.2068 Y-81.3386
G01 X25.2135 Y-81.3572
G01 X25.2220 Y-81.3752
G01 X25.2322 Y-81.3921
G01 X25.2440 Y-81.4081
G01 X25.2573 Y-81.4227
G01 X45.5773 Y-101.7427
G01 X45.5934 Y-101.7572
G01 X45.6079 Y-101.7678
G01 X45.6248 Y-101.7780
G01 X45.6428 Y-101.7865
G01 X45.6578 Y-101.7920
G01 X45.6650 Y-101.7942
G01 X45.6843 Y-101.7986
G01 X45.7002 Y-101.8009
G01 X45.7200 Y-101.8019
G01 X50.8000 Y-101.8019
G01 X50.8198 Y-101.8009
G01 X50.8357 Y-101.7986
G01 X50.8431 Y-101.7972
G01 X50.8586 Y-101.7932
G01 X50.8772 Y-101.7865
G01 X50.8918 Y-101.7797
G01 X50.8984 Y-101.7762
G01 X50.9137 Y-101.7668
G01 X50.9281 Y-101.7560
G01 X50.9427 Y-101.7427
G01 X68.7227 Y-83.9627
G01 X68.7348 Y-83.9495
G01 X68.7468 Y-83.9337
G01 X68.7562 Y-83.9184
G01 X68.7597 Y-83.9118
G01 X68.7679 Y-83.8937
G01 X68.7732 Y-83.8786
G01 X68.7780 Y-83.8594
G01 X68.7809 Y-83.8398
G01 X68.7818 Y-83.8219
G01 X68.7819 Y-82.1838
G01 X68.8490 Y-82.1669
G01 X68.9312 Y-82.1376
G01 X68.9381 Y-82.1347
G01 X69.0135 Y-82.0991
G01 X69.0202 Y-82.0955
G01 X69.0949 Y-82.0506
G01 X69.1680 Y-81.9964
G01 X69.2326 Y-81.9379
G01 X69.2379 Y-81.9326
G01 X69.2964 Y-81.8680
G01 X69.3484 Y-81.7980
G01 X69.3526 Y-81.7917
G01 X69.3974 Y-81.7169
G01 X69.4370 Y-81.6329
G01 X69.4657 Y-81.5526
G01 X69.4679 Y-81.5454
G01 X69.4890 Y-81.4608
G01 X69.5019 Y-81.3746
G01 X69.5026 Y-81.3671
G01 X69.5068 Y-81.2800
G01 X69.5023 Y-81.1892
G01 X69.4896 Y-81.1029
G01 X69.4882 Y-81.0955
G01 X69.4669 Y-81.0110
G01 X69.4376 Y-80.9288
G01 X69.4347 Y-80.9219
G01 X69.3974 Y-80.8431
G01 X69.3495 Y-80.7635
G01 X69.2964 Y-80.6920
G01 X69.2379 Y-80.6274
G01 X69.2326 Y-80.6221
G01 X69.1680 Y-80.5636
G01 X69.0980 Y-80.5116
G01 X69.0917 Y-80.5074
G01 X69.0169 Y-80.4626
G01 X68.9381 Y-80.4253
G01 X68.9312 Y-80.4224
G01 X68.8526 Y-80.3943
G01 X68.8454 Y-80.3921
G01 X68.7608 Y-80.3710
G01 X68.6746 Y-80.3581
G01 X68.6671 Y-80.3574
G01 X68.5800 Y-80.3532
G01 X68.4929 Y-80.3574
G01 X68.4854 Y-80.3581
G01 X68.3992 Y-80.3710
G01 X68.3146 Y-80.3921
G01 X68.3074 Y-80.3943
G01 X68.2253 Y-80.4237
G01 X68.1465 Y-80.4609
G01 X68.1398 Y-80.4645
G01 X68.0651 Y-80.5094
G01 X67.9920 Y-80.5636
G01 X67.9247 Y-80.6247
G01 X67.8660 Y-80.6892
G01 X67.8613 Y-80.6950
G01 X67.8094 Y-80.7651
G01 X67.7645 Y-80.8398
G01 X67.7609 Y-80.8465
G01 X67.7237 Y-80.9253
G01 X67.6937 Y-81.0092
G01 X67.6710 Y-81.0992
G01 X67.6577 Y-81.1892
G01 X67.6532 Y-81.2800
G01 X67.6577 Y-81.3708
G01 X67.6710 Y-81.4608
G01 X67.6931 Y-81.5490
G01 X67.7237 Y-81.6347
G01 X67.7635 Y-81.7185
G01 X67.8094 Y-81.7949
G01 X67.8636 Y-81.8680
G01 X67.9247 Y-81.9353
G01 X67.9892 Y-81.9940
G01 X67.9950 Y-81.9987
G01 X68.0651 Y-82.0506
G01 X68.1398 Y-82.0955
G01 X68.1465 Y-82.0991
G01 X68.2219 Y-82.1347
G01 X68.2288 Y-82.1376
G01 X68.3110 Y-82.1669
G01 X68.3781 Y-82.1838
G01 X68.3781 Y-83.7364
G01 X50.7164 Y-101.3981
G01 X45.8036 Y-101.3981
G01 X25.6019 Y-81.1964
G01 X25.6019 Y-66.1236
G01 X45.8036 Y-45.9219
G01 X47.3562 Y-45.9219
G01 X47.3731 Y-45.9890
G01 X47.4037 Y-46.0747
G01 X47.4426 Y-46.1569
G01 X47.4874 Y-46.2317
G01 X47.4916 Y-46.2380
G01 X47.5413 Y-46.3050
G01 X47.5460 Y-46.3108
G01 X47.6047 Y-46.3753
G01 X47.6720 Y-46.4364
G01 X47.7451 Y-46.4906
G01 X47.8198 Y-46.5355
G01 X47.8265 Y-46.5391
G01 X47.9019 Y-46.5747
G01 X47.9088 Y-46.5776
G01 X47.9910 Y-46.6069
G01 X48.0792 Y-46.6290
G01 X48.1692 Y-46.6423
G01 X48.2600 Y-46.6468
G01 X48.3508 Y-46.6423
G01 X48.4408 Y-46.6290
G01 X48.5290 Y-46.6069
G01 X48.6112 Y-46.5776
G01 X48.6181 Y-46.5747
G01 X48.6935 Y-46.5391
G01 X48.7002 Y-46.5355
G01 X48.7749 Y-46.4906
G01 X48.8480 Y-46.4364
G01 X48.9153 Y-46.3753
G01 X48.9740 Y-46.3108
G01 X48.9787 Y-46.3050
G01 X49.0284 Y-46.2380
G01 X49.0326 Y-46.2317
G01 X49.0774 Y-46.1569
G01 X49.1163 Y-46.0747
G01 X49.1469 Y-45.9890
G01 X49.1638 Y-45.9219
G01 X75.2962 Y-45.9219
G01 X75.3131 Y-45.9890
G01 X75.3437 Y-46.0747
G01 X75.3826 Y-46.1569
G01 X75.4274 Y-46.2317
G01 X75.4316 Y-46.2380
G01 X75.4813 Y-46.3050
G01 X75.4860 Y-46.3108
G01 X75.5447 Y-46.3753
G01 X75.6120 Y-46.4364
G01 X75.6851 Y-46.4906
G01 X75.7631 Y-46.5374
G01 X75.8453 Y-46.5763
G01 X75.9274 Y-46.6057
G01 X75.9346 Y-46.6079
G01 X76.0155 Y-46.6282
G01 X76.0229 Y-46.6296
G01 X76.1092 Y-46.6423
G01 X76.2019 Y-46.6468
G01 X76.2908 Y-46.6423
G01 X76.3771 Y-46.6296
G01 X76.3845 Y-46.6282
G01 X76.4690 Y-46.6069
G01 X76.5512 Y-46.5776
G01 X76.5581 Y-46.5747
G01 X76.6369 Y-46.5374
G01 X76.7117 Y-46.4926
G01 X76.7180 Y-46.4884
G01 X76.7880 Y-46.4364
G01 X76.8526 Y-46.3779
G01 X76.8579 Y-46.3726
G01 X76.9164 Y-46.3080
G01 X76.9684 Y-46.2380
G01 X76.9726 Y-46.2317
G01 X77.0174 Y-46.1569
G01 X77.0547 Y-46.0781
G01 X77.0576 Y-46.0712
G01 X77.0869 Y-45.9890
G01 X77.1090 Y-45.9008
G01 X77.1219 Y-45.8146
G01 X77.1226 Y-45.8071
G01 X77.1268 Y-45.7200
G01 X77.1226 Y-45.6329
G01 X77.1219 Y-45.6254
G01 X77.1090 Y-45.5392
G01 X77.0879 Y-45.4546
G01 X77.0857 Y-45.4474
G01 X77.0563 Y-45.3653
G01 X77.0191 Y-45.2865
G01 X77.0155 Y-45.2798
G01 X76.9695 Y-45.2035
G01 X76.9187 Y-45.1350
G01 X76.9140 Y-45.1292
G01 X76.8553 Y-45.0647
G01 X76.7908 Y-45.0060
G01 X76.7850 Y-45.0013
G01 X76.7149 Y-44.9494
G01 X76.6369 Y-44.9026
G01 X76.5547 Y-44.8637
G01 X76.4726 Y-44.8343
G01 X76.4654 Y-44.8321
G01 X76.3808 Y-44.8110
G01 X76.2946 Y-44.7981
G01 X76.2871 Y-44.7974
G01 X76.2000 Y-44.7932
G01 X76.1092 Y-44.7977
G01 X76.0192 Y-44.8110
G01 X75.9310 Y-44.8331
G01 X75.8488 Y-44.8624
G01 X75.8419 Y-44.8653
G01 X75.7665 Y-44.9009
G01 X75.7598 Y-44.9045
G01 X75.6851 Y-44.9494
G01 X75.6120 Y-45.0036
G01 X75.5447 Y-45.0647
G01 X75.4860 Y-45.1292
G01 X75.4813 Y-45.1350
G01 X75.4316 Y-45.2020
G01 X75.4274 Y-45.2083
G01 X75.3826 Y-45.2831
G01 X75.3437 Y-45.3653
G01 X75.3131 Y-45.4510
G01 X75.2962 Y-45.5181
G01 X49.1638 Y-45.5181
G01 X49.1469 Y-45.4510
G01 X49.1163 Y-45.3653
G01 X49.0774 Y-45.2831
G01 X49.0326 Y-45.2083
G01 X49.0284 Y-45.2020
G01 X48.9787 Y-45.1350
G01 X48.9740 Y-45.1292
G01 X48.9153 Y-45.0647
G01 X48.8480 Y-45.0036
G01 X48.7749 Y-44.9494
G01 X48.7002 Y-44.9045
G01 X48.6935 Y-44.9009
G01 X48.6181 Y-44.8653
G01 X48.6112 Y-44.8624
G01 X48.5290 Y-44.8331
G01 X48.4408 Y-44.8110
G01 X48.3508 Y-44.7977
G01 X48.2600 Y-44.7932
G01 X48.1692 Y-44.7977
G01 X48.0792 Y-44.8110
G01 X47.9910 Y-44.8331
G01 X47.9088 Y-44.8624
G01 X47.9019 Y-44.8653
G01 X47.8265 Y-44.9009
G01 X47.8198 Y-44.9045
G01 X47.7451 Y-44.9494
G01 X47.6720 Y-45.0036
G01 X47.6047 Y-45.0647
G01 X47.5460 Y-45.1292
G01 X47.5413 Y-45.1350
G01 X47.4916 Y-45.2020
G01 X47.4874 Y-45.2083
G01 X47.4426 Y-45.2831
G01 X47.4037 Y-45.3653
G01 X47.3731 Y-45.4510
G01 X47.3562 Y-45.5181
G01 X45.7181 Y-45.5182
G01 X45.7002 Y-45.5191
G01 X45.6843 Y-45.5214
G01 X45.6769 Y-45.5228
G01 X45.6614 Y-45.5268
G01 X45.6428 Y-45.5335
G01 X45.6282 Y-45.5403
G01 X45.6216 Y-45.5438
G01 X45.6063 Y-45.5532
G01 X45.5919 Y-45.5640
G01 X45.5773 Y-45.5773
G01 X25.2573 Y-65.8973
G01 X25.2464 Y-65.9091
G01 X25.2416 Y-65.9149
G01 X25.2322 Y-65.9279
G01 X25.2229 Y-65.9432
G01 X25.2135 Y-65.9628
G01 X25.2080 Y-65.9778
G01 X25.2058 Y-65.9850
G01 X25.2020 Y-66.0006
G01 X25.1996 Y-66.0165
G01 X25.1988 Y-66.0240
G01 X25.1981 Y-66.0400
G01 X25.1982 Y-81.2838
G00 Z2.0000
G00 X27.6132 Y-81.2838
G01 F60.00
G01 Z-0.1000
G01 F120.00
G01 X27.6146 Y-81.3120
G01 X27.6194 Y-81.3438
G01 X27.6272 Y-81.3749
G01 X27.6380 Y-81.4051
G01 X27.6517 Y-81.4341
G01 X27.6682 Y-81.4616
G01 X27.6873 Y-81.4874
G01 X27.7088 Y-81.5112
G01 X45.4888 Y-99.2912
G01 X45.5141 Y-99.3139
G01 X45.5384 Y-99.3318
G01 X45.5659 Y-99.3483
G01 X45.5949 Y-99.3620
G01 X45.6215 Y-99.3717
G01 X45.6287 Y-99.3739
G01 X45.6525 Y-99.3798
G01 X45.6599 Y-99.3813
G01 X45.6880 Y-99.3854
G01 X45.7200 Y-99.3869
G01 X50.8000 Y-99.3869
G01 X50.8320 Y-99.3854
G01 X50.8601 Y-99.3813
G01 X50.8675 Y-99.3798
G01 X50.8949 Y-99.3728
G01 X50.9216 Y-99.3634
G01 X50.9286 Y-99.3605
G01 X50.9541 Y-99.3483
G01 X50.9816 Y-99.3318
G01 X51.0074 Y-99.3127
G01 X51.0312 Y-99.2912
G01 X66.2712 Y-84.0512
G01 X66.2915 Y-84.0288
G01 X66.3118 Y-84.0016
G01 X66.3265 Y-83.9774
G01 X66.3300 Y-83.9707
G01 X66.3405 Y-83.9486
G01 X66.3434 Y-83.9416
G01 X66.3528 Y-83.9149
G01 X66.3606 Y-83.8838
G01 X66.3654 Y-83.8520
G01 X66.3668 Y-83.8238
G01 X66.3669 Y-82.1463
G01 X66.3964 Y-82.1355
G01 X66.4752 Y-82.0982
G01 X66.5565 Y-82.0495
G01 X66.6250 Y-81.9987
G01 X66.6308 Y-81.9940
G01 X66.6953 Y-81.9353
G01 X66.7552 Y-81.8694
G01 X66.8084 Y-81.7980
G01 X66.8126 Y-81.7917
G01 X66.8574 Y-81.7169
G01 X66.8947 Y-81.6381
G01 X66.8976 Y-81.6312
G01 X66.9269 Y-81.5490
G01 X66.9482 Y-81.4645
G01 X66.9496 Y-81.4571
G01 X66.9623 Y-81.3708
G01 X66.9668 Y-81.2800
G01 X66.9623 Y-81.1892
G01 X66.9490 Y-81.0992
G01 X66.9269 Y-81.0110
G01 X66.8963 Y-80.9253
G01 X66.8574 Y-80.8431
G01 X66.8106 Y-80.7651
G01 X66.7564 Y-80.6920
G01 X66.6979 Y-80.6274
G01 X66.6926 Y-80.6221
G01 X66.6308 Y-80.5660
G01 X66.6250 Y-80.5613
G01 X66.5549 Y-80.5094
G01 X66.4802 Y-80.4645
G01 X66.4735 Y-80.4609
G01 X66.3947 Y-80.4237
G01 X66.3090 Y-80.3931
G01 X66.2208 Y-80.3710
G01 X66.1346 Y-80.3581
G01 X66.1271 Y-80.3574
G01 X66.0400 Y-80.3532
G01 X65.9529 Y-80.3574
G01 X65.9454 Y-80.3581
G01 X65.8629 Y-80.3704
G01 X65.8555 Y-80.3718
G01 X65.7710 Y-80.3931
G01 X65.6853 Y-80.4237
G01 X65.6031 Y-80.4626
G01 X65.5283 Y-80.5074
G01 X65.5220 Y-80.5116
G01 X65.4550 Y-80.5613
G01 X65.4492 Y-80.5660
G01 X65.3847 Y-80.6247
G01 X65.3260 Y-80.6892
G01 X65.3213 Y-80.6950
G01 X65.2694 Y-80.7651
G01 X65.2226 Y-80.8431
G01 X65.1837 Y-80.9253
G01 X65.1531 Y-81.0110
G01 X65.1310 Y-81.0992
G01 X65.1177 Y-81.1892
G01 X65.1132 Y-81.2800
G01 X65.1179 Y-81.3727
G01 X65.1310 Y-81.4608
G01 X65.1521 Y-81.5454
G01 X65.1543 Y-81.5526
G01 X65.1837 Y-81.6347
G01 X65.2209 Y-81.7135
G01 X65.2245 Y-81.7202
G01 X65.2694 Y-81.7949
G01 X65.3224 Y-81.8665
G01 X65.3821 Y-81.9326
G01 X65.3874 Y-81.9379
G01 X65.4520 Y-81.9964
G01 X65.5235 Y-82.0495
G01 X65.6048 Y-82.0982
G01 X65.6836 Y-82.1355
G01 X65.7131 Y-82.1463
G01 X65.7131 Y-83.6846
G01 X50.6646 Y-98.7331
G01 X45.8554 Y-98.7331
G01 X28.2669 Y-81.1446
G01 X28.2669 Y-66.1754
G01 X45.8554 Y-48.5869
G01 X47.3937 Y-48.5869
G01 X47.4045 Y-48.6164
G01 X47.4435 Y-48.6985
G01 X47.4894 Y-48.7749
G01 X47.5424 Y-48.8465
G01 X47.6021 Y-48.9126
G01 X47.6074 Y-48.9179
G01 X47.6720 Y-48.9764
G01 X47.7435 Y-49.0295
G01 X47.8198 Y-49.0755
G01 X47.8265 Y-49.0791
G01 X47.9053 Y-49.1163
G01 X47.9910 Y-49.1469
G01 X48.0792 Y-49.1690
G01 X48.1654 Y-49.1819
G01 X48.1729 Y-49.1826
G01 X48.2600 Y-49.1868
G01 X48.3471 Y-49.1826
G01 X48.3546 Y-49.1819
G01 X48.4408 Y-49.1690
G01 X48.5290 Y-49.1469
G01 X48.6147 Y-49.1163
G01 X48.6935 Y-49.0791
G01 X48.7002 Y-49.0755
G01 X48.7765 Y-49.0295
G01 X48.8480 Y-48.9764
G01 X48.9126 Y-48.9179
G01 X48.9179 Y-48.9126
G01 X48.9776 Y-48.8465
G01 X49.0306 Y-48.7749
G01 X49.0765 Y-48.6985
G01 X49.1155 Y-48.6164
G01 X49.1263 Y-48.5869
G01 X75.3337 Y-48.5869
G01 X75.3445 Y-48.6164
G01 X75.3835 Y-48.6985
G01 X75.4294 Y-48.7749
G01 X75.4824 Y-48.8465
G01 X75.5421 Y-48.9126
G01 X75.5474 Y-48.9179
G01 X75.6120 Y-48.9764
G01 X75.6835 Y-49.0295
G01 X75.7598 Y-49.0755
G01 X75.7665 Y-49.0791
G01 X75.8453 Y-49.1163
G01 X75.9310 Y-49.1469
G01 X76.0192 Y-49.1690
G01 X76.1054 Y-49.1819
G01 X76.1129 Y-49.1826
G01 X76.2019 Y-49.1868
G01 X76.2908 Y-49.1823
G01 X76.3771 Y-49.1696
G01 X76.3845 Y-49.1682
G01 X76.4690 Y-49.1469
G01 X76.5512 Y-49.1176
G01 X76.5581 Y-49.1147
G01 X76.6369 Y-49.0774
G01 X76.7117 Y-49.0326
G01 X76.7180 Y-49.0284
G01 X76.7880 Y-48.9764
G01 X76.8526 Y-48.9179
G01 X76.8579 Y-48.9126
G01 X76.9164 Y-48.8480
G01 X76.9684 Y-48.7780
G01 X76.9726 Y-48.7717
G01 X77.0174 Y-48.6969
G01 X77.0547 Y-48.6181
G01 X77.0576 Y-48.6112
G01 X77.0869 Y-48.5290
G01 X77.1090 Y-48.4408
G01 X77.1219 Y-48.3546
G01 X77.1226 Y-48.3471
G01 X77.1268 Y-48.2600
G01 X77.1226 Y-48.1729
G01 X77.1219 Y-48.1654
G01 X77.1090 Y-48.0792
G01 X77.0879 Y-47.9946
G01 X77.0857 Y-47.9874
G01 X77.0563 Y-47.9053
G01 X77.0191 Y-47.8265
G01 X77.0155 Y-47.8198
G01 X76.9706 Y-47.7451
G01 X76.9164 Y-47.6720
G01 X76.8579 Y-47.6074
G01 X76.8526 Y-47.6021
G01 X76.7880 Y-47.5436
G01 X76.7180 Y-47.4916
G01 X76.7117 Y-47.4874
G01 X76.6369 Y-47.4426
G01 X76.5547 Y-47.4037
G01 X76.4726 Y-47.3743
G01 X76.4654 Y-47.3721
G01 X76.3808 Y-47.3510
G01 X76.2946 Y-47.3381
G01 X76.2871 Y-47.3374
G01 X76.2000 Y-47.3332
G01 X76.1129 Y-47.3374
G01 X76.1054 Y-47.3381
G01 X76.0192 Y-47.3510
G01 X75.9310 Y-47.3731
G01 X75.8453 Y-47.4037
G01 X75.7665 Y-47.4409
G01 X75.7598 Y-47.4445
G01 X75.6835 Y-47.4905
G01 X75.6120 Y-47.5436
G01 X75.5474 Y-47.6021
G01 X75.5421 Y-47.6074
G01 X75.4824 Y-47.6735
G01 X75.4294 Y-47.7451
G01 X75.3835 Y-47.8215
G01 X75.3445 Y-47.9036
G01 X75.3337 Y-47.9331
G01 X49.1263 Y-47.9331
G01 X49.1155 Y-47.9036
G01 X49.0765 Y-47.8215
G01 X49.0306 Y-47.7451
G01 X48.9776 Y-47.6735
G01 X48.9179 Y-47.6074
G01 X48.9126 Y-47.6021
G01 X48.8480 Y-47.5436
G01 X48.7765 Y-47.4905
G01 X48.7002 Y-47.4445
G01 X48.6935 Y-47.4409
G01 X48.6147 Y-47.4037
G01 X48.5290 Y-47.3731
G01 X48.4408 Y-47.3510
G01 X48.3546 Y-47.3381
G01 X48.3471 Y-47.3374
G01 X48.2600 Y-47.3332
G01 X48.1729 Y-47.3374
G01 X48.1654 Y-47.3381
G01 X48.0792 Y-47.3510
G01 X47.9910 Y-47.3731
G01 X47.9053 Y-47.4037
G01 X47.8265 Y-47.4409
G01 X47.8198 Y-47.4445
G01 X47.7435 Y-47.4905
G01 X47.6720 Y-47.5436
G01 X47.6074 Y-47.6021
G01 X47.6021 Y-47.6074
G01 X47.5424 Y-47.6735
G01 X47.4894 Y-47.7451
G01 X47.4435 Y-47.8215
G01 X47.4045 Y-47.9036
G01 X47.3937 Y-47.9331
G01 X45.7181 Y-47.9331
G01 X45.6880 Y-47.9346
G01 X45.6599 Y-47.9387
G01 X45.6525 Y-47.9402
G01 X45.6251 Y-47.9472
G01 X45.5984 Y-47.9566
G01 X45.5914 Y-47.9595
G01 X45.5659 Y-47.9717
G01 X45.5384 Y-47.9882
G01 X45.5126 Y-48.0073
G01 X45.4888 Y-48.0288
G01 X27.7088 Y-65.8088
G01 X27.6897 Y-65.8297
G01 X27.6850 Y-65.8356
G01 X27.6682 Y-65.8584
G01 X27.6517 Y-65.8859
G01 X27.6395 Y-65.9114
G01 X27.6366 Y-65.9184
G01 X27.6272 Y-65.9451
G01 X27.6202 Y-65.9725
G01 X27.6187 Y-65.9799
G01 X27.6146 Y-66.0080
G01 X27.6131 Y-66.0400
G01 X27.6132 Y-81.2838
G00 Z2.0000
G00 X30.1532 Y-81.2838
G01 F60.00
G01 Z-0.1000
G01 F120.00
G01 X30.1546 Y-81.3120
G01 X30.1594 Y-81.3438
G01 X30.1672 Y-81.3749
G01 X30.1780 Y-81.4051
G01 X30.1917 Y-81.4341
G01 X30.2082 Y-81.4616
G01 X30.2273 Y-81.4874
G01 X30.2488 Y-81.5112
G01 X45.4888 Y-96.7512
G01 X45.5097 Y-96.7703
G01 X45.5156 Y-96.7750
G01 X45.5384 Y-96.7918
G01 X45.5659 Y-96.8083
G01 X45.5949 Y-96.8220
G01 X45.6215 Y-96.8317
G01 X45.6287 Y-96.8339
G01 X45.6525 Y-96.8398
G01 X45.6599 Y-96.8413
G01 X45.6880 Y-96.8454
G01 X45.7200 Y-96.8469
G01 X50.8000 Y-96.8469
G01 X50.8320 Y-96.8454
G01 X50.8601 Y-96.8413
G01 X50.8675 Y-96.8398
G01 X50.8949 Y-96.8328
G01 X50.9216 Y-96.8234
G01 X50.9286 Y-96.8205
G01 X50.9541 Y-96.8083
G01 X50.9816 Y-96.7918
G01 X51.0074 Y-96.7727
G01 X51.0312 Y-96.7512
G01 X63.7312 Y-84.0512
G01 X63.7527 Y-84.0274
G01 X63.7718 Y-84.0016
G01 X63.7865 Y-83.9774
G01 X63.7900 Y-83.9707
G01 X63.8005 Y-83.9486
G01 X63.8034 Y-83.9416
G01 X63.8128 Y-83.9149
G01 X63.8206 Y-83.8838
G01 X63.8254 Y-83.8520
G01 X63.8268 Y-83.8238
G01 X63.8269 Y-82.1463
G01 X63.8564 Y-82.1355
G01 X63.9352 Y-82.0982
G01 X64.0165 Y-82.0495
G01 X64.0850 Y-81.9987
G01 X64.0908 Y-81.9940
G01 X64.1553 Y-81.9353
G01 X64.2152 Y-81.8694
G01 X64.2684 Y-81.7980
G01 X64.2726 Y-81.7917
G01 X64.3174 Y-81.7169
G01 X64.3547 Y-81.6381
G01 X64.3576 Y-81.6312
G01 X64.3869 Y-81.5490
G01 X64.4082 Y-81.4645
G01 X64.4096 Y-81.4571
G01 X64.4223 Y-81.3708
G01 X64.4268 Y-81.2800
G01 X64.4223 Y-81.1892
G01 X64.4090 Y-81.0992
G01 X64.3869 Y-81.0110
G01 X64.3563 Y-80.9253
G01 X64.3174 Y-80.8431
G01 X64.2706 Y-80.7651
G01 X64.2164 Y-80.6920
G01 X64.1579 Y-80.6274
G01 X64.1526 Y-80.6221
G01 X64.0908 Y-80.5660
G01 X64.0850 Y-80.5613
G01 X64.0149 Y-80.5094
G01 X63.9402 Y-80.4645
G01 X63.9335 Y-80.4609
G01 X63.8547 Y-80.4237
G01 X63.7690 Y-80.3931
G01 X63.6808 Y-80.3710
G01 X63.5946 Y-80.3581
G01 X63.5871 Y-80.3574
G01 X63.5000 Y-80.3532
G01 X63.4129 Y-80.3574
G01 X63.4054 Y-80.3581
G01 X63.3229 Y-80.3704
G01 X63.3155 Y-80.3718
G01 X63.2310 Y-80.3931
G01 X63.1453 Y-80.4237
G01 X63.0631 Y-80.4626
G01 X62.9883 Y-80.5074
G01 X62.9820 Y-80.5116
G01 X62.9120 Y-80.5636
G01 X62.8474 Y-80.6221
G01 X62.8421 Y-80.6274
G01 X62.7848 Y-80.6906
G01 X62.7294 Y-80.7651
G01 X62.6826 Y-80.8431
G01 X62.6437 Y-80.9253
G01 X62.6131 Y-81.0110
G01 X62.5910 Y-81.0992
G01 X62.5777 Y-81.1892
G01 X62.5732 Y-81.2800
G01 X62.5779 Y-81.3727
G01 X62.5910 Y-81.4608
G01 X62.6121 Y-81.5454
G01 X62.6143 Y-81.5526
G01 X62.6437 Y-81.6347
G01 X62.6809 Y-81.7135
G01 X62.6845 Y-81.7202
G01 X62.7294 Y-81.7949
G01 X62.7824 Y-81.8665
G01 X62.8421 Y-81.9326
G01 X62.8474 Y-81.9379
G01 X62.9120 Y-81.9964
G01 X62.9835 Y-82.0495
G01 X63.0648 Y-82.0982
G01 X63.1436 Y-82.1355
G01 X63.1731 Y-82.1463
G01 X63.1731 Y-83.6846
G01 X50.6646 Y-96.1931
G01 X45.8554 Y-96.1931
G01 X30.8069 Y-81.1446
G01 X30.8069 Y-66.1754
G01 X45.8554 Y-51.1269
G01 X47.3937 Y-51.1269
G01 X47.4045 Y-51.1564
G01 X47.4435 Y-51.2385
G01 X47.4894 Y-51.3149
G01 X47.5424 Y-51.3865
G01 X47.6021 Y-51.4526
G01 X47.6074 Y-51.4579
G01 X47.6720 Y-51.5164
G01 X47.7435 Y-51.5695
G01 X47.8198 Y-51.6155
G01 X47.8265 Y-51.6191
G01 X47.9053 Y-51.6563
G01 X47.9910 Y-51.6869
G01 X48.0792 Y-51.7090
G01 X48.1654 Y-51.7219
G01 X48.1729 Y-51.7226
G01 X48.2600 Y-51.7268
G01 X48.3471 Y-51.7226
G01 X48.3546 Y-51.7219
G01 X48.4408 Y-51.7090
G01 X48.5290 Y-51.6869
G01 X48.6147 Y-51.6563
G01 X48.6935 Y-51.6191
G01 X48.7002 Y-51.6155
G01 X48.7765 Y-51.5695
G01 X48.8480 Y-51.5164
G01 X48.9126 Y-51.4579
G01 X48.9179 Y-51.4526
G01 X48.9776 Y-51.3865
G01 X49.0306 Y-51.3149
G01 X49.0765 Y-51.2385
G01 X49.1155 Y-51.1564
G01 X49.1263 Y-51.1269
G01 X75.3337 Y-51.1269
G01 X75.3445 Y-51.1564
G01 X75.3835 Y-51.2385
G01 X75.4294 Y-51.3149
G01 X75.4824 Y-51.3865
G01 X75.5421 Y-51.4526
G01 X75.5474 Y-51.4579
G01 X75.6120 Y-51.5164
G01 X75.6835 Y-51.5695
G01 X75.7598 Y-51.6155
G01 X75.7665 Y-51.6191
G01 X75.8453 Y-51.6563
G01 X75.9310 Y-51.6869
G01 X76.0192 Y-51.7090
G01 X76.1054 Y-51.7219
G01 X76.1129 Y-51.7226
G01 X76.2019 Y-51.7268
G01 X76.2908 Y-51.7223
G01 X76.3771 Y-51.7096
G01 X76.3845 Y-51.7082
G01 X76.4690 Y-51.6869
G01 X76.5512 Y-51.6576
G01 X76.5581 Y-51.6547
G01 X76.6369 Y-51.6174
G01 X76.7117 Y-51.5726
G01 X76.7180 Y-51.5684
G01 X76.7880 Y-51.5164
G01 X76.8526 Y-51.4579
G01 X76.8579 Y-51.4526
G01 X76.9164 Y-51.3880
G01 X76.9684 Y-51.3180
G01 X76.9726 Y-51.3117
G01 X77.0174 Y-51.2369
G01 X77.0547 Y-51.1581
G01 X77.0576 Y-51.1512
G01 X77.0869 Y-51.0690
G01 X77.1090 Y-50.9808
G01 X77.1219 Y-50.8946
G01 X77.1226 Y-50.8871
G01 X77.1268 Y-50.8000
G01 X77.1226 Y-50.7129
G01 X77.1219 Y-50.7054
G01 X77.1090 Y-50.6192
G01 X77.0879 Y-50.5346
G01 X77.0857 Y-50.5274
G01 X77.0563 Y-50.4453
G01 X77.0191 Y-50.3665
G01 X77.0155 Y-50.3598
G01 X76.9706 Y-50.2851
G01 X76.9164 Y-50.2120
G01 X76.8579 Y-50.1474
G01 X76.8526 Y-50.1421
G01 X76.7880 Y-50.0836
G01 X76.7180 Y-50.0316
G01 X76.7117 Y-50.0274
G01 X76.6369 Y-49.9826
G01 X76.5547 Y-49.9437
G01 X76.4726 Y-49.9143
G01 X76.4654 Y-49.9121
G01 X76.3808 Y-49.8910
G01 X76.2946 Y-49.8781
G01 X76.2871 Y-49.8774
G01 X76.2000 Y-49.8732
G01 X76.1129 Y-49.8774
G01 X76.1054 Y-49.8781
G01 X76.0192 Y-49.8910
G01 X75.9310 Y-49.9131
G01 X75.8453 Y-49.9437
G01 X75.7665 Y-49.9809
G01 X75.7598 Y-49.9845
G01 X75.6835 Y-50.0305
G01 X75.6120 Y-50.0836
G01 X75.5474 Y-50.1421
G01 X75.5421 Y-50.1474
G01 X75.4824 Y-50.2135
G01 X75.4294 Y-50.2851
G01 X75.3835 Y-50.3615
G01 X75.3445 Y-50.4436
G01 X75.3337 Y-50.4731
G01 X49.1263 Y-50.4731
G01 X49.1155 Y-50.4436
G01 X49.0765 Y-50.3615
G01 X49.0306 Y-50.2851
G01 X48.9776 Y-50.2135
G01 X48.9179 Y-50.1474
G01 X48.9126 Y-50.1421
G01 X48.8480 Y-50.0836
G01 X48.7765 Y-50.0305
G01 X48.7002 Y-49.9845
G01 X48.6935 Y-49.9809
G01 X48.6147 Y-49.9437
G01 X48.5290 Y-49.9131
G01 X48.4408 Y-49.8910
G01 X48.3546 Y-49.8781
G01 X48.3471 Y-49.8774
G01 X48.2600 Y-49.8732
G01 X48.1729 Y-49.8774
G01 X48.1654 Y-49.8781
G01 X48.0792 Y-49.8910
G01 X47.9910 Y-49.9131
G01 X47.9053 Y-49.9437
G01 X47.8265 Y-49.9809
G01 X47.8198 Y-49.9845
G01 X47.7435 Y-50.0305
G01 X47.6720 Y-50.0836
G01 X47.6074 Y-50.1421
G01 X47.6021 Y-50.1474
G01 X47.5424 Y-50.2135
G01 X47.4894 Y-50.2851
G01 X47.4435 Y-50.3615
G01 X47.4045 Y-50.4436
G01 X47.3937 Y-50.4731
G01 X45.7181 Y-50.4731
G01 X45.6880 Y-50.4746
G01 X45.6599 Y-50.4787
G01 X45.6525 Y-50.4802
G01 X45.6251 Y-50.4872
G01 X45.5984 Y-50.4966
G01 X45.5914 Y-50.4995
G01 X45.5659 Y-50.5117
G01 X45.5384 Y-50.5282
G01 X45.5126 Y-50.5473
G01 X45.4888 Y-50.5688
G01 X30.2488 Y-65.8088
G01 X30.2273 Y-65.8326
G01 X30.2103 Y-65.8553
G01 X30.2062 Y-65.8616
G01 X30.1908 Y-65.8876
G01 X30.1795 Y-65.9114
G01 X30.1766 Y-65.9184
G01 X30.1672 Y-65.9451
G01 X30.1602 Y-65.9725
G01 X30.1587 Y-65.9799
G01 X30.1546 Y-66.0080
G01 X30.1531 Y-66.0400
G01 X30.1532 Y-81.2838
G00 Z2.0000
G00 X32.6932 Y-81.2838
G01 F60.00
G01 Z-0.1000
G01 F120.00
G01 X32.6946 Y-81.3120
G01 X32.6994 Y-81.3438
G01 X32.7072 Y-81.3749
G01 X32.7180 Y-81.4051
G01 X32.7317 Y-81.4341
G01 X32.7482 Y-81.4616
G01 X32.7673 Y-81.4874
G01 X32.7888 Y-81.5112
G01 X45.4888 Y-94.2112
G01 X45.5126 Y-94.2327
G01 X45.5368 Y-94.2508
G01 X45.5626 Y-94.2665
G01 X45.5693 Y-94.2700
G01 X45.5949 Y-94.2820
G01 X45.6251 Y-94.2928
G01 X45.6525 Y-94.2998
G01 X45.6599 Y-94.3013
G01 X45.6880 Y-94.3054
G01 X45.7200 Y-94.3069
G01 X50.8000 Y-94.3069
G01 X50.8320 Y-94.3054
G01 X50.8601 Y-94.3013
G01 X50.8675 Y-94.2998
G01 X50.8949 Y-94.2928
G01 X50.9216 Y-94.2834
G01 X50.9286 Y-94.2805
G01 X50.9541 Y-94.2683
G01 X50.9800 Y-94.2529
G01 X51.0074 Y-94.2327
G01 X51.0312 Y-94.2112
G01 X61.1912 Y-84.0512
G01 X61.2139 Y-84.0259
G01 X61.2318 Y-84.0016
G01 X61.2465 Y-83.9774
G01 X61.2500 Y-83.9707
G01 X61.2605 Y-83.9486
G01 X61.2634 Y-83.9416
G01 X61.2728 Y-83.9149
G01 X61.2806 Y-83.8838
G01 X61.2854 Y-83.8520
G01 X61.2868 Y-83.8238
G01 X61.2869 Y-82.1463
G01 X61.3164 Y-82.1355
G01 X61.3952 Y-82.0982
G01 X61.4765 Y-82.0495
G01 X61.5450 Y-81.9987
G01 X61.5508 Y-81.9940
G01 X61.6153 Y-81.9353
G01 X61.6752 Y-81.8694
G01 X61.7284 Y-81.7980
G01 X61.7326 Y-81.7917
G01 X61.7774 Y-81.7169
G01 X61.8147 Y-81.6381
G01 X61.8176 Y-81.6312
G01 X61.8469 Y-81.5490
G01 X61.8682 Y-81.4645
G01 X61.8696 Y-81.4571
G01 X61.8823 Y-81.3708
G01 X61.8868 Y-81.2800
G01 X61.8823 Y-81.1892
G01 X61.8690 Y-81.0992
G01 X61.8469 Y-81.0110
G01 X61.8163 Y-80.9253
G01 X61.7774 Y-80.8431
G01 X61.7316 Y-80.7667
G01 X61.6764 Y-80.6920
G01 X61.6179 Y-80.6274
G01 X61.6126 Y-80.6221
G01 X61.5508 Y-80.5660
G01 X61.5450 Y-80.5613
G01 X61.4749 Y-80.5094
G01 X61.4002 Y-80.4645
G01 X61.3935 Y-80.4609
G01 X61.3147 Y-80.4237
G01 X61.2290 Y-80.3931
G01 X61.1408 Y-80.3710
G01 X61.0546 Y-80.3581
G01 X61.0471 Y-80.3574
G01 X60.9600 Y-80.3532
G01 X60.8729 Y-80.3574
G01 X60.8654 Y-80.3581
G01 X60.7829 Y-80.3704
G01 X60.7755 Y-80.3718
G01 X60.6910 Y-80.3931
G01 X60.6053 Y-80.4237
G01 X60.5231 Y-80.4626
G01 X60.4483 Y-80.5074
G01 X60.4420 Y-80.5116
G01 X60.3720 Y-80.5636
G01 X60.3074 Y-80.6221
G01 X60.3021 Y-80.6274
G01 X60.2448 Y-80.6906
G01 X60.1894 Y-80.7651
G01 X60.1426 Y-80.8431
G01 X60.1037 Y-80.9253
G01 X60.0731 Y-81.0110
G01 X60.0510 Y-81.0992
G01 X60.0377 Y-81.1892
G01 X60.0332 Y-81.2800
G01 X60.0379 Y-81.3727
G01 X60.0510 Y-81.4608
G01 X60.0721 Y-81.5454
G01 X60.0743 Y-81.5526
G01 X60.1037 Y-81.6347
G01 X60.1409 Y-81.7135
G01 X60.1445 Y-81.7202
G01 X60.1894 Y-81.7949
G01 X60.2424 Y-81.8665
G01 X60.3021 Y-81.9326
G01 X60.3074 Y-81.9379
G01 X60.3720 Y-81.9964
G01 X60.4435 Y-82.0495
G01 X60.5248 Y-82.0982
G01 X60.6036 Y-82.1355
G01 X60.6331 Y-82.1463
G01 X60.6331 Y-83.6846
G01 X50.6646 Y-93.6531
G01 X45.8554 Y-93.6531
G01 X33.3469 Y-81.1446
G01 X33.3469 Y-66.1754
G01 X45.8554 Y-53.6669
G01 X47.3937 Y-53.6669
G01 X47.4045 Y-53.6964
G01 X47.4435 Y-53.7785
G01 X47.4894 Y-53.8549
G01 X47.5424 Y-53.9265
G01 X47.6021 Y-53.9926
G01 X47.6074 Y-53.9979
G01 X47.6720 Y-54.0564
G01 X47.7435 Y-54.1095
G01 X47.8198 Y-54.1555
G01 X47.8265 Y-54.1591
G01 X47.9053 Y-54.1963
G01 X47.9910 Y-54.2269
G01 X48.0792 Y-54.2490
G01 X48.1654 Y-54.2619
G01 X48.1729 Y-54.2626
G01 X48.2600 Y-54.2668
G01 X48.3471 Y-54.2626
G01 X48.3546 Y-54.2619
G01 X48.4408 Y-54.2490
G01 X48.5290 Y-54.2269
G01 X48.6147 Y-54.1963
G01 X48.6935 Y-54.1591
G01 X48.7002 Y-54.1555
G01 X48.7765 Y-54.1095
G01 X48.8480 Y-54.0564
G01 X48.9126 Y-53.9979
G01 X48.9179 Y-53.9926
G01 X48.9776 Y-53.9265
G01 X49.0306 Y-53.8549
G01 X49.0765 Y-53.7785
G01 X49.1155 Y-53.6964
G01 X49.1263 Y-53.6669
G01 X75.3337 Y-53.6669
G01 X75.3445 Y-53.6964
G01 X75.3835 Y-53.7785
G01 X75.4294 Y-53.8549
G01 X75.4824 Y-53.9265
G01 X75.5421 Y-53.9926
G01 X75.5474 Y-53.9979
G01 X75.6120 Y-54.0564
G01 X75.6835 Y-54.1095
G01 X75.7598 Y-54.1555
G01 X75.7665 Y-54.1591
G01 X75.8453 Y-54.1963
G01 X75.9310 Y-54.2269
G01 X76.0192 Y-54.2490
G01 X76.1054 Y-54.2619
G01 X76.1129 Y-54.2626
G01 X76.2019 Y-54.2668
G01 X76.2908 Y-54.2623
G01 X76.3771 Y-54.2496
G01 X76.3845 Y-54.2482
G01 X76.4690 Y-54.2269
G01 X76.5512 Y-54.1976
G01 X76.5581 Y-54.1947
G01 X76.6369 Y-54.1574
G01 X76.7117 Y-54.1126
G01 X76.7180 Y-54.1084
G01 X76.7880 Y-54.0564
G01 X76.8526 Y-53.9979
G01 X76.8579 Y-53.9926
G01 X76.9164 Y-53.9280
G01 X76.9684 Y-53.8580
G01 X76.9726 Y-53.8517
G01 X77.0174 Y-53.7769
G01 X77.0547 Y-53.6981
G01 X77.0576 Y-53.6912
G01 X77.0869 Y-53.6090
G01 X77.1082 Y-53.5245
G01 X77.1096 Y-53.5171
G01 X77.1223 Y-53.4308
G01 X77.1267 Y-53.3438
G01 X77.1267 Y-53.3362
G01 X77.1223 Y-53.2492
G01 X77.1096 Y-53.1629
G01 X77.1082 Y-53.1555
G01 X77.0869 Y-53.0710
G01 X77.0576 Y-52.9888
G01 X77.0547 Y-52.9819
G01 X77.0174 Y-52.9031
G01 X76.9716 Y-52.8267
G01 X76.9164 Y-52.7520
G01 X76.8579 Y-52.6874
G01 X76.8526 Y-52.6821
G01 X76.7880 Y-52.6236
G01 X76.7180 Y-52.5716
G01 X76.7117 Y-52.5674
G01 X76.6369 Y-52.5226
G01 X76.5547 Y-52.4837
G01 X76.4726 Y-52.4543
G01 X76.4654 Y-52.4521
G01 X76.3808 Y-52.4310
G01 X76.2946 Y-52.4181
G01 X76.2871 Y-52.4174
G01 X76.2000 Y-52.4132
G01 X76.1129 Y-52.4174
G01 X76.1054 Y-52.4181
G01 X76.0192 Y-52.4310
G01 X75.9310 Y-52.4531
G01 X75.8453 Y-52.4837
G01 X75.7665 Y-52.5209
G01 X75.7598 Y-52.5245
G01 X75.6835 Y-52.5705
G01 X75.6120 Y-52.6236
G01 X75.5474 Y-52.6821
G01 X75.5421 Y-52.6874
G01 X75.4824 Y-52.7535
G01 X75.4294 Y-52.8251
G01 X75.3835 Y-52.9015
G01 X75.3445 Y-52.9836
G01 X75.3337 Y-53.0131
G01 X49.1263 Y-53.0131
G01 X49.1155 Y-52.9836
G01 X49.0765 Y-52.9015
G01 X49.0306 Y-52.8251
G01 X48.9776 Y-52.7535
G01 X48.9179 Y-52.6874
G01 X48.9126 Y-52.6821
G01 X48.8480 Y-52.6236
G01 X48.7765 Y-52.5705
G01 X48.7002 Y-52.5245
G01 X48.6935 Y-52.5209
G01 X48.6147 Y-52.4837
G01 X48.5290 Y-52.4531
G01 X48.4408 Y-52.4310
G01 X48.3546 Y-52.4181
G01 X48.3471 Y-52.4174
G01 X48.2600 Y-52.4132
G01 X48.1729 Y-52.4174
G01 X48.1654 Y-52.4181
G01 X48.0792 Y-52.4310
G01 X47.9910 Y-52.4531
G01 X47.9053 Y-52.4837
G01 X47.8265 Y-52.5209
G01 X47.8198 Y-52.5245
G01 X47.7435 Y-52.5705
G01 X47.6720 Y-52.6236
G01 X47.6074 Y-52.6821
G01 X47.6021 Y-52.6874
G01 X47.5424 Y-52.7535
G01 X47.4894 Y-52.8251
G01 X47.4435 Y-52.9015
G01 X47.4045 Y-52.9836
G01 X47.3937 Y-53.0131
G01 X45.7181 Y-53.0131
G01 X45.6880 Y-53.0146
G01 X45.6599 Y-53.0187
G01 X45.6525 Y-53.0202
G01 X45.6251 Y-53.0272
G01 X45.5984 Y-53.0366
G01 X45.5914 Y-53.0395
G01 X45.5659 Y-53.0517
G01 X45.5400 Y-53.0671
G01 X45.5126 Y-53.0873
G01 X45.4888 Y-53.1088
G01 X32.7888 Y-65.8088
G01 X32.7673 Y-65.8326
G01 X32.7482 Y-65.8584
G01 X32.7317 Y-65.8859
G01 X32.7187 Y-65.9132
G01 X32.7072 Y-65.9451
G01 X32.6994 Y-65.9762
G01 X32.6946 Y-66.0080
G01 X32.6931 Y-66.0400
G01 X32.6932 Y-81.2838
G00 Z2.0000
G00 X35.1081 Y-81.2838
G01 F60.00
G01 Z-0.1000
G01 F120.00
G01 X35.1102 Y-81.3243
G01 X35.1167 Y-81.3682
G01 X35.1275 Y-81.4112
G01 X35.1424 Y-81.4530
G01 X35.1614 Y-81.4931
G01 X35.1842 Y-81.5311
G01 X35.2106 Y-81.5667
G01 X35.2404 Y-81.5996
G01 X45.4004 Y-91.7596
G01 X45.4333 Y-91.7894
G01 X45.4689 Y-91.8158
G01 X45.5069 Y-91.8386
G01 X45.5436 Y-91.8561
G01 X45.5505 Y-91.8589
G01 X45.5888 Y-91.8725
G01 X45.6318 Y-91.8833
G01 X45.6720 Y-91.8893
G01 X45.6795 Y-91.8901
G01 X45.7200 Y-91.8920
G01 X50.8019 Y-91.8920
G01 X50.8443 Y-91.8898
G01 X50.8845 Y-91.8839
G01 X50.8919 Y-91.8825
G01 X50.9312 Y-91.8725
G01 X50.9695 Y-91.8589
G01 X50.9764 Y-91.8561
G01 X51.0131 Y-91.8386
G01 X51.0495 Y-91.8168
G01 X51.0867 Y-91.7894
G01 X51.1196 Y-91.7596
G01 X58.7396 Y-84.1396
G01 X58.7669 Y-84.1096
G01 X58.7717 Y-84.1038
G01 X58.7958 Y-84.0711
G01 X58.8168 Y-84.0363
G01 X58.8203 Y-84.0297
G01 X58.8376 Y-83.9930
G01 X58.8525 Y-83.9512
G01 X58.8625 Y-83.9119
G01 X58.8639 Y-83.9045
G01 X58.8693 Y-83.8680
G01 X58.8701 Y-83.8605
G01 X58.8720 Y-83.8200
G01 X58.8720 Y-82.0884
G01 X58.9349 Y-82.0506
G01 X59.0080 Y-81.9964
G01 X59.0753 Y-81.9353
G01 X59.1364 Y-81.8680
G01 X59.1906 Y-81.7949
G01 X59.2374 Y-81.7169
G01 X59.2763 Y-81.6347
G01 X59.3069 Y-81.5490
G01 X59.3290 Y-81.4608
G01 X59.3423 Y-81.3708
G01 X59.3468 Y-81.2800
G01 X59.3423 Y-81.1892
G01 X59.3290 Y-81.0992
G01 X59.3069 Y-81.0110
G01 X59.2763 Y-80.9253
G01 X59.2391 Y-80.8465
G01 X59.2355 Y-80.8398
G01 X59.1906 Y-80.7651
G01 X59.1387 Y-80.6950
G01 X59.1340 Y-80.6892
G01 X59.0779 Y-80.6274
G01 X59.0726 Y-80.6221
G01 X59.0080 Y-80.5636
G01 X58.9349 Y-80.5094
G01 X58.8569 Y-80.4626
G01 X58.7781 Y-80.4253
G01 X58.7712 Y-80.4224
G01 X58.6890 Y-80.3931
G01 X58.6045 Y-80.3718
G01 X58.5971 Y-80.3704
G01 X58.5108 Y-80.3577
G01 X58.4200 Y-80.3532
G01 X58.3329 Y-80.3574
G01 X58.3254 Y-80.3581
G01 X58.2392 Y-80.3710
G01 X58.1546 Y-80.3921
G01 X58.1474 Y-80.3943
G01 X58.0653 Y-80.4237
G01 X57.9831 Y-80.4626
G01 X57.9083 Y-80.5074
G01 X57.9020 Y-80.5116
G01 X57.8320 Y-80.5636
G01 X57.7674 Y-80.6221
G01 X57.7621 Y-80.6274
G01 X57.7048 Y-80.6906
G01 X57.6494 Y-80.7651
G01 X57.6026 Y-80.8431
G01 X57.5637 Y-80.9253
G01 X57.5331 Y-81.0110
G01 X57.5110 Y-81.0992
G01 X57.4977 Y-81.1892
G01 X57.4932 Y-81.2800
G01 X57.4977 Y-81.3708
G01 X57.5104 Y-81.4571
G01 X57.5118 Y-81.4645
G01 X57.5331 Y-81.5490
G01 X57.5624 Y-81.6312
G01 X57.5653 Y-81.6381
G01 X57.6026 Y-81.7169
G01 X57.6494 Y-81.7949
G01 X57.7036 Y-81.8680
G01 X57.7621 Y-81.9326
G01 X57.7674 Y-81.9379
G01 X57.8292 Y-81.9940
G01 X57.8350 Y-81.9987
G01 X57.9051 Y-82.0506
G01 X57.9680 Y-82.0884
G01 X57.9680 Y-83.6328
G01 X50.6128 Y-90.9880
G01 X45.9072 Y-90.9880
G01 X36.0120 Y-81.0928
G01 X36.0120 Y-66.2272
G01 X45.9072 Y-56.3320
G01 X47.4516 Y-56.3320
G01 X47.4894 Y-56.3949
G01 X47.5413 Y-56.4650
G01 X47.5460 Y-56.4708
G01 X47.6047 Y-56.5353
G01 X47.6692 Y-56.5940
G01 X47.6750 Y-56.5987
G01 X47.7451 Y-56.6506
G01 X47.8198 Y-56.6955
G01 X47.8265 Y-56.6991
G01 X47.9053 Y-56.7363
G01 X47.9874 Y-56.7657
G01 X47.9946 Y-56.7679
G01 X48.0792 Y-56.7890
G01 X48.1654 Y-56.8019
G01 X48.1729 Y-56.8026
G01 X48.2600 Y-56.8068
G01 X48.3471 Y-56.8026
G01 X48.3546 Y-56.8019
G01 X48.4408 Y-56.7890
G01 X48.5254 Y-56.7679
G01 X48.5326 Y-56.7657
G01 X48.6147 Y-56.7363
G01 X48.6935 Y-56.6991
G01 X48.7002 Y-56.6955
G01 X48.7749 Y-56.6506
G01 X48.8450 Y-56.5987
G01 X48.8508 Y-56.5940
G01 X48.9153 Y-56.5353
G01 X48.9740 Y-56.4708
G01 X48.9787 Y-56.4650
G01 X49.0306 Y-56.3949
G01 X49.0684 Y-56.3320
G01 X75.3916 Y-56.3320
G01 X75.4294 Y-56.3949
G01 X75.4813 Y-56.4650
G01 X75.4860 Y-56.4708
G01 X75.5447 Y-56.5353
G01 X75.6092 Y-56.5940
G01 X75.6150 Y-56.5987
G01 X75.6851 Y-56.6506
G01 X75.7598 Y-56.6955
G01 X75.7665 Y-56.6991
G01 X75.8453 Y-56.7363
G01 X75.9274 Y-56.7657
G01 X75.9346 Y-56.7679
G01 X76.0192 Y-56.7890
G01 X76.1054 Y-56.8019
G01 X76.1129 Y-56.8026
G01 X76.2019 Y-56.8068
G01 X76.2908 Y-56.8023
G01 X76.3771 Y-56.7896
G01 X76.3845 Y-56.7882
G01 X76.4690 Y-56.7669
G01 X76.5512 Y-56.7376
G01 X76.5581 Y-56.7347
G01 X76.6369 Y-56.6974
G01 X76.7117 Y-56.6526
G01 X76.7180 Y-56.6484
G01 X76.7880 Y-56.5964
G01 X76.8526 Y-56.5379
G01 X76.8579 Y-56.5326
G01 X76.9164 Y-56.4680
G01 X76.9684 Y-56.3980
G01 X76.9726 Y-56.3917
G01 X77.0174 Y-56.3169
G01 X77.0547 Y-56.2381
G01 X77.0576 Y-56.2312
G01 X77.0869 Y-56.1490
G01 X77.1082 Y-56.0645
G01 X77.1096 Y-56.0571
G01 X77.1223 Y-55.9708
G01 X77.1267 Y-55.8838
G01 X77.1267 Y-55.8762
G01 X77.1223 Y-55.7892
G01 X77.1096 Y-55.7029
G01 X77.1082 Y-55.6955
G01 X77.0869 Y-55.6110
G01 X77.0576 Y-55.5288
G01 X77.0547 Y-55.5219
G01 X77.0174 Y-55.4431
G01 X76.9716 Y-55.3667
G01 X76.9164 Y-55.2920
G01 X76.8579 Y-55.2274
G01 X76.8526 Y-55.2221
G01 X76.7880 Y-55.1636
G01 X76.7180 Y-55.1116
G01 X76.7117 Y-55.1074
G01 X76.6369 Y-55.0626
G01 X76.5547 Y-55.0237
G01 X76.4726 Y-54.9943
G01 X76.4654 Y-54.9921
G01 X76.3808 Y-54.9710
G01 X76.2946 Y-54.9581
G01 X76.2871 Y-54.9574
G01 X76.2000 Y-54.9532
G01 X76.1129 Y-54.9574
G01 X76.1054 Y-54.9581
G01 X76.0192 Y-54.9710
G01 X75.9346 Y-54.9921
G01 X75.9274 Y-54.9943
G01 X75.8453 Y-55.0237
G01 X75.7665 Y-55.0609
G01 X75.7598 Y-55.0645
G01 X75.6851 Y-55.1094
G01 X75.6150 Y-55.1613
G01 X75.6092 Y-55.1660
G01 X75.5447 Y-55.2247
G01 X75.4860 Y-55.2892
G01 X75.4813 Y-55.2950
G01 X75.4294 Y-55.3651
G01 X75.3916 Y-55.4280
G01 X49.0684 Y-55.4280
G01 X49.0306 Y-55.3651
G01 X48.9787 Y-55.2950
G01 X48.9740 Y-55.2892
G01 X48.9153 Y-55.2247
G01 X48.8508 Y-55.1660
G01 X48.8450 Y-55.1613
G01 X48.7749 Y-55.1094
G01 X48.7002 Y-55.0645
G01 X48.6935 Y-55.0609
G01 X48.6147 Y-55.0237
G01 X48.5326 Y-54.9943
G01 X48.5254 Y-54.9921
G01 X48.4408 Y-54.9710
G01 X48.3546 Y-54.9581
G01 X48.3471 Y-54.9574
G01 X48.2600 Y-54.9532
G01 X48.1729 Y-54.9574
G01 X48.1654 Y-54.9581
G01 X48.0792 Y-54.9710
G01 X47.9946 Y-54.9921
G01 X47.9874 Y-54.9943
G01 X47.9053 Y-55.0237
G01 X47.8265 Y-55.0609
G01 X47.8198 Y-55.0645
G01 X47.7451 Y-55.1094
G01 X47.6750 Y-55.1613
G01 X47.6692 Y-55.1660
G01 X47.6047 Y-55.2247
G01 X47.5460 Y-55.2892
G01 X47.5413 Y-55.2950
G01 X47.4894 Y-55.3651
G01 X47.4516 Y-55.4280
G01 X45.7162 Y-55.4281
G01 X45.6757 Y-55.4302
G01 X45.6355 Y-55.4361
G01 X45.6281 Y-55.4375
G01 X45.5888 Y-55.4475
G01 X45.5505 Y-55.4611
G01 X45.5436 Y-55.4639
G01 X45.5069 Y-55.4814
G01 X45.4705 Y-55.5032
G01 X45.4333 Y-55.5306
G01 X45.4004 Y-55.5604
G01 X35.2404 Y-65.7204
G01 X35.2106 Y-65.7533
G01 X35.1842 Y-65.7889
G01 X35.1614 Y-65.8269
G01 X35.1424 Y-65.8670
G01 X35.1275 Y-65.9088
G01 X35.1167 Y-65.9518
G01 X35.1102 Y-65.9957
G01 X35.1080 Y-66.0400
G01 X35.1081 Y-81.2838
G00 Z2.0000
G00 X37.6481 Y-81.2838
G01 F60.00
G01 Z-0.1000
G01 F120.00
G01 X37.6502 Y-81.3243
G01 X37.6567 Y-81.3682
G01 X37.6675 Y-81.4112
G01 X37.6824 Y-81.4530
G01 X37.7014 Y-81.4931
G01 X37.7242 Y-81.5311
G01 X37.7506 Y-81.5667
G01 X37.7804 Y-81.5996
G01 X45.4004 Y-89.2196
G01 X45.4333 Y-89.2494
G01 X45.4658 Y-89.2736
G01 X45.4721 Y-89.2778
G01 X45.5037 Y-89.2968
G01 X45.5103 Y-89.3003
G01 X45.5470 Y-89.3176
G01 X45.5888 Y-89.3325
G01 X45.6318 Y-89.3433
G01 X45.6720 Y-89.3493
G01 X45.6795 Y-89.3501
G01 X45.7200 Y-89.3520
G01 X50.8000 Y-89.3520
G01 X50.8443 Y-89.3498
G01 X50.8845 Y-89.3439
G01 X50.8919 Y-89.3425
G01 X50.9312 Y-89.3325
G01 X50.9695 Y-89.3189
G01 X50.9764 Y-89.3161
G01 X51.0114 Y-89.2995
G01 X51.0479 Y-89.2778
G01 X51.0542 Y-89.2736
G01 X51.0867 Y-89.2494
G01 X51.1196 Y-89.2196
G01 X56.1996 Y-84.1396
G01 X56.2294 Y-84.1067
G01 X56.2558 Y-84.0711
G01 X56.2786 Y-84.0331
G01 X56.2961 Y-83.9964
G01 X56.2989 Y-83.9895
G01 X56.3125 Y-83.9512
G01 X56.3233 Y-83.9082
G01 X56.3298 Y-83.8643
G01 X56.3320 Y-83.8219
G01 X56.3320 Y-82.0884
G01 X56.3949 Y-82.0506
G01 X56.4680 Y-81.9964
G01 X56.5353 Y-81.9353
G01 X56.5940 Y-81.8708
G01 X56.5987 Y-81.8650
G01 X56.6484 Y-81.7980
G01 X56.6526 Y-81.7917
G01 X56.6974 Y-81.7169
G01 X56.7347 Y-81.6381
G01 X56.7376 Y-81.6312
G01 X56.7657 Y-81.5526
G01 X56.7679 Y-81.5454
G01 X56.7890 Y-81.4608
G01 X56.8023 Y-81.3708
G01 X56.8067 Y-81.2838
G01 X56.8067 Y-81.2762
G01 X56.8023 Y-81.1892
G01 X56.7893 Y-81.1010
G01 X56.7669 Y-81.0110
G01 X56.7363 Y-80.9253
G01 X56.6974 Y-80.8431
G01 X56.6506 Y-80.7651
G01 X56.5964 Y-80.6920
G01 X56.5353 Y-80.6247
G01 X56.4680 Y-80.5636
G01 X56.3949 Y-80.5094
G01 X56.3169 Y-80.4626
G01 X56.2347 Y-80.4237
G01 X56.1490 Y-80.3931
G01 X56.0608 Y-80.3710
G01 X55.9708 Y-80.3577
G01 X55.8800 Y-80.3532
G01 X55.7892 Y-80.3577
G01 X55.7010 Y-80.3707
G01 X55.6110 Y-80.3931
G01 X55.5288 Y-80.4224
G01 X55.5219 Y-80.4253
G01 X55.4465 Y-80.4609
G01 X55.4398 Y-80.4645
G01 X55.3651 Y-80.5094
G01 X55.2920 Y-80.5636
G01 X55.2247 Y-80.6247
G01 X55.1660 Y-80.6892
G01 X55.1613 Y-80.6950
G01 X55.1116 Y-80.7620
G01 X55.1074 Y-80.7683
G01 X55.0626 Y-80.8431
G01 X55.0237 Y-80.9253
G01 X54.9931 Y-81.0110
G01 X54.9718 Y-81.0955
G01 X54.9704 Y-81.1029
G01 X54.9575 Y-81.1910
G01 X54.9532 Y-81.2800
G01 X54.9574 Y-81.3671
G01 X54.9581 Y-81.3746
G01 X54.9710 Y-81.4608
G01 X54.9931 Y-81.5490
G01 X55.0224 Y-81.6312
G01 X55.0253 Y-81.6381
G01 X55.0626 Y-81.7169
G01 X55.1094 Y-81.7949
G01 X55.1613 Y-81.8650
G01 X55.1660 Y-81.8708
G01 X55.2247 Y-81.9353
G01 X55.2892 Y-81.9940
G01 X55.2950 Y-81.9987
G01 X55.3651 Y-82.0506
G01 X55.4280 Y-82.0884
G01 X55.4280 Y-83.6328
G01 X50.6128 Y-88.4480
G01 X45.9072 Y-88.4480
G01 X38.5520 Y-81.0928
G01 X38.5520 Y-66.2272
G01 X45.9072 Y-58.8720
G01 X47.4516 Y-58.8720
G01 X47.4894 Y-58.9349
G01 X47.5413 Y-59.0050
G01 X47.5460 Y-59.0108
G01 X47.6047 Y-59.0753
G01 X47.6692 Y-59.1340
G01 X47.6750 Y-59.1387
G01 X47.7451 Y-59.1906
G01 X47.8198 Y-59.2355
G01 X47.8265 Y-59.2391
G01 X47.9053 Y-59.2763
G01 X47.9874 Y-59.3057
G01 X47.9946 Y-59.3079
G01 X48.0792 Y-59.3290
G01 X48.1654 Y-59.3419
G01 X48.1729 Y-59.3426
G01 X48.2600 Y-59.3468
G01 X48.3471 Y-59.3426
G01 X48.3546 Y-59.3419
G01 X48.4408 Y-59.3290
G01 X48.5254 Y-59.3079
G01 X48.5326 Y-59.3057
G01 X48.6147 Y-59.2763
G01 X48.6935 Y-59.2391
G01 X48.7002 Y-59.2355
G01 X48.7749 Y-59.1906
G01 X48.8450 Y-59.1387
G01 X48.8508 Y-59.1340
G01 X48.9153 Y-59.0753
G01 X48.9740 Y-59.0108
G01 X48.9787 Y-59.0050
G01 X49.0306 Y-58.9349
G01 X49.0684 Y-58.8720
G01 X75.3916 Y-58.8720
G01 X75.4294 Y-58.9349
G01 X75.4813 Y-59.0050
G01 X75.4860 Y-59.0108
G01 X75.5447 Y-59.0753
G01 X75.6092 Y-59.1340
G01 X75.6150 Y-59.1387
G01 X75.6851 Y-59.1906
G01 X75.7598 Y-59.2355
G01 X75.7665 Y-59.2391
G01 X75.8453 Y-59.2763
G01 X75.9274 Y-59.3057
G01 X75.9346 Y-59.3079
G01 X76.0192 Y-59.3290
G01 X76.1054 Y-59.3419
G01 X76.1129 Y-59.3426
G01 X76.2019 Y-59.3468
G01 X76.2871 Y-59.3426
G01 X76.2946 Y-59.3419
G01 X76.3808 Y-59.3290
G01 X76.4654 Y-59.3079
G01 X76.4726 Y-59.3057
G01 X76.5547 Y-59.2763
G01 X76.6335 Y-59.2391
G01 X76.6402 Y-59.2355
G01 X76.7149 Y-59.1906
G01 X76.7850 Y-59.1387
G01 X76.7908 Y-59.1340
G01 X76.8553 Y-59.0753
G01 X76.9140 Y-59.0108
G01 X76.9187 Y-59.0050
G01 X76.9706 Y-58.9349
G01 X77.0155 Y-58.8602
G01 X77.0191 Y-58.8535
G01 X77.0563 Y-58.7747
G01 X77.0857 Y-58.6926
G01 X77.0879 Y-58.6854
G01 X77.1090 Y-58.6008
G01 X77.1219 Y-58.5146
G01 X77.1226 Y-58.5071
G01 X77.1268 Y-58.4200
G01 X77.1226 Y-58.3329
G01 X77.1219 Y-58.3254
G01 X77.1090 Y-58.2392
G01 X77.0879 Y-58.1546
G01 X77.0857 Y-58.1474
G01 X77.0563 Y-58.0653
G01 X77.0191 Y-57.9865
G01 X77.0155 Y-57.9798
G01 X76.9706 Y-57.9051
G01 X76.9187 Y-57.8350
G01 X76.9140 Y-57.8292
G01 X76.8553 Y-57.7647
G01 X76.7908 Y-57.7060
G01 X76.7850 Y-57.7013
G01 X76.7149 Y-57.6494
G01 X76.6402 Y-57.6045
G01 X76.6335 Y-57.6009
G01 X76.5547 Y-57.5637
G01 X76.4726 Y-57.5343
G01 X76.4654 Y-57.5321
G01 X76.3808 Y-57.5110
G01 X76.2946 Y-57.4981
G01 X76.2871 Y-57.4974
G01 X76.2019 Y-57.4932
G01 X76.1129 Y-57.4974
G01 X76.1054 Y-57.4981
G01 X76.0192 Y-57.5110
G01 X75.9346 Y-57.5321
G01 X75.9274 Y-57.5343
G01 X75.8453 Y-57.5637
G01 X75.7665 Y-57.6009
G01 X75.7598 Y-57.6045
G01 X75.6851 Y-57.6494
G01 X75.6150 Y-57.7013
G01 X75.6092 Y-57.7060
G01 X75.5447 Y-57.7647
G01 X75.4860 Y-57.8292
G01 X75.4813 Y-57.8350
G01 X75.4294 Y-57.9051
G01 X75.3916 Y-57.9680
G01 X49.0684 Y-57.9680
G01 X49.0306 Y-57.9051
G01 X48.9787 Y-57.8350
G01 X48.9740 Y-57.8292
G01 X48.9153 Y-57.7647
G01 X48.8508 Y-57.7060
G01 X48.8450 Y-57.7013
G01 X48.7749 Y-57.6494
G01 X48.7002 Y-57.6045
G01 X48.6935 Y-57.6009
G01 X48.6147 Y-57.5637
G01 X48.5326 Y-57.5343
G01 X48.5254 Y-57.5321
G01 X48.4408 Y-57.5110
G01 X48.3546 Y-57.4981
G01 X48.3471 Y-57.4974
G01 X48.2600 Y-57.4932
G01 X48.1729 Y-57.4974
G01 X48.1654 Y-57.4981
G01 X48.0792 Y-57.5110
G01 X47.9946 Y-57.5321
G01 X47.9874 Y-57.5343
G01 X47.9053 Y-57.5637
G01 X47.8265 Y-57.6009
G01 X47.8198 Y-57.6045
G01 X47.7451 Y-57.6494
G01 X47.6750 Y-57.7013
G01 X47.6692 Y-57.7060
G01 X47.6047 Y-57.7647
G01 X47.5460 Y-57.8292
G01 X47.5413 Y-57.8350
G01 X47.4894 Y-57.9051
G01 X47.4516 Y-57.9680
G01 X45.7181 Y-57.9680
G01 X45.6795 Y-57.9699
G01 X45.6720 Y-57.9707
G01 X45.6318 Y-57.9767
G01 X45.5924 Y-57.9865
G01 X45.5852 Y-57.9887
G01 X45.5470 Y-58.0024
G01 X45.5103 Y-58.0197
G01 X45.5037 Y-58.0232
G01 X45.4689 Y-58.0442
G01 X45.4362 Y-58.0683
G01 X45.4304 Y-58.0731
G01 X45.4004 Y-58.1004
G01 X37.7804 Y-65.7204
G01 X37.7506 Y-65.7533
G01 X37.7264 Y-65.7858
G01 X37.7222 Y-65.7921
G01 X37.7014 Y-65.8269
G01 X37.6839 Y-65.8636
G01 X37.6811 Y-65.8705
G01 X37.6680 Y-65.9070
G01 X37.6575 Y-65.9481
G01 X37.6561 Y-65.9555
G01 X37.6502 Y-65.9957
G01 X37.6480 Y-66.0400
G01 X37.6481 Y-81.2838
G00 Z2.0000
G00 X40.1881 Y-81.2838
G01 F60.00
G01 Z-0.1000
G01 F120.00
G01 X40.1902 Y-81.3243
G01 X40.1967 Y-81.3682
G01 X40.2075 Y-81.4112
G01 X40.2224 Y-81.4530
G01 X40.2414 Y-81.4931
G01 X40.2642 Y-81.5311
G01 X40.2906 Y-81.5667
G01 X40.3204 Y-81.5996
G01 X45.4004 Y-86.6796
G01 X45.4304 Y-86.7069
G01 X45.4362 Y-86.7117
G01 X45.4689 Y-86.7358
G01 X45.5069 Y-86.7586
G01 X45.5436 Y-86.7761
G01 X45.5505 Y-86.7789
G01 X45.5888 Y-86.7925
G01 X45.6318 Y-86.8033
G01 X45.6757 Y-86.8098
G01 X45.7200 Y-86.8120
G01 X50.8000 Y-86.8120
G01 X50.8443 Y-86.8098
G01 X50.8845 Y-86.8039
G01 X50.8919 Y-86.8025
G01 X50.9276 Y-86.7935
G01 X50.9348 Y-86.7913
G01 X50.9695 Y-86.7789
G01 X50.9764 Y-86.7761
G01 X51.0131 Y-86.7586
G01 X51.0479 Y-86.7378
G01 X51.0542 Y-86.7336
G01 X51.0867 Y-86.7094
G01 X51.1183 Y-86.6809
G01 X53.6596 Y-84.1396
G01 X53.6869 Y-84.1096
G01 X53.6917 Y-84.1038
G01 X53.7158 Y-84.0711
G01 X53.7368 Y-84.0363
G01 X53.7403 Y-84.0297
G01 X53.7576 Y-83.9930
G01 X53.7731 Y-83.9494
G01 X53.7833 Y-83.9082
G01 X53.7893 Y-83.8680
G01 X53.7901 Y-83.8605
G01 X53.7920 Y-83.8200
G01 X53.7920 Y-82.0884
G01 X53.8549 Y-82.0506
G01 X53.9280 Y-81.9964
G01 X53.9953 Y-81.9353
G01 X54.0540 Y-81.8708
G01 X54.0587 Y-81.8650
G01 X54.1084 Y-81.7980
G01 X54.1126 Y-81.7917
G01 X54.1574 Y-81.7169
G01 X54.1947 Y-81.6381
G01 X54.1976 Y-81.6312
G01 X54.2257 Y-81.5526
G01 X54.2279 Y-81.5454
G01 X54.2490 Y-81.4608
G01 X54.2623 Y-81.3708
G01 X54.2667 Y-81.2838
G01 X54.2667 Y-81.2762
G01 X54.2623 Y-81.1892
G01 X54.2493 Y-81.1010
G01 X54.2269 Y-81.0110
G01 X54.1963 Y-80.9253
G01 X54.1574 Y-80.8431
G01 X54.1106 Y-80.7651
G01 X54.0564 Y-80.6920
G01 X53.9953 Y-80.6247
G01 X53.9280 Y-80.5636
G01 X53.8549 Y-80.5094
G01 X53.7769 Y-80.4626
G01 X53.6947 Y-80.4237
G01 X53.6090 Y-80.3931
G01 X53.5208 Y-80.3710
G01 X53.4308 Y-80.3577
G01 X53.3400 Y-80.3532
G01 X53.2492 Y-80.3577
G01 X53.1610 Y-80.3707
G01 X53.0710 Y-80.3931
G01 X52.9888 Y-80.4224
G01 X52.9819 Y-80.4253
G01 X52.9065 Y-80.4609
G01 X52.8998 Y-80.4645
G01 X52.8251 Y-80.5094
G01 X52.7520 Y-80.5636
G01 X52.6847 Y-80.6247
G01 X52.6260 Y-80.6892
G01 X52.6213 Y-80.6950
G01 X52.5716 Y-80.7620
G01 X52.5674 Y-80.7683
G01 X52.5226 Y-80.8431
G01 X52.4837 Y-80.9253
G01 X52.4531 Y-81.0110
G01 X52.4318 Y-81.0955
G01 X52.4304 Y-81.1029
G01 X52.4175 Y-81.1910
G01 X52.4132 Y-81.2800
G01 X52.4174 Y-81.3671
G01 X52.4181 Y-81.3746
G01 X52.4310 Y-81.4608
G01 X52.4531 Y-81.5490
G01 X52.4824 Y-81.6312
G01 X52.4853 Y-81.6381
G01 X52.5226 Y-81.7169
G01 X52.5694 Y-81.7949
G01 X52.6213 Y-81.8650
G01 X52.6260 Y-81.8708
G01 X52.6847 Y-81.9353
G01 X52.7492 Y-81.9940
G01 X52.7550 Y-81.9987
G01 X52.8251 Y-82.0506
G01 X52.8880 Y-82.0884
G01 X52.8880 Y-83.6328
G01 X50.6128 Y-85.9080
G01 X45.9072 Y-85.9080
G01 X41.0920 Y-81.0928
G01 X41.0920 Y-66.2272
G01 X45.9072 Y-61.4120
G01 X47.4516 Y-61.4120
G01 X47.4894 Y-61.4749
G01 X47.5413 Y-61.5450
G01 X47.5460 Y-61.5508
G01 X47.6047 Y-61.6153
G01 X47.6692 Y-61.6740
G01 X47.6750 Y-61.6787
G01 X47.7451 Y-61.7306
G01 X47.8198 Y-61.7755
G01 X47.8265 Y-61.7791
G01 X47.9053 Y-61.8163
G01 X47.9874 Y-61.8457
G01 X47.9946 Y-61.8479
G01 X48.0792 Y-61.8690
G01 X48.1654 Y-61.8819
G01 X48.1729 Y-61.8826
G01 X48.2600 Y-61.8868
G01 X48.3471 Y-61.8826
G01 X48.3546 Y-61.8819
G01 X48.4408 Y-61.8690
G01 X48.5254 Y-61.8479
G01 X48.5326 Y-61.8457
G01 X48.6147 Y-61.8163
G01 X48.6935 Y-61.7791
G01 X48.7002 Y-61.7755
G01 X48.7749 Y-61.7306
G01 X48.8450 Y-61.6787
G01 X48.8508 Y-61.6740
G01 X48.9153 Y-61.6153
G01 X48.9740 Y-61.5508
G01 X48.9787 Y-61.5450
G01 X49.0306 Y-61.4749
G01 X49.0684 Y-61.4120
G01 X75.3916 Y-61.4120
G01 X75.4294 Y-61.4749
G01 X75.4813 Y-61.5450
G01 X75.4860 Y-61.5508
G01 X75.5447 Y-61.6153
G01 X75.6092 Y-61.6740
G01 X75.6150 Y-61.6787
G01 X75.6851 Y-61.7306
G01 X75.7598 Y-61.7755
G01 X75.7665 Y-61.7791
G01 X75.8453 Y-61.8163
G01 X75.9274 Y-61.8457
G01 X75.9346 Y-61.8479
G01 X76.0192 Y-61.8690
G01 X76.1054 Y-61.8819
G01 X76.1129 Y-61.8826
G01 X76.2019 Y-61.8868
G01 X76.2871 Y-61.8826
G01 X76.2946 Y-61.8819
G01 X76.3808 Y-61.8690
G01 X76.4654 Y-61.8479
G01 X76.4726 Y-61.8457
G01 X76.5547 Y-61.8163
G01 X76.6335 Y-61.7791
G01 X76.6402 Y-61.7755
G01 X76.7149 Y-61.7306
G01 X76.7850 Y-61.6787
G01 X76.7908 Y-61.6740
G01 X76.8553 Y-61.6153
G01 X76.9140 Y-61.5508
G01 X76.9187 Y-61.5450
G01 X76.9706 Y-61.4749
G01 X77.0155 Y-61.4002
G01 X77.0191 Y-61.3935
G01 X77.0563 Y-61.3147
G01 X77.0857 Y-61.2326
G01 X77.0879 Y-61.2254
G01 X77.1090 Y-61.1408
G01 X77.1219 Y-61.0546
G01 X77.1226 Y-61.0471
G01 X77.1268 Y-60.9600
G01 X77.1226 Y-60.8729
G01 X77.1219 Y-60.8654
G01 X77.1090 Y-60.7792
G01 X77.0879 Y-60.6946
G01 X77.0857 Y-60.6874
G01 X77.0563 Y-60.6053
G01 X77.0165 Y-60.5215
G01 X76.9706 Y-60.4451
G01 X76.9187 Y-60.3750
G01 X76.9140 Y-60.3692
G01 X76.8553 Y-60.3047
G01 X76.7908 Y-60.2460
G01 X76.7850 Y-60.2413
G01 X76.7149 Y-60.1894
G01 X76.6402 Y-60.1445
G01 X76.6335 Y-60.1409
G01 X76.5547 Y-60.1037
G01 X76.4726 Y-60.0743
G01 X76.4654 Y-60.0721
G01 X76.3808 Y-60.0510
G01 X76.2946 Y-60.0381
G01 X76.2871 Y-60.0374
G01 X76.2019 Y-60.0332
G01 X76.1129 Y-60.0374
G01 X76.1054 Y-60.0381
G01 X76.0192 Y-60.0510
G01 X75.9346 Y-60.0721
G01 X75.9274 Y-60.0743
G01 X75.8453 Y-60.1037
G01 X75.7665 Y-60.1409
G01 X75.7598 Y-60.1445
G01 X75.6851 Y-60.1894
G01 X75.6150 Y-60.2413
G01 X75.6092 Y-60.2460
G01 X75.5447 Y-60.3047
G01 X75.4860 Y-60.3692
G01 X75.4813 Y-60.3750
G01 X75.4294 Y-60.4451
G01 X75.3916 Y-60.5080
G01 X49.0684 Y-60.5080
G01 X49.0306 Y-60.4451
G01 X48.9787 Y-60.3750
G01 X48.9740 Y-60.3692
G01 X48.9153 Y-60.3047
G01 X48.8508 Y-60.2460
G01 X48.8450 Y-60.2413
G01 X48.7749 Y-60.1894
G01 X48.7002 Y-60.1445
G01 X48.6935 Y-60.1409
G01 X48.6147 Y-60.1037
G01 X48.5326 Y-60.0743
G01 X48.5254 Y-60.0721
G01 X48.4408 Y-60.0510
G01 X48.3546 Y-60.0381
G01 X48.3471 Y-60.0374
G01 X48.2600 Y-60.0332
G01 X48.1729 Y-60.0374
G01 X48.1654 Y-60.0381
G01 X48.0792 Y-60.0510
G01 X47.9946 Y-60.0721
G01 X47.9874 Y-60.0743
G01 X47.9053 Y-60.1037
G01 X47.8265 Y-60.1409
G01 X47.8198 Y-60.1445
G01 X47.7451 Y-60.1894
G01 X47.6750 Y-60.2413
G01 X47.6692 Y-60.2460
G01 X47.6047 Y-60.3047
G01 X47.5460 Y-60.3692
G01 X47.5413 Y-60.3750
G01 X47.4894 Y-60.4451
G01 X47.4516 Y-60.5080
G01 X45.7181 Y-60.5080
G01 X45.6795 Y-60.5099
G01 X45.6720 Y-60.5107
G01 X45.6318 Y-60.5167
G01 X45.5924 Y-60.5265
G01 X45.5852 Y-60.5287
G01 X45.5470 Y-60.5424
G01 X45.5053 Y-60.5623
G01 X45.4689 Y-60.5842
G01 X45.4362 Y-60.6083
G01 X45.4304 Y-60.6131
G01 X45.4004 Y-60.6404
G01 X40.3204 Y-65.7204
G01 X40.2931 Y-65.7504
G01 X40.2883 Y-65.7562
G01 X40.2642 Y-65.7889
G01 X40.2432 Y-65.8237
G01 X40.2397 Y-65.8303
G01 X40.2224 Y-65.8670
G01 X40.2087 Y-65.9052
G01 X40.2065 Y-65.9124
G01 X40.1967 Y-65.9518
G01 X40.1907 Y-65.9920
G01 X40.1899 Y-65.9995
G01 X40.1880 Y-66.0400
G01 X40.1881 Y-81.2838
G00 Z2.0000
G00 X42.6030 Y-78.7438
G01 F60.00
G01 Z-0.1000
G01 F120.00
G01 X42.6057 Y-78.7966
G01 X42.6140 Y-78.8526
G01 X42.6278 Y-78.9075
G01 X42.6469 Y-78.9608
G01 X42.6711 Y-79.0120
G01 X42.7002 Y-79.0606
G01 X42.7339 Y-79.1061
G01 X42.7706 Y-79.1467
G01 X45.3133 Y-81.6894
G01 X45.3511 Y-81.7236
G01 X45.3569 Y-81.7284
G01 X45.3994 Y-81.7598
G01 X45.4447 Y-81.7871
G01 X45.4513 Y-81.7906
G01 X45.4992 Y-81.8131
G01 X45.5525 Y-81.8322
G01 X45.6074 Y-81.8460
G01 X45.6597 Y-81.8538
G01 X45.6672 Y-81.8545
G01 X45.7200 Y-81.8571
G01 X50.0754 Y-81.8571
G01 X50.0860 Y-81.8708
G01 X50.1447 Y-81.9353
G01 X50.2120 Y-81.9964
G01 X50.2851 Y-82.0506
G01 X50.3598 Y-82.0955
G01 X50.3665 Y-82.0991
G01 X50.4419 Y-82.1347
G01 X50.4488 Y-82.1376
G01 X50.5310 Y-82.1669
G01 X50.6155 Y-82.1882
G01 X50.6229 Y-82.1896
G01 X50.7092 Y-82.2023
G01 X50.7962 Y-82.2067
G01 X50.8038 Y-82.2067
G01 X50.8908 Y-82.2023
G01 X50.9808 Y-82.1890
G01 X51.0690 Y-82.1669
G01 X51.1512 Y-82.1376
G01 X51.1581 Y-82.1347
G01 X51.2335 Y-82.0991
G01 X51.2402 Y-82.0955
G01 X51.3149 Y-82.0506
G01 X51.3850 Y-81.9987
G01 X51.3908 Y-81.9940
G01 X51.4526 Y-81.9379
G01 X51.4579 Y-81.9326
G01 X51.5164 Y-81.8680
G01 X51.5706 Y-81.7949
G01 X51.6174 Y-81.7169
G01 X51.6547 Y-81.6381
G01 X51.6576 Y-81.6312
G01 X51.6869 Y-81.5490
G01 X51.7090 Y-81.4608
G01 X51.7223 Y-81.3708
G01 X51.7268 Y-81.2800
G01 X51.7226 Y-81.1929
G01 X51.7219 Y-81.1854
G01 X51.7096 Y-81.1029
G01 X51.7082 Y-81.0955
G01 X51.6869 Y-81.0110
G01 X51.6576 Y-80.9288
G01 X51.6547 Y-80.9219
G01 X51.6174 Y-80.8431
G01 X51.5706 Y-80.7651
G01 X51.5164 Y-80.6920
G01 X51.4553 Y-80.6247
G01 X51.3880 Y-80.5636
G01 X51.3180 Y-80.5116
G01 X51.3117 Y-80.5074
G01 X51.2369 Y-80.4626
G01 X51.1581 Y-80.4253
G01 X51.1512 Y-80.4224
G01 X51.0726 Y-80.3943
G01 X51.0654 Y-80.3921
G01 X50.9808 Y-80.3710
G01 X50.8946 Y-80.3581
G01 X50.8871 Y-80.3574
G01 X50.8000 Y-80.3532
G01 X50.7129 Y-80.3574
G01 X50.7054 Y-80.3581
G01 X50.6192 Y-80.3710
G01 X50.5346 Y-80.3921
G01 X50.5274 Y-80.3943
G01 X50.4453 Y-80.4237
G01 X50.3665 Y-80.4609
G01 X50.3598 Y-80.4645
G01 X50.2851 Y-80.5094
G01 X50.2150 Y-80.5613
G01 X50.2092 Y-80.5660
G01 X50.1447 Y-80.6247
G01 X50.0860 Y-80.6892
G01 X50.0754 Y-80.7029
G01 X45.9590 Y-80.7029
G01 X43.7571 Y-78.5010
G01 X43.7571 Y-66.2790
G01 X45.9590 Y-64.0771
G01 X47.5354 Y-64.0771
G01 X47.5460 Y-64.0908
G01 X47.6047 Y-64.1553
G01 X47.6720 Y-64.2164
G01 X47.7451 Y-64.2706
G01 X47.8198 Y-64.3155
G01 X47.8265 Y-64.3191
G01 X47.9019 Y-64.3547
G01 X47.9088 Y-64.3576
G01 X47.9910 Y-64.3869
G01 X48.0755 Y-64.4082
G01 X48.0829 Y-64.4096
G01 X48.1692 Y-64.4223
G01 X48.2600 Y-64.4268
G01 X48.3508 Y-64.4223
G01 X48.4371 Y-64.4096
G01 X48.4445 Y-64.4082
G01 X48.5290 Y-64.3869
G01 X48.6112 Y-64.3576
G01 X48.6181 Y-64.3547
G01 X48.6952 Y-64.3182
G01 X48.7749 Y-64.2706
G01 X48.8494 Y-64.2152
G01 X48.9167 Y-64.1540
G01 X48.9752 Y-64.0894
G01 X49.0035 Y-64.0517
G01 X75.4565 Y-64.0517
G01 X75.4848 Y-64.0894
G01 X75.5433 Y-64.1540
G01 X75.6106 Y-64.2152
G01 X75.6851 Y-64.2706
G01 X75.7648 Y-64.3182
G01 X75.8419 Y-64.3547
G01 X75.8488 Y-64.3576
G01 X75.9310 Y-64.3869
G01 X76.0155 Y-64.4082
G01 X76.0229 Y-64.4096
G01 X76.1092 Y-64.4223
G01 X76.2019 Y-64.4268
G01 X76.2871 Y-64.4226
G01 X76.2946 Y-64.4219
G01 X76.3808 Y-64.4090
G01 X76.4654 Y-64.3879
G01 X76.4726 Y-64.3857
G01 X76.5547 Y-64.3563
G01 X76.6369 Y-64.3174
G01 X76.7117 Y-64.2726
G01 X76.7180 Y-64.2684
G01 X76.7880 Y-64.2164
G01 X76.8526 Y-64.1579
G01 X76.8579 Y-64.1526
G01 X76.9164 Y-64.0880
G01 X76.9706 Y-64.0149
G01 X77.0174 Y-63.9369
G01 X77.0547 Y-63.8581
G01 X77.0576 Y-63.8512
G01 X77.0869 Y-63.7690
G01 X77.1082 Y-63.6845
G01 X77.1096 Y-63.6771
G01 X77.1223 Y-63.5908
G01 X77.1267 Y-63.5038
G01 X77.1267 Y-63.4962
G01 X77.1223 Y-63.4092
G01 X77.1096 Y-63.3229
G01 X77.1082 Y-63.3155
G01 X77.0869 Y-63.2310
G01 X77.0555 Y-63.1436
G01 X77.0174 Y-63.0631
G01 X76.9726 Y-62.9883
G01 X76.9684 Y-62.9820
G01 X76.9164 Y-62.9120
G01 X76.8553 Y-62.8447
G01 X76.7908 Y-62.7860
G01 X76.7850 Y-62.7813
G01 X76.7149 Y-62.7294
G01 X76.6369 Y-62.6826
G01 X76.5581 Y-62.6453
G01 X76.5512 Y-62.6424
G01 X76.4690 Y-62.6131
G01 X76.3808 Y-62.5910
G01 X76.2946 Y-62.5781
G01 X76.2871 Y-62.5774
G01 X76.2000 Y-62.5732
G01 X76.1092 Y-62.5777
G01 X76.0192 Y-62.5910
G01 X75.9310 Y-62.6131
G01 X75.8488 Y-62.6424
G01 X75.8419 Y-62.6453
G01 X75.7631 Y-62.6826
G01 X75.6883 Y-62.7274
G01 X75.6820 Y-62.7316
G01 X75.6150 Y-62.7813
G01 X75.6092 Y-62.7860
G01 X75.5447 Y-62.8447
G01 X75.4966 Y-62.8975
G01 X48.9634 Y-62.8975
G01 X48.9153 Y-62.8447
G01 X48.8508 Y-62.7860
G01 X48.8450 Y-62.7813
G01 X48.7780 Y-62.7316
G01 X48.7717 Y-62.7274
G01 X48.6969 Y-62.6826
G01 X48.6181 Y-62.6453
G01 X48.6112 Y-62.6424
G01 X48.5290 Y-62.6131
G01 X48.4408 Y-62.5910
G01 X48.3508 Y-62.5777
G01 X48.2581 Y-62.5732
G01 X48.1692 Y-62.5777
G01 X48.0829 Y-62.5904
G01 X48.0755 Y-62.5918
G01 X47.9910 Y-62.6131
G01 X47.9088 Y-62.6424
G01 X47.9019 Y-62.6453
G01 X47.8265 Y-62.6809
G01 X47.8198 Y-62.6845
G01 X47.7451 Y-62.7294
G01 X47.6720 Y-62.7836
G01 X47.6047 Y-62.8447
G01 X47.5460 Y-62.9092
G01 X47.5354 Y-62.9229
G01 X45.7181 Y-62.9230
G01 X45.6634 Y-62.9257
G01 X45.6074 Y-62.9340
G01 X45.5525 Y-62.9478
G01 X45.4974 Y-62.9676
G01 X45.4480 Y-62.9911
G01 X45.3994 Y-63.0202
G01 X45.3539 Y-63.0539
G01 X45.3120 Y-63.0920
G01 X42.7706 Y-65.6333
G01 X42.7339 Y-65.6739
G01 X42.7024 Y-65.7163
G01 X42.6982 Y-65.7226
G01 X42.6711 Y-65.7680
G01 X42.6469 Y-65.8192
G01 X42.6290 Y-65.8689
G01 X42.6268 Y-65.8761
G01 X42.6137 Y-65.9293
G01 X42.6057 Y-65.9834
G01 X42.6029 Y-66.0400
G01 X42.6030 Y-78.7438
G00 Z2.0000
M05
G00 Z2.0000
G00 Z15.00


