(G-CODE GENERATED BY FLATCAM v8.994 - www.flatcam.org - Version Date: 2020/11/7)

(Name: test.drl_cnc)
(Type: G-code from Geometry)
(Units: MM)

(Created on Thursday, 21 December 2023 at 16:27)

(This preprocessor is the default preprocessor used by FlatCAM.)
(It is made to work with MACH3 compatible motion controllers.)


(TOOLS DIAMETER: )
(Tool: 1 -> Dia: 1.0)

(FEEDRATE Z: )
(Tool: 1 -> Feedrate: 300)

(FEEDRATE RAPIDS: )
(Tool: 1 -> Feedrate Rapids: 1500)

(Z_CUT: )
(Tool: 1 -> Z_Cut: -1.8)

(Tools Offset: )
(Tool: 1 -> Offset Z: 0.0)

(Z_MOVE: )
(Tool: 1 -> Z_Move: 2)

(Z Toolchange: 15 mm)
(X,Y Toolchange: 0.0000, 0.0000 mm)
(Z Start: None mm)
(Z End: 0.5 mm)
(X,Y End: None mm)
(Steps per circle: 64)
(Preprocessor Excellon: default)

(X range:   30.7600 ...   59.7000  mm)
(Y range:   28.2200 ...   69.8600  mm)

(Spindle Speed: 0 RPM)
G21
G90
G94

G01 F300.00

M5
G00 Z15.0000
T1
G00 X0.0000 Y0.0000                
M6
(MSG, Change to Tool Dia = 1.0000 ||| Total drills for tool T1 = 30)
M0
G00 Z15.0000

G01 F300.00
M03
G00 X31.2600 Y69.3600
G01 Z-1.8000
G01 Z0
G00 Z2.0000
G00 X31.2600 Y66.8200
G01 Z-1.8000
G01 Z0
G00 Z2.0000
G00 X31.2600 Y64.2800
G01 Z-1.8000
G01 Z0
G00 Z2.0000
G00 X31.2600 Y61.7400
G01 Z-1.8000
G01 Z0
G00 Z2.0000
G00 X31.2600 Y59.2000
G01 Z-1.8000
G01 Z0
G00 Z2.0000
G00 X31.2600 Y56.6600
G01 Z-1.8000
G01 Z0
G00 Z2.0000
G00 X31.2600 Y54.1200
G01 Z-1.8000
G01 Z0
G00 Z2.0000
G00 X31.2600 Y51.5800
G01 Z-1.8000
G01 Z0
G00 Z2.0000
G00 X31.2600 Y49.0400
G01 Z-1.8000
G01 Z0
G00 Z2.0000
G00 X31.2600 Y46.5000
G01 Z-1.8000
G01 Z0
G00 Z2.0000
G00 X33.8000 Y28.7200
G01 Z-1.8000
G01 Z0
G00 Z2.0000
G00 X36.3400 Y28.7200
G01 Z-1.8000
G01 Z0
G00 Z2.0000
G00 X38.8800 Y28.7200
G01 Z-1.8000
G01 Z0
G00 Z2.0000
G00 X41.4200 Y28.7200
G01 Z-1.8000
G01 Z0
G00 Z2.0000
G00 X43.9600 Y28.7200
G01 Z-1.8000
G01 Z0
G00 Z2.0000
G00 X46.5000 Y28.7200
G01 Z-1.8000
G01 Z0
G00 Z2.0000
G00 X49.0400 Y28.7200
G01 Z-1.8000
G01 Z0
G00 Z2.0000
G00 X51.5800 Y28.7200
G01 Z-1.8000
G01 Z0
G00 Z2.0000
G00 X54.1200 Y28.7200
G01 Z-1.8000
G01 Z0
G00 Z2.0000
G00 X56.6600 Y28.7200
G01 Z-1.8000
G01 Z0
G00 Z2.0000
G00 X59.2000 Y46.5000
G01 Z-1.8000
G01 Z0
G00 Z2.0000
G00 X59.2000 Y49.0400
G01 Z-1.8000
G01 Z0
G00 Z2.0000
G00 X59.2000 Y51.5800
G01 Z-1.8000
G01 Z0
G00 Z2.0000
G00 X59.2000 Y54.1200
G01 Z-1.8000
G01 Z0
G00 Z2.0000
G00 X59.2000 Y56.6600
G01 Z-1.8000
G01 Z0
G00 Z2.0000
G00 X59.2000 Y59.2000
G01 Z-1.8000
G01 Z0
G00 Z2.0000
G00 X59.2000 Y61.7400
G01 Z-1.8000
G01 Z0
G00 Z2.0000
G00 X59.2000 Y64.2800
G01 Z-1.8000
G01 Z0
G00 Z2.0000
G00 X59.2000 Y66.8200
G01 Z-1.8000
G01 Z0
G00 Z2.0000
G00 X59.2000 Y69.3600
G01 Z-1.8000
G01 Z0
G00 Z2.0000
M05
G00 Z0.50


