(G-CODE GENERATED BY FLATCAM v8.994 - www.flatcam.org - Version Date: 2020/11/7)

(Name: test-F_Cu.gbr_iso_combined_cnc)
(Type: G-code from Geometry)
(Units: MM)

(Created on Thursday, 21 December 2023 at 16:26)

(This preprocessor is the default preprocessor used by FlatCAM.)
(It is made to work with MACH3 compatible motion controllers.)

(TOOL DIAMETER: 0.1536 mm)
(Feedrate_XY: 120.0 mm/min)
(Feedrate_Z: 60.0 mm/min)
(Feedrate rapids 1500.0 mm/min)

(Z_Cut: -0.1 mm)
(Z_Move: 2.0 mm)
(Z Start: None mm)
(Z End: 15.0 mm)
(X,Y End: None mm)
(Steps per circle: 64)
(Preprocessor Geometry: default)

(X range:    3.1181 ...   60.1268  mm)
(Y range:    3.1181 ...   70.2868  mm)

(Spindle Speed: 0.0 RPM)
G21
G90
G94

G01 F120.00

M5
G00 Z15.0000
G00 X0.0000 Y0.0000
T1
M6    
(MSG, Change to Tool Dia = 0.1536)
M0
G00 Z15.0000

M03
G01 F120.00
G00 X3.1182 Y28.7162
G01 F60.00
G01 Z-0.1000
G01 F120.00
G01 X3.1191 Y28.7002
G01 X3.1220 Y28.6806
G01 X3.1268 Y28.6614
G01 X3.1335 Y28.6428
G01 X3.1420 Y28.6248
G01 X3.1522 Y28.6079
G01 X3.1640 Y28.5919
G01 X3.1773 Y28.5773
G01 X28.5773 Y3.1773
G01 X28.5919 Y3.1640
G01 X28.6079 Y3.1522
G01 X28.6248 Y3.1420
G01 X28.6428 Y3.1335
G01 X28.6578 Y3.1280
G01 X28.6650 Y3.1258
G01 X28.6843 Y3.1214
G01 X28.7002 Y3.1191
G01 X28.7200 Y3.1181
G01 X33.8000 Y3.1181
G01 X33.8198 Y3.1191
G01 X33.8357 Y3.1214
G01 X33.8431 Y3.1228
G01 X33.8586 Y3.1268
G01 X33.8772 Y3.1335
G01 X33.8918 Y3.1403
G01 X33.8984 Y3.1438
G01 X33.9152 Y3.1543
G01 X33.9281 Y3.1640
G01 X33.9427 Y3.1773
G01 X56.8027 Y26.0373
G01 X56.8136 Y26.0491
G01 X56.8184 Y26.0549
G01 X56.8299 Y26.0710
G01 X56.8389 Y26.0865
G01 X56.8472 Y26.1045
G01 X56.8532 Y26.1214
G01 X56.8580 Y26.1406
G01 X56.8609 Y26.1602
G01 X56.8618 Y26.1781
G01 X56.8619 Y27.7932
G01 X57.5156 Y27.7934
G01 X57.5213 Y27.7940
G01 X57.5287 Y27.7955
G01 X57.5394 Y27.7990
G01 X57.5495 Y27.8041
G01 X57.5557 Y27.8083
G01 X57.5602 Y27.8118
G01 X57.5643 Y27.8157
G01 X57.5694 Y27.8213
G01 X57.5759 Y27.8305
G01 X57.5786 Y27.8355
G01 X57.5817 Y27.8424
G01 X57.5849 Y27.8532
G01 X57.5862 Y27.8606
G01 X57.5868 Y27.8700
G01 X57.5868 Y29.5700
G01 X57.5866 Y29.5756
G01 X57.5857 Y29.5831
G01 X57.5829 Y29.5941
G01 X57.5810 Y29.5994
G01 X57.5777 Y29.6062
G01 X57.5717 Y29.6157
G01 X57.5656 Y29.6230
G01 X57.5602 Y29.6282
G01 X57.5527 Y29.6339
G01 X57.5445 Y29.6386
G01 X57.5359 Y29.6423
G01 X57.5287 Y29.6445
G01 X57.5213 Y29.6460
G01 X57.5119 Y29.6468
G01 X55.8100 Y29.6468
G01 X55.8044 Y29.6466
G01 X55.7969 Y29.6457
G01 X55.7859 Y29.6429
G01 X55.7755 Y29.6386
G01 X55.7658 Y29.6328
G01 X55.7570 Y29.6256
G01 X55.7531 Y29.6216
G01 X55.7483 Y29.6157
G01 X55.7451 Y29.6111
G01 X55.7414 Y29.6045
G01 X55.7371 Y29.5941
G01 X55.7355 Y29.5887
G01 X55.7340 Y29.5813
G01 X55.7332 Y29.5700
G01 X55.7332 Y27.8700
G01 X55.7336 Y27.8625
G01 X55.7351 Y27.8532
G01 X55.7383 Y27.8424
G01 X55.7406 Y27.8372
G01 X55.7441 Y27.8305
G01 X55.7506 Y27.8213
G01 X55.7544 Y27.8170
G01 X55.7598 Y27.8118
G01 X55.7689 Y27.8051
G01 X55.7755 Y27.8014
G01 X55.7806 Y27.7990
G01 X55.7859 Y27.7971
G01 X55.7932 Y27.7951
G01 X55.8044 Y27.7934
G01 X56.4581 Y27.7932
G01 X56.4581 Y26.2636
G01 X33.7164 Y3.5219
G01 X28.8036 Y3.5219
G01 X3.5219 Y28.8036
G01 X3.5219 Y43.8764
G01 X28.8036 Y69.1581
G01 X30.3332 Y69.1581
G01 X30.3332 Y68.5100
G01 X30.3336 Y68.5025
G01 X30.3347 Y68.4950
G01 X30.3360 Y68.4895
G01 X30.3377 Y68.4841
G01 X30.3406 Y68.4772
G01 X30.3441 Y68.4705
G01 X30.3483 Y68.4643
G01 X30.3518 Y68.4598
G01 X30.3570 Y68.4544
G01 X30.3613 Y68.4506
G01 X30.3673 Y68.4461
G01 X30.3738 Y68.4423
G01 X30.3806 Y68.4390
G01 X30.3877 Y68.4365
G01 X30.3950 Y68.4347
G01 X30.4006 Y68.4338
G01 X30.4081 Y68.4332
G01 X32.1100 Y68.4332
G01 X32.1175 Y68.4336
G01 X32.1250 Y68.4347
G01 X32.1323 Y68.4365
G01 X32.1394 Y68.4390
G01 X32.1495 Y68.4441
G01 X32.1572 Y68.4495
G01 X32.1643 Y68.4557
G01 X32.1717 Y68.4643
G01 X32.1777 Y68.4738
G01 X32.1823 Y68.4841
G01 X32.1853 Y68.4950
G01 X32.1866 Y68.5044
G01 X32.1868 Y69.1581
G01 X58.2732 Y69.1581
G01 X58.2734 Y68.5044
G01 X58.2747 Y68.4950
G01 X58.2777 Y68.4841
G01 X58.2823 Y68.4738
G01 X58.2883 Y68.4643
G01 X58.2944 Y68.4570
G01 X58.3028 Y68.4495
G01 X58.3121 Y68.4432
G01 X58.3206 Y68.4390
G01 X58.3277 Y68.4365
G01 X58.3350 Y68.4347
G01 X58.3425 Y68.4336
G01 X58.3500 Y68.4332
G01 X60.0519 Y68.4332
G01 X60.0594 Y68.4338
G01 X60.0668 Y68.4351
G01 X60.0741 Y68.4371
G01 X60.0811 Y68.4398
G01 X60.0862 Y68.4423
G01 X60.0927 Y68.4461
G01 X60.0987 Y68.4506
G01 X60.1043 Y68.4557
G01 X60.1094 Y68.4613
G01 X60.1128 Y68.4658
G01 X60.1168 Y68.4721
G01 X60.1202 Y68.4789
G01 X60.1229 Y68.4859
G01 X60.1249 Y68.4932
G01 X60.1262 Y68.5006
G01 X60.1268 Y68.5081
G01 X60.1268 Y70.2100
G01 X60.1264 Y70.2175
G01 X60.1257 Y70.2231
G01 X60.1229 Y70.2341
G01 X60.1210 Y70.2394
G01 X60.1177 Y70.2462
G01 X60.1117 Y70.2557
G01 X60.1056 Y70.2630
G01 X60.1002 Y70.2682
G01 X60.0942 Y70.2728
G01 X60.0862 Y70.2777
G01 X60.0776 Y70.2817
G01 X60.0687 Y70.2845
G01 X60.0613 Y70.2860
G01 X60.0519 Y70.2868
G01 X58.3500 Y70.2868
G01 X58.3425 Y70.2864
G01 X58.3369 Y70.2857
G01 X58.3295 Y70.2840
G01 X58.3224 Y70.2817
G01 X58.3121 Y70.2768
G01 X58.3028 Y70.2705
G01 X58.2944 Y70.2630
G01 X58.2883 Y70.2557
G01 X58.2832 Y70.2479
G01 X58.2783 Y70.2376
G01 X58.2751 Y70.2268
G01 X58.2734 Y70.2156
G01 X58.2732 Y69.5619
G01 X32.1868 Y69.5619
G01 X32.1866 Y70.2156
G01 X32.1849 Y70.2268
G01 X32.1823 Y70.2359
G01 X32.1777 Y70.2462
G01 X32.1717 Y70.2557
G01 X32.1643 Y70.2643
G01 X32.1572 Y70.2705
G01 X32.1479 Y70.2768
G01 X32.1394 Y70.2810
G01 X32.1323 Y70.2835
G01 X32.1250 Y70.2853
G01 X32.1175 Y70.2864
G01 X32.1100 Y70.2868
G01 X30.4081 Y70.2868
G01 X30.4025 Y70.2864
G01 X30.3950 Y70.2853
G01 X30.3877 Y70.2835
G01 X30.3806 Y70.2810
G01 X30.3738 Y70.2777
G01 X30.3689 Y70.2749
G01 X30.3643 Y70.2717
G01 X30.3584 Y70.2669
G01 X30.3544 Y70.2630
G01 X30.3495 Y70.2572
G01 X30.3451 Y70.2511
G01 X30.3414 Y70.2445
G01 X30.3390 Y70.2394
G01 X30.3365 Y70.2323
G01 X30.3347 Y70.2250
G01 X30.3336 Y70.2175
G01 X30.3332 Y70.2100
G01 X30.3332 Y69.5619
G01 X28.7181 Y69.5618
G01 X28.7002 Y69.5609
G01 X28.6843 Y69.5586
G01 X28.6769 Y69.5572
G01 X28.6596 Y69.5526
G01 X28.6428 Y69.5465
G01 X28.6265 Y69.5389
G01 X28.6110 Y69.5299
G01 X28.6048 Y69.5257
G01 X28.5919 Y69.5160
G01 X28.5773 Y69.5027
G01 X3.1773 Y44.1027
G01 X3.1640 Y44.0881
G01 X3.1511 Y44.0706
G01 X3.1420 Y44.0552
G01 X3.1350 Y44.0407
G01 X3.1321 Y44.0337
G01 X3.1268 Y44.0186
G01 X3.1220 Y43.9994
G01 X3.1196 Y43.9835
G01 X3.1188 Y43.9760
G01 X3.1181 Y43.9600
G01 X3.1182 Y28.7162
G00 Z2.0000
G00 X5.6582 Y28.7162
G01 F60.00
G01 Z-0.1000
G01 F120.00
G01 X5.6591 Y28.7002
G01 X5.6620 Y28.6806
G01 X5.6668 Y28.6614
G01 X5.6735 Y28.6428
G01 X5.6820 Y28.6248
G01 X5.6922 Y28.6079
G01 X5.7040 Y28.5919
G01 X5.7173 Y28.5773
G01 X28.5773 Y5.7173
G01 X28.5919 Y5.7040
G01 X28.6079 Y5.6922
G01 X28.6248 Y5.6820
G01 X28.6428 Y5.6735
G01 X28.6578 Y5.6680
G01 X28.6650 Y5.6658
G01 X28.6843 Y5.6614
G01 X28.7002 Y5.6591
G01 X28.7200 Y5.6581
G01 X33.8000 Y5.6581
G01 X33.8198 Y5.6591
G01 X33.8357 Y5.6614
G01 X33.8431 Y5.6628
G01 X33.8586 Y5.6668
G01 X33.8772 Y5.6735
G01 X33.8918 Y5.6803
G01 X33.8984 Y5.6838
G01 X33.9137 Y5.6932
G01 X33.9281 Y5.7040
G01 X33.9427 Y5.7173
G01 X54.2627 Y26.0373
G01 X54.2736 Y26.0491
G01 X54.2784 Y26.0549
G01 X54.2899 Y26.0710
G01 X54.2989 Y26.0865
G01 X54.3072 Y26.1045
G01 X54.3132 Y26.1214
G01 X54.3180 Y26.1406
G01 X54.3209 Y26.1602
G01 X54.3218 Y26.1781
G01 X54.3219 Y27.8162
G01 X54.3890 Y27.8331
G01 X54.4712 Y27.8624
G01 X54.4781 Y27.8653
G01 X54.5535 Y27.9009
G01 X54.5602 Y27.9045
G01 X54.6349 Y27.9494
G01 X54.7080 Y28.0036
G01 X54.7726 Y28.0621
G01 X54.7779 Y28.0674
G01 X54.8364 Y28.1320
G01 X54.8884 Y28.2020
G01 X54.8926 Y28.2083
G01 X54.9374 Y28.2831
G01 X54.9770 Y28.3671
G01 X55.0057 Y28.4474
G01 X55.0079 Y28.4546
G01 X55.0290 Y28.5392
G01 X55.0419 Y28.6254
G01 X55.0426 Y28.6329
G01 X55.0468 Y28.7200
G01 X55.0423 Y28.8108
G01 X55.0296 Y28.8971
G01 X55.0282 Y28.9045
G01 X55.0069 Y28.9890
G01 X54.9776 Y29.0712
G01 X54.9747 Y29.0781
G01 X54.9374 Y29.1569
G01 X54.8926 Y29.2317
G01 X54.8884 Y29.2380
G01 X54.8364 Y29.3080
G01 X54.7779 Y29.3726
G01 X54.7726 Y29.3779
G01 X54.7080 Y29.4364
G01 X54.6349 Y29.4906
G01 X54.5602 Y29.5355
G01 X54.5535 Y29.5391
G01 X54.4747 Y29.5763
G01 X54.3926 Y29.6057
G01 X54.3854 Y29.6079
G01 X54.3008 Y29.6290
G01 X54.2108 Y29.6423
G01 X54.1238 Y29.6467
G01 X54.1162 Y29.6467
G01 X54.0292 Y29.6423
G01 X53.9429 Y29.6296
G01 X53.9355 Y29.6282
G01 X53.8510 Y29.6069
G01 X53.7688 Y29.5776
G01 X53.7619 Y29.5747
G01 X53.6831 Y29.5374
G01 X53.6083 Y29.4926
G01 X53.6020 Y29.4884
G01 X53.5350 Y29.4387
G01 X53.5292 Y29.4340
G01 X53.4647 Y29.3753
G01 X53.4060 Y29.3108
G01 X53.4013 Y29.3050
G01 X53.3494 Y29.2349
G01 X53.3045 Y29.1602
G01 X53.3009 Y29.1535
G01 X53.2637 Y29.0747
G01 X53.2337 Y28.9908
G01 X53.2110 Y28.9008
G01 X53.1977 Y28.8108
G01 X53.1932 Y28.7200
G01 X53.1977 Y28.6292
G01 X53.2110 Y28.5392
G01 X53.2331 Y28.4510
G01 X53.2637 Y28.3653
G01 X53.3035 Y28.2815
G01 X53.3494 Y28.2051
G01 X53.4036 Y28.1320
G01 X53.4647 Y28.0647
G01 X53.5292 Y28.0060
G01 X53.5350 Y28.0013
G01 X53.6051 Y27.9494
G01 X53.6798 Y27.9045
G01 X53.6865 Y27.9009
G01 X53.7619 Y27.8653
G01 X53.7688 Y27.8624
G01 X53.8510 Y27.8331
G01 X53.9181 Y27.8162
G01 X53.9181 Y26.2636
G01 X33.7164 Y6.0619
G01 X28.8036 Y6.0619
G01 X6.0619 Y28.8036
G01 X6.0619 Y43.8764
G01 X28.8036 Y66.6181
G01 X30.3562 Y66.6181
G01 X30.3731 Y66.5510
G01 X30.4037 Y66.4653
G01 X30.4426 Y66.3831
G01 X30.4874 Y66.3083
G01 X30.4916 Y66.3020
G01 X30.5413 Y66.2350
G01 X30.5460 Y66.2292
G01 X30.6047 Y66.1647
G01 X30.6720 Y66.1036
G01 X30.7451 Y66.0494
G01 X30.8198 Y66.0045
G01 X30.8265 Y66.0009
G01 X30.9019 Y65.9653
G01 X30.9088 Y65.9624
G01 X30.9910 Y65.9331
G01 X31.0792 Y65.9110
G01 X31.1692 Y65.8977
G01 X31.2600 Y65.8932
G01 X31.3508 Y65.8977
G01 X31.4408 Y65.9110
G01 X31.5290 Y65.9331
G01 X31.6112 Y65.9624
G01 X31.6181 Y65.9653
G01 X31.6935 Y66.0009
G01 X31.7002 Y66.0045
G01 X31.7749 Y66.0494
G01 X31.8480 Y66.1036
G01 X31.9153 Y66.1647
G01 X31.9740 Y66.2292
G01 X31.9787 Y66.2350
G01 X32.0284 Y66.3020
G01 X32.0326 Y66.3083
G01 X32.0774 Y66.3831
G01 X32.1163 Y66.4653
G01 X32.1469 Y66.5510
G01 X32.1638 Y66.6181
G01 X58.2962 Y66.6181
G01 X58.3131 Y66.5510
G01 X58.3437 Y66.4653
G01 X58.3826 Y66.3831
G01 X58.4274 Y66.3083
G01 X58.4316 Y66.3020
G01 X58.4813 Y66.2350
G01 X58.4860 Y66.2292
G01 X58.5447 Y66.1647
G01 X58.6120 Y66.1036
G01 X58.6851 Y66.0494
G01 X58.7631 Y66.0026
G01 X58.8453 Y65.9637
G01 X58.9274 Y65.9343
G01 X58.9346 Y65.9321
G01 X59.0155 Y65.9118
G01 X59.0229 Y65.9104
G01 X59.1092 Y65.8977
G01 X59.2019 Y65.8932
G01 X59.2908 Y65.8977
G01 X59.3771 Y65.9104
G01 X59.3845 Y65.9118
G01 X59.4690 Y65.9331
G01 X59.5512 Y65.9624
G01 X59.5581 Y65.9653
G01 X59.6369 Y66.0026
G01 X59.7117 Y66.0474
G01 X59.7180 Y66.0516
G01 X59.7880 Y66.1036
G01 X59.8526 Y66.1621
G01 X59.8579 Y66.1674
G01 X59.9164 Y66.2320
G01 X59.9684 Y66.3020
G01 X59.9726 Y66.3083
G01 X60.0174 Y66.3831
G01 X60.0547 Y66.4619
G01 X60.0576 Y66.4688
G01 X60.0869 Y66.5510
G01 X60.1090 Y66.6392
G01 X60.1219 Y66.7254
G01 X60.1226 Y66.7329
G01 X60.1268 Y66.8200
G01 X60.1226 Y66.9071
G01 X60.1219 Y66.9146
G01 X60.1090 Y67.0008
G01 X60.0879 Y67.0854
G01 X60.0857 Y67.0926
G01 X60.0563 Y67.1747
G01 X60.0191 Y67.2535
G01 X60.0155 Y67.2602
G01 X59.9695 Y67.3365
G01 X59.9187 Y67.4050
G01 X59.9140 Y67.4108
G01 X59.8553 Y67.4753
G01 X59.7908 Y67.5340
G01 X59.7850 Y67.5387
G01 X59.7149 Y67.5906
G01 X59.6369 Y67.6374
G01 X59.5547 Y67.6763
G01 X59.4726 Y67.7057
G01 X59.4654 Y67.7079
G01 X59.3808 Y67.7290
G01 X59.2946 Y67.7419
G01 X59.2871 Y67.7426
G01 X59.2000 Y67.7468
G01 X59.1092 Y67.7423
G01 X59.0192 Y67.7290
G01 X58.9310 Y67.7069
G01 X58.8488 Y67.6776
G01 X58.8419 Y67.6747
G01 X58.7665 Y67.6391
G01 X58.7598 Y67.6355
G01 X58.6851 Y67.5906
G01 X58.6120 Y67.5364
G01 X58.5447 Y67.4753
G01 X58.4860 Y67.4108
G01 X58.4813 Y67.4050
G01 X58.4316 Y67.3380
G01 X58.4274 Y67.3317
G01 X58.3826 Y67.2569
G01 X58.3437 Y67.1747
G01 X58.3131 Y67.0890
G01 X58.2962 Y67.0219
G01 X32.1638 Y67.0219
G01 X32.1469 Y67.0890
G01 X32.1163 Y67.1747
G01 X32.0774 Y67.2569
G01 X32.0326 Y67.3317
G01 X32.0284 Y67.3380
G01 X31.9787 Y67.4050
G01 X31.9740 Y67.4108
G01 X31.9153 Y67.4753
G01 X31.8480 Y67.5364
G01 X31.7749 Y67.5906
G01 X31.7002 Y67.6355
G01 X31.6935 Y67.6391
G01 X31.6181 Y67.6747
G01 X31.6112 Y67.6776
G01 X31.5290 Y67.7069
G01 X31.4408 Y67.7290
G01 X31.3508 Y67.7423
G01 X31.2600 Y67.7468
G01 X31.1692 Y67.7423
G01 X31.0792 Y67.7290
G01 X30.9910 Y67.7069
G01 X30.9088 Y67.6776
G01 X30.9019 Y67.6747
G01 X30.8265 Y67.6391
G01 X30.8198 Y67.6355
G01 X30.7451 Y67.5906
G01 X30.6720 Y67.5364
G01 X30.6047 Y67.4753
G01 X30.5460 Y67.4108
G01 X30.5413 Y67.4050
G01 X30.4916 Y67.3380
G01 X30.4874 Y67.3317
G01 X30.4426 Y67.2569
G01 X30.4037 Y67.1747
G01 X30.3731 Y67.0890
G01 X30.3562 Y67.0219
G01 X28.7181 Y67.0218
G01 X28.7002 Y67.0209
G01 X28.6843 Y67.0186
G01 X28.6769 Y67.0172
G01 X28.6614 Y67.0132
G01 X28.6428 Y67.0065
G01 X28.6282 Y66.9997
G01 X28.6216 Y66.9962
G01 X28.6063 Y66.9868
G01 X28.5919 Y66.9760
G01 X28.5773 Y66.9627
G01 X5.7173 Y44.1027
G01 X5.7040 Y44.0881
G01 X5.6943 Y44.0752
G01 X5.6901 Y44.0690
G01 X5.6820 Y44.0552
G01 X5.6750 Y44.0407
G01 X5.6721 Y44.0337
G01 X5.6668 Y44.0186
G01 X5.6620 Y43.9994
G01 X5.6596 Y43.9835
G01 X5.6588 Y43.9760
G01 X5.6581 Y43.9600
G01 X5.6582 Y28.7162
G00 Z2.0000
G00 X8.1982 Y28.7162
G01 F60.00
G01 Z-0.1000
G01 F120.00
G01 X8.1991 Y28.7002
G01 X8.2020 Y28.6806
G01 X8.2068 Y28.6614
G01 X8.2135 Y28.6428
G01 X8.2220 Y28.6248
G01 X8.2322 Y28.6079
G01 X8.2440 Y28.5919
G01 X8.2573 Y28.5773
G01 X28.5773 Y8.2573
G01 X28.5934 Y8.2428
G01 X28.6079 Y8.2322
G01 X28.6248 Y8.2220
G01 X28.6428 Y8.2135
G01 X28.6578 Y8.2080
G01 X28.6650 Y8.2058
G01 X28.6843 Y8.2014
G01 X28.7002 Y8.1991
G01 X28.7200 Y8.1981
G01 X33.8000 Y8.1981
G01 X33.8198 Y8.1991
G01 X33.8357 Y8.2014
G01 X33.8431 Y8.2028
G01 X33.8586 Y8.2068
G01 X33.8772 Y8.2135
G01 X33.8918 Y8.2203
G01 X33.8984 Y8.2238
G01 X33.9137 Y8.2332
G01 X33.9281 Y8.2440
G01 X33.9427 Y8.2573
G01 X51.7227 Y26.0373
G01 X51.7348 Y26.0505
G01 X51.7468 Y26.0663
G01 X51.7562 Y26.0816
G01 X51.7597 Y26.0882
G01 X51.7679 Y26.1063
G01 X51.7732 Y26.1214
G01 X51.7780 Y26.1406
G01 X51.7809 Y26.1602
G01 X51.7818 Y26.1781
G01 X51.7819 Y27.8162
G01 X51.8490 Y27.8331
G01 X51.9312 Y27.8624
G01 X51.9381 Y27.8653
G01 X52.0135 Y27.9009
G01 X52.0202 Y27.9045
G01 X52.0949 Y27.9494
G01 X52.1680 Y28.0036
G01 X52.2326 Y28.0621
G01 X52.2379 Y28.0674
G01 X52.2964 Y28.1320
G01 X52.3484 Y28.2020
G01 X52.3526 Y28.2083
G01 X52.3974 Y28.2831
G01 X52.4370 Y28.3671
G01 X52.4657 Y28.4474
G01 X52.4679 Y28.4546
G01 X52.4890 Y28.5392
G01 X52.5019 Y28.6254
G01 X52.5026 Y28.6329
G01 X52.5068 Y28.7200
G01 X52.5023 Y28.8108
G01 X52.4896 Y28.8971
G01 X52.4882 Y28.9045
G01 X52.4669 Y28.9890
G01 X52.4376 Y29.0712
G01 X52.4347 Y29.0781
G01 X52.3974 Y29.1569
G01 X52.3495 Y29.2365
G01 X52.2964 Y29.3080
G01 X52.2379 Y29.3726
G01 X52.2326 Y29.3779
G01 X52.1680 Y29.4364
G01 X52.0980 Y29.4884
G01 X52.0917 Y29.4926
G01 X52.0169 Y29.5374
G01 X51.9381 Y29.5747
G01 X51.9312 Y29.5776
G01 X51.8526 Y29.6057
G01 X51.8454 Y29.6079
G01 X51.7608 Y29.6290
G01 X51.6746 Y29.6419
G01 X51.6671 Y29.6426
G01 X51.5800 Y29.6468
G01 X51.4929 Y29.6426
G01 X51.4854 Y29.6419
G01 X51.3992 Y29.6290
G01 X51.3146 Y29.6079
G01 X51.3074 Y29.6057
G01 X51.2253 Y29.5763
G01 X51.1465 Y29.5391
G01 X51.1398 Y29.5355
G01 X51.0651 Y29.4906
G01 X50.9920 Y29.4364
G01 X50.9247 Y29.3753
G01 X50.8660 Y29.3108
G01 X50.8613 Y29.3050
G01 X50.8094 Y29.2349
G01 X50.7645 Y29.1602
G01 X50.7609 Y29.1535
G01 X50.7237 Y29.0747
G01 X50.6937 Y28.9908
G01 X50.6710 Y28.9008
G01 X50.6577 Y28.8108
G01 X50.6532 Y28.7200
G01 X50.6577 Y28.6292
G01 X50.6710 Y28.5392
G01 X50.6931 Y28.4510
G01 X50.7237 Y28.3653
G01 X50.7635 Y28.2815
G01 X50.8094 Y28.2051
G01 X50.8636 Y28.1320
G01 X50.9247 Y28.0647
G01 X50.9892 Y28.0060
G01 X50.9950 Y28.0013
G01 X51.0651 Y27.9494
G01 X51.1398 Y27.9045
G01 X51.1465 Y27.9009
G01 X51.2219 Y27.8653
G01 X51.2288 Y27.8624
G01 X51.3110 Y27.8331
G01 X51.3781 Y27.8162
G01 X51.3781 Y26.2636
G01 X33.7164 Y8.6019
G01 X28.8036 Y8.6019
G01 X8.6019 Y28.8036
G01 X8.6019 Y43.8764
G01 X28.8036 Y64.0781
G01 X30.3562 Y64.0781
G01 X30.3731 Y64.0110
G01 X30.4037 Y63.9253
G01 X30.4426 Y63.8431
G01 X30.4874 Y63.7683
G01 X30.4916 Y63.7620
G01 X30.5413 Y63.6950
G01 X30.5460 Y63.6892
G01 X30.6047 Y63.6247
G01 X30.6720 Y63.5636
G01 X30.7451 Y63.5094
G01 X30.8198 Y63.4645
G01 X30.8265 Y63.4609
G01 X30.9019 Y63.4253
G01 X30.9088 Y63.4224
G01 X30.9910 Y63.3931
G01 X31.0792 Y63.3710
G01 X31.1692 Y63.3577
G01 X31.2600 Y63.3532
G01 X31.3508 Y63.3577
G01 X31.4408 Y63.3710
G01 X31.5290 Y63.3931
G01 X31.6112 Y63.4224
G01 X31.6181 Y63.4253
G01 X31.6935 Y63.4609
G01 X31.7002 Y63.4645
G01 X31.7749 Y63.5094
G01 X31.8480 Y63.5636
G01 X31.9153 Y63.6247
G01 X31.9740 Y63.6892
G01 X31.9787 Y63.6950
G01 X32.0284 Y63.7620
G01 X32.0326 Y63.7683
G01 X32.0774 Y63.8431
G01 X32.1163 Y63.9253
G01 X32.1469 Y64.0110
G01 X32.1638 Y64.0781
G01 X58.2962 Y64.0781
G01 X58.3131 Y64.0110
G01 X58.3437 Y63.9253
G01 X58.3826 Y63.8431
G01 X58.4274 Y63.7683
G01 X58.4316 Y63.7620
G01 X58.4813 Y63.6950
G01 X58.4860 Y63.6892
G01 X58.5447 Y63.6247
G01 X58.6120 Y63.5636
G01 X58.6851 Y63.5094
G01 X58.7631 Y63.4626
G01 X58.8453 Y63.4237
G01 X58.9274 Y63.3943
G01 X58.9346 Y63.3921
G01 X59.0155 Y63.3718
G01 X59.0229 Y63.3704
G01 X59.1092 Y63.3577
G01 X59.2019 Y63.3532
G01 X59.2908 Y63.3577
G01 X59.3771 Y63.3704
G01 X59.3845 Y63.3718
G01 X59.4690 Y63.3931
G01 X59.5512 Y63.4224
G01 X59.5581 Y63.4253
G01 X59.6369 Y63.4626
G01 X59.7117 Y63.5074
G01 X59.7180 Y63.5116
G01 X59.7880 Y63.5636
G01 X59.8526 Y63.6221
G01 X59.8579 Y63.6274
G01 X59.9164 Y63.6920
G01 X59.9684 Y63.7620
G01 X59.9726 Y63.7683
G01 X60.0174 Y63.8431
G01 X60.0547 Y63.9219
G01 X60.0576 Y63.9288
G01 X60.0869 Y64.0110
G01 X60.1090 Y64.0992
G01 X60.1219 Y64.1854
G01 X60.1226 Y64.1929
G01 X60.1268 Y64.2800
G01 X60.1226 Y64.3671
G01 X60.1219 Y64.3746
G01 X60.1090 Y64.4608
G01 X60.0879 Y64.5454
G01 X60.0857 Y64.5526
G01 X60.0563 Y64.6347
G01 X60.0191 Y64.7135
G01 X60.0155 Y64.7202
G01 X59.9695 Y64.7965
G01 X59.9187 Y64.8650
G01 X59.9140 Y64.8708
G01 X59.8553 Y64.9353
G01 X59.7908 Y64.9940
G01 X59.7850 Y64.9987
G01 X59.7149 Y65.0506
G01 X59.6369 Y65.0974
G01 X59.5547 Y65.1363
G01 X59.4726 Y65.1657
G01 X59.4654 Y65.1679
G01 X59.3808 Y65.1890
G01 X59.2946 Y65.2019
G01 X59.2871 Y65.2026
G01 X59.2000 Y65.2068
G01 X59.1092 Y65.2023
G01 X59.0192 Y65.1890
G01 X58.9310 Y65.1669
G01 X58.8488 Y65.1376
G01 X58.8419 Y65.1347
G01 X58.7665 Y65.0991
G01 X58.7598 Y65.0955
G01 X58.6851 Y65.0506
G01 X58.6120 Y64.9964
G01 X58.5447 Y64.9353
G01 X58.4860 Y64.8708
G01 X58.4813 Y64.8650
G01 X58.4316 Y64.7980
G01 X58.4274 Y64.7917
G01 X58.3826 Y64.7169
G01 X58.3437 Y64.6347
G01 X58.3131 Y64.5490
G01 X58.2962 Y64.4819
G01 X32.1638 Y64.4819
G01 X32.1469 Y64.5490
G01 X32.1163 Y64.6347
G01 X32.0774 Y64.7169
G01 X32.0326 Y64.7917
G01 X32.0284 Y64.7980
G01 X31.9787 Y64.8650
G01 X31.9740 Y64.8708
G01 X31.9153 Y64.9353
G01 X31.8480 Y64.9964
G01 X31.7749 Y65.0506
G01 X31.7002 Y65.0955
G01 X31.6935 Y65.0991
G01 X31.6181 Y65.1347
G01 X31.6112 Y65.1376
G01 X31.5290 Y65.1669
G01 X31.4408 Y65.1890
G01 X31.3508 Y65.2023
G01 X31.2600 Y65.2068
G01 X31.1692 Y65.2023
G01 X31.0792 Y65.1890
G01 X30.9910 Y65.1669
G01 X30.9088 Y65.1376
G01 X30.9019 Y65.1347
G01 X30.8265 Y65.0991
G01 X30.8198 Y65.0955
G01 X30.7451 Y65.0506
G01 X30.6720 Y64.9964
G01 X30.6047 Y64.9353
G01 X30.5460 Y64.8708
G01 X30.5413 Y64.8650
G01 X30.4916 Y64.7980
G01 X30.4874 Y64.7917
G01 X30.4426 Y64.7169
G01 X30.4037 Y64.6347
G01 X30.3731 Y64.5490
G01 X30.3562 Y64.4819
G01 X28.7181 Y64.4818
G01 X28.7002 Y64.4809
G01 X28.6843 Y64.4786
G01 X28.6769 Y64.4772
G01 X28.6614 Y64.4732
G01 X28.6428 Y64.4665
G01 X28.6282 Y64.4597
G01 X28.6216 Y64.4562
G01 X28.6063 Y64.4468
G01 X28.5919 Y64.4360
G01 X28.5773 Y64.4227
G01 X8.2573 Y44.1027
G01 X8.2464 Y44.0909
G01 X8.2416 Y44.0851
G01 X8.2322 Y44.0721
G01 X8.2229 Y44.0568
G01 X8.2135 Y44.0372
G01 X8.2080 Y44.0222
G01 X8.2058 Y44.0150
G01 X8.2020 Y43.9994
G01 X8.1996 Y43.9835
G01 X8.1988 Y43.9760
G01 X8.1981 Y43.9600
G01 X8.1982 Y28.7162
G00 Z2.0000
G00 X10.6132 Y28.7162
G01 F60.00
G01 Z-0.1000
G01 F120.00
G01 X10.6146 Y28.6880
G01 X10.6194 Y28.6562
G01 X10.6272 Y28.6251
G01 X10.6380 Y28.5949
G01 X10.6517 Y28.5659
G01 X10.6682 Y28.5384
G01 X10.6873 Y28.5126
G01 X10.7088 Y28.4888
G01 X28.4888 Y10.7088
G01 X28.5141 Y10.6861
G01 X28.5384 Y10.6682
G01 X28.5659 Y10.6517
G01 X28.5949 Y10.6380
G01 X28.6215 Y10.6283
G01 X28.6287 Y10.6261
G01 X28.6525 Y10.6202
G01 X28.6599 Y10.6187
G01 X28.6880 Y10.6146
G01 X28.7200 Y10.6131
G01 X33.8000 Y10.6131
G01 X33.8320 Y10.6146
G01 X33.8601 Y10.6187
G01 X33.8675 Y10.6202
G01 X33.8949 Y10.6272
G01 X33.9216 Y10.6366
G01 X33.9286 Y10.6395
G01 X33.9541 Y10.6517
G01 X33.9816 Y10.6682
G01 X34.0074 Y10.6873
G01 X34.0312 Y10.7088
G01 X49.2712 Y25.9488
G01 X49.2915 Y25.9712
G01 X49.3118 Y25.9984
G01 X49.3265 Y26.0226
G01 X49.3300 Y26.0293
G01 X49.3405 Y26.0514
G01 X49.3434 Y26.0584
G01 X49.3528 Y26.0851
G01 X49.3606 Y26.1162
G01 X49.3654 Y26.1480
G01 X49.3668 Y26.1762
G01 X49.3669 Y27.8537
G01 X49.3964 Y27.8645
G01 X49.4752 Y27.9018
G01 X49.5565 Y27.9505
G01 X49.6250 Y28.0013
G01 X49.6308 Y28.0060
G01 X49.6953 Y28.0647
G01 X49.7552 Y28.1306
G01 X49.8084 Y28.2020
G01 X49.8126 Y28.2083
G01 X49.8574 Y28.2831
G01 X49.8947 Y28.3619
G01 X49.8976 Y28.3688
G01 X49.9269 Y28.4510
G01 X49.9482 Y28.5355
G01 X49.9496 Y28.5429
G01 X49.9623 Y28.6292
G01 X49.9668 Y28.7200
G01 X49.9623 Y28.8108
G01 X49.9490 Y28.9008
G01 X49.9269 Y28.9890
G01 X49.8963 Y29.0747
G01 X49.8574 Y29.1569
G01 X49.8106 Y29.2349
G01 X49.7564 Y29.3080
G01 X49.6979 Y29.3726
G01 X49.6926 Y29.3779
G01 X49.6308 Y29.4340
G01 X49.6250 Y29.4387
G01 X49.5549 Y29.4906
G01 X49.4802 Y29.5355
G01 X49.4735 Y29.5391
G01 X49.3947 Y29.5763
G01 X49.3090 Y29.6069
G01 X49.2208 Y29.6290
G01 X49.1346 Y29.6419
G01 X49.1271 Y29.6426
G01 X49.0400 Y29.6468
G01 X48.9529 Y29.6426
G01 X48.9454 Y29.6419
G01 X48.8629 Y29.6296
G01 X48.8555 Y29.6282
G01 X48.7710 Y29.6069
G01 X48.6853 Y29.5763
G01 X48.6031 Y29.5374
G01 X48.5283 Y29.4926
G01 X48.5220 Y29.4884
G01 X48.4550 Y29.4387
G01 X48.4492 Y29.4340
G01 X48.3847 Y29.3753
G01 X48.3260 Y29.3108
G01 X48.3213 Y29.3050
G01 X48.2694 Y29.2349
G01 X48.2226 Y29.1569
G01 X48.1837 Y29.0747
G01 X48.1531 Y28.9890
G01 X48.1310 Y28.9008
G01 X48.1177 Y28.8108
G01 X48.1132 Y28.7200
G01 X48.1179 Y28.6273
G01 X48.1310 Y28.5392
G01 X48.1521 Y28.4546
G01 X48.1543 Y28.4474
G01 X48.1837 Y28.3653
G01 X48.2209 Y28.2865
G01 X48.2245 Y28.2798
G01 X48.2694 Y28.2051
G01 X48.3224 Y28.1335
G01 X48.3821 Y28.0674
G01 X48.3874 Y28.0621
G01 X48.4520 Y28.0036
G01 X48.5235 Y27.9505
G01 X48.6048 Y27.9018
G01 X48.6836 Y27.8645
G01 X48.7131 Y27.8537
G01 X48.7131 Y26.3154
G01 X33.6646 Y11.2669
G01 X28.8554 Y11.2669
G01 X11.2669 Y28.8554
G01 X11.2669 Y43.8246
G01 X28.8554 Y61.4131
G01 X30.3937 Y61.4131
G01 X30.4045 Y61.3836
G01 X30.4435 Y61.3015
G01 X30.4894 Y61.2251
G01 X30.5424 Y61.1535
G01 X30.6021 Y61.0874
G01 X30.6074 Y61.0821
G01 X30.6720 Y61.0236
G01 X30.7435 Y60.9705
G01 X30.8198 Y60.9245
G01 X30.8265 Y60.9209
G01 X30.9053 Y60.8837
G01 X30.9910 Y60.8531
G01 X31.0792 Y60.8310
G01 X31.1654 Y60.8181
G01 X31.1729 Y60.8174
G01 X31.2600 Y60.8132
G01 X31.3471 Y60.8174
G01 X31.3546 Y60.8181
G01 X31.4408 Y60.8310
G01 X31.5290 Y60.8531
G01 X31.6147 Y60.8837
G01 X31.6935 Y60.9209
G01 X31.7002 Y60.9245
G01 X31.7765 Y60.9705
G01 X31.8480 Y61.0236
G01 X31.9126 Y61.0821
G01 X31.9179 Y61.0874
G01 X31.9776 Y61.1535
G01 X32.0306 Y61.2251
G01 X32.0765 Y61.3015
G01 X32.1155 Y61.3836
G01 X32.1263 Y61.4131
G01 X58.3337 Y61.4131
G01 X58.3445 Y61.3836
G01 X58.3835 Y61.3015
G01 X58.4294 Y61.2251
G01 X58.4824 Y61.1535
G01 X58.5421 Y61.0874
G01 X58.5474 Y61.0821
G01 X58.6120 Y61.0236
G01 X58.6835 Y60.9705
G01 X58.7598 Y60.9245
G01 X58.7665 Y60.9209
G01 X58.8453 Y60.8837
G01 X58.9310 Y60.8531
G01 X59.0192 Y60.8310
G01 X59.1054 Y60.8181
G01 X59.1129 Y60.8174
G01 X59.2019 Y60.8132
G01 X59.2908 Y60.8177
G01 X59.3771 Y60.8304
G01 X59.3845 Y60.8318
G01 X59.4690 Y60.8531
G01 X59.5512 Y60.8824
G01 X59.5581 Y60.8853
G01 X59.6369 Y60.9226
G01 X59.7117 Y60.9674
G01 X59.7180 Y60.9716
G01 X59.7880 Y61.0236
G01 X59.8526 Y61.0821
G01 X59.8579 Y61.0874
G01 X59.9164 Y61.1520
G01 X59.9684 Y61.2220
G01 X59.9726 Y61.2283
G01 X60.0174 Y61.3031
G01 X60.0547 Y61.3819
G01 X60.0576 Y61.3888
G01 X60.0869 Y61.4710
G01 X60.1090 Y61.5592
G01 X60.1219 Y61.6454
G01 X60.1226 Y61.6529
G01 X60.1268 Y61.7400
G01 X60.1226 Y61.8271
G01 X60.1219 Y61.8346
G01 X60.1090 Y61.9208
G01 X60.0879 Y62.0054
G01 X60.0857 Y62.0126
G01 X60.0563 Y62.0947
G01 X60.0191 Y62.1735
G01 X60.0155 Y62.1802
G01 X59.9706 Y62.2549
G01 X59.9164 Y62.3280
G01 X59.8579 Y62.3926
G01 X59.8526 Y62.3979
G01 X59.7880 Y62.4564
G01 X59.7180 Y62.5084
G01 X59.7117 Y62.5126
G01 X59.6369 Y62.5574
G01 X59.5547 Y62.5963
G01 X59.4726 Y62.6257
G01 X59.4654 Y62.6279
G01 X59.3808 Y62.6490
G01 X59.2946 Y62.6619
G01 X59.2871 Y62.6626
G01 X59.2000 Y62.6668
G01 X59.1129 Y62.6626
G01 X59.1054 Y62.6619
G01 X59.0192 Y62.6490
G01 X58.9310 Y62.6269
G01 X58.8453 Y62.5963
G01 X58.7665 Y62.5591
G01 X58.7598 Y62.5555
G01 X58.6835 Y62.5095
G01 X58.6120 Y62.4564
G01 X58.5474 Y62.3979
G01 X58.5421 Y62.3926
G01 X58.4824 Y62.3265
G01 X58.4294 Y62.2549
G01 X58.3835 Y62.1785
G01 X58.3445 Y62.0964
G01 X58.3337 Y62.0669
G01 X32.1263 Y62.0669
G01 X32.1155 Y62.0964
G01 X32.0765 Y62.1785
G01 X32.0306 Y62.2549
G01 X31.9776 Y62.3265
G01 X31.9179 Y62.3926
G01 X31.9126 Y62.3979
G01 X31.8480 Y62.4564
G01 X31.7765 Y62.5095
G01 X31.7002 Y62.5555
G01 X31.6935 Y62.5591
G01 X31.6147 Y62.5963
G01 X31.5290 Y62.6269
G01 X31.4408 Y62.6490
G01 X31.3546 Y62.6619
G01 X31.3471 Y62.6626
G01 X31.2600 Y62.6668
G01 X31.1729 Y62.6626
G01 X31.1654 Y62.6619
G01 X31.0792 Y62.6490
G01 X30.9910 Y62.6269
G01 X30.9053 Y62.5963
G01 X30.8265 Y62.5591
G01 X30.8198 Y62.5555
G01 X30.7435 Y62.5095
G01 X30.6720 Y62.4564
G01 X30.6074 Y62.3979
G01 X30.6021 Y62.3926
G01 X30.5424 Y62.3265
G01 X30.4894 Y62.2549
G01 X30.4435 Y62.1785
G01 X30.4045 Y62.0964
G01 X30.3937 Y62.0669
G01 X28.7181 Y62.0669
G01 X28.6880 Y62.0654
G01 X28.6599 Y62.0613
G01 X28.6525 Y62.0598
G01 X28.6251 Y62.0528
G01 X28.5984 Y62.0434
G01 X28.5914 Y62.0405
G01 X28.5659 Y62.0283
G01 X28.5384 Y62.0118
G01 X28.5126 Y61.9927
G01 X28.4888 Y61.9712
G01 X10.7088 Y44.1912
G01 X10.6897 Y44.1703
G01 X10.6850 Y44.1644
G01 X10.6682 Y44.1416
G01 X10.6517 Y44.1141
G01 X10.6395 Y44.0886
G01 X10.6366 Y44.0816
G01 X10.6272 Y44.0549
G01 X10.6202 Y44.0275
G01 X10.6187 Y44.0201
G01 X10.6146 Y43.9920
G01 X10.6131 Y43.9600
G01 X10.6132 Y28.7162
G00 Z2.0000
G00 X13.1532 Y28.7162
G01 F60.00
G01 Z-0.1000
G01 F120.00
G01 X13.1546 Y28.6880
G01 X13.1594 Y28.6562
G01 X13.1672 Y28.6251
G01 X13.1780 Y28.5949
G01 X13.1917 Y28.5659
G01 X13.2082 Y28.5384
G01 X13.2273 Y28.5126
G01 X13.2488 Y28.4888
G01 X28.4888 Y13.2488
G01 X28.5097 Y13.2297
G01 X28.5156 Y13.2250
G01 X28.5384 Y13.2082
G01 X28.5659 Y13.1917
G01 X28.5949 Y13.1780
G01 X28.6215 Y13.1683
G01 X28.6287 Y13.1661
G01 X28.6525 Y13.1602
G01 X28.6599 Y13.1587
G01 X28.6880 Y13.1546
G01 X28.7200 Y13.1531
G01 X33.8000 Y13.1531
G01 X33.8320 Y13.1546
G01 X33.8601 Y13.1587
G01 X33.8675 Y13.1602
G01 X33.8949 Y13.1672
G01 X33.9216 Y13.1766
G01 X33.9286 Y13.1795
G01 X33.9541 Y13.1917
G01 X33.9816 Y13.2082
G01 X34.0074 Y13.2273
G01 X34.0312 Y13.2488
G01 X46.7312 Y25.9488
G01 X46.7527 Y25.9726
G01 X46.7718 Y25.9984
G01 X46.7865 Y26.0226
G01 X46.7900 Y26.0293
G01 X46.8005 Y26.0514
G01 X46.8034 Y26.0584
G01 X46.8128 Y26.0851
G01 X46.8206 Y26.1162
G01 X46.8254 Y26.1480
G01 X46.8268 Y26.1762
G01 X46.8269 Y27.8537
G01 X46.8564 Y27.8645
G01 X46.9352 Y27.9018
G01 X47.0165 Y27.9505
G01 X47.0850 Y28.0013
G01 X47.0908 Y28.0060
G01 X47.1553 Y28.0647
G01 X47.2152 Y28.1306
G01 X47.2684 Y28.2020
G01 X47.2726 Y28.2083
G01 X47.3174 Y28.2831
G01 X47.3547 Y28.3619
G01 X47.3576 Y28.3688
G01 X47.3869 Y28.4510
G01 X47.4082 Y28.5355
G01 X47.4096 Y28.5429
G01 X47.4223 Y28.6292
G01 X47.4268 Y28.7200
G01 X47.4223 Y28.8108
G01 X47.4090 Y28.9008
G01 X47.3869 Y28.9890
G01 X47.3563 Y29.0747
G01 X47.3174 Y29.1569
G01 X47.2706 Y29.2349
G01 X47.2164 Y29.3080
G01 X47.1579 Y29.3726
G01 X47.1526 Y29.3779
G01 X47.0908 Y29.4340
G01 X47.0850 Y29.4387
G01 X47.0149 Y29.4906
G01 X46.9402 Y29.5355
G01 X46.9335 Y29.5391
G01 X46.8547 Y29.5763
G01 X46.7690 Y29.6069
G01 X46.6808 Y29.6290
G01 X46.5946 Y29.6419
G01 X46.5871 Y29.6426
G01 X46.5000 Y29.6468
G01 X46.4129 Y29.6426
G01 X46.4054 Y29.6419
G01 X46.3229 Y29.6296
G01 X46.3155 Y29.6282
G01 X46.2310 Y29.6069
G01 X46.1453 Y29.5763
G01 X46.0631 Y29.5374
G01 X45.9883 Y29.4926
G01 X45.9820 Y29.4884
G01 X45.9120 Y29.4364
G01 X45.8474 Y29.3779
G01 X45.8421 Y29.3726
G01 X45.7848 Y29.3094
G01 X45.7294 Y29.2349
G01 X45.6826 Y29.1569
G01 X45.6437 Y29.0747
G01 X45.6131 Y28.9890
G01 X45.5910 Y28.9008
G01 X45.5777 Y28.8108
G01 X45.5732 Y28.7200
G01 X45.5779 Y28.6273
G01 X45.5910 Y28.5392
G01 X45.6121 Y28.4546
G01 X45.6143 Y28.4474
G01 X45.6437 Y28.3653
G01 X45.6809 Y28.2865
G01 X45.6845 Y28.2798
G01 X45.7294 Y28.2051
G01 X45.7824 Y28.1335
G01 X45.8421 Y28.0674
G01 X45.8474 Y28.0621
G01 X45.9120 Y28.0036
G01 X45.9835 Y27.9505
G01 X46.0648 Y27.9018
G01 X46.1436 Y27.8645
G01 X46.1731 Y27.8537
G01 X46.1731 Y26.3154
G01 X33.6646 Y13.8069
G01 X28.8554 Y13.8069
G01 X13.8069 Y28.8554
G01 X13.8069 Y43.8246
G01 X28.8554 Y58.8731
G01 X30.3937 Y58.8731
G01 X30.4045 Y58.8436
G01 X30.4435 Y58.7615
G01 X30.4894 Y58.6851
G01 X30.5424 Y58.6135
G01 X30.6021 Y58.5474
G01 X30.6074 Y58.5421
G01 X30.6720 Y58.4836
G01 X30.7435 Y58.4305
G01 X30.8198 Y58.3845
G01 X30.8265 Y58.3809
G01 X30.9053 Y58.3437
G01 X30.9910 Y58.3131
G01 X31.0792 Y58.2910
G01 X31.1654 Y58.2781
G01 X31.1729 Y58.2774
G01 X31.2600 Y58.2732
G01 X31.3471 Y58.2774
G01 X31.3546 Y58.2781
G01 X31.4408 Y58.2910
G01 X31.5290 Y58.3131
G01 X31.6147 Y58.3437
G01 X31.6935 Y58.3809
G01 X31.7002 Y58.3845
G01 X31.7765 Y58.4305
G01 X31.8480 Y58.4836
G01 X31.9126 Y58.5421
G01 X31.9179 Y58.5474
G01 X31.9776 Y58.6135
G01 X32.0306 Y58.6851
G01 X32.0765 Y58.7615
G01 X32.1155 Y58.8436
G01 X32.1263 Y58.8731
G01 X58.3337 Y58.8731
G01 X58.3445 Y58.8436
G01 X58.3835 Y58.7615
G01 X58.4294 Y58.6851
G01 X58.4824 Y58.6135
G01 X58.5421 Y58.5474
G01 X58.5474 Y58.5421
G01 X58.6120 Y58.4836
G01 X58.6835 Y58.4305
G01 X58.7598 Y58.3845
G01 X58.7665 Y58.3809
G01 X58.8453 Y58.3437
G01 X58.9310 Y58.3131
G01 X59.0192 Y58.2910
G01 X59.1054 Y58.2781
G01 X59.1129 Y58.2774
G01 X59.2019 Y58.2732
G01 X59.2908 Y58.2777
G01 X59.3771 Y58.2904
G01 X59.3845 Y58.2918
G01 X59.4690 Y58.3131
G01 X59.5512 Y58.3424
G01 X59.5581 Y58.3453
G01 X59.6369 Y58.3826
G01 X59.7117 Y58.4274
G01 X59.7180 Y58.4316
G01 X59.7880 Y58.4836
G01 X59.8526 Y58.5421
G01 X59.8579 Y58.5474
G01 X59.9164 Y58.6120
G01 X59.9684 Y58.6820
G01 X59.9726 Y58.6883
G01 X60.0174 Y58.7631
G01 X60.0547 Y58.8419
G01 X60.0576 Y58.8488
G01 X60.0869 Y58.9310
G01 X60.1090 Y59.0192
G01 X60.1219 Y59.1054
G01 X60.1226 Y59.1129
G01 X60.1268 Y59.2000
G01 X60.1226 Y59.2871
G01 X60.1219 Y59.2946
G01 X60.1090 Y59.3808
G01 X60.0879 Y59.4654
G01 X60.0857 Y59.4726
G01 X60.0563 Y59.5547
G01 X60.0191 Y59.6335
G01 X60.0155 Y59.6402
G01 X59.9706 Y59.7149
G01 X59.9164 Y59.7880
G01 X59.8579 Y59.8526
G01 X59.8526 Y59.8579
G01 X59.7880 Y59.9164
G01 X59.7180 Y59.9684
G01 X59.7117 Y59.9726
G01 X59.6369 Y60.0174
G01 X59.5547 Y60.0563
G01 X59.4726 Y60.0857
G01 X59.4654 Y60.0879
G01 X59.3808 Y60.1090
G01 X59.2946 Y60.1219
G01 X59.2871 Y60.1226
G01 X59.2000 Y60.1268
G01 X59.1129 Y60.1226
G01 X59.1054 Y60.1219
G01 X59.0192 Y60.1090
G01 X58.9310 Y60.0869
G01 X58.8453 Y60.0563
G01 X58.7665 Y60.0191
G01 X58.7598 Y60.0155
G01 X58.6835 Y59.9695
G01 X58.6120 Y59.9164
G01 X58.5474 Y59.8579
G01 X58.5421 Y59.8526
G01 X58.4824 Y59.7865
G01 X58.4294 Y59.7149
G01 X58.3835 Y59.6385
G01 X58.3445 Y59.5564
G01 X58.3337 Y59.5269
G01 X32.1263 Y59.5269
G01 X32.1155 Y59.5564
G01 X32.0765 Y59.6385
G01 X32.0306 Y59.7149
G01 X31.9776 Y59.7865
G01 X31.9179 Y59.8526
G01 X31.9126 Y59.8579
G01 X31.8480 Y59.9164
G01 X31.7765 Y59.9695
G01 X31.7002 Y60.0155
G01 X31.6935 Y60.0191
G01 X31.6147 Y60.0563
G01 X31.5290 Y60.0869
G01 X31.4408 Y60.1090
G01 X31.3546 Y60.1219
G01 X31.3471 Y60.1226
G01 X31.2600 Y60.1268
G01 X31.1729 Y60.1226
G01 X31.1654 Y60.1219
G01 X31.0792 Y60.1090
G01 X30.9910 Y60.0869
G01 X30.9053 Y60.0563
G01 X30.8265 Y60.0191
G01 X30.8198 Y60.0155
G01 X30.7435 Y59.9695
G01 X30.6720 Y59.9164
G01 X30.6074 Y59.8579
G01 X30.6021 Y59.8526
G01 X30.5424 Y59.7865
G01 X30.4894 Y59.7149
G01 X30.4435 Y59.6385
G01 X30.4045 Y59.5564
G01 X30.3937 Y59.5269
G01 X28.7181 Y59.5269
G01 X28.6880 Y59.5254
G01 X28.6599 Y59.5213
G01 X28.6525 Y59.5198
G01 X28.6251 Y59.5128
G01 X28.5984 Y59.5034
G01 X28.5914 Y59.5005
G01 X28.5659 Y59.4883
G01 X28.5384 Y59.4718
G01 X28.5126 Y59.4527
G01 X28.4888 Y59.4312
G01 X13.2488 Y44.1912
G01 X13.2273 Y44.1674
G01 X13.2103 Y44.1447
G01 X13.2062 Y44.1384
G01 X13.1908 Y44.1124
G01 X13.1795 Y44.0886
G01 X13.1766 Y44.0816
G01 X13.1672 Y44.0549
G01 X13.1602 Y44.0275
G01 X13.1587 Y44.0201
G01 X13.1546 Y43.9920
G01 X13.1531 Y43.9600
G01 X13.1532 Y28.7162
G00 Z2.0000
G00 X15.6932 Y28.7162
G01 F60.00
G01 Z-0.1000
G01 F120.00
G01 X15.6946 Y28.6880
G01 X15.6994 Y28.6562
G01 X15.7072 Y28.6251
G01 X15.7180 Y28.5949
G01 X15.7317 Y28.5659
G01 X15.7482 Y28.5384
G01 X15.7673 Y28.5126
G01 X15.7888 Y28.4888
G01 X28.4888 Y15.7888
G01 X28.5126 Y15.7673
G01 X28.5368 Y15.7492
G01 X28.5626 Y15.7335
G01 X28.5693 Y15.7300
G01 X28.5949 Y15.7180
G01 X28.6251 Y15.7072
G01 X28.6525 Y15.7002
G01 X28.6599 Y15.6987
G01 X28.6880 Y15.6946
G01 X28.7200 Y15.6931
G01 X33.8000 Y15.6931
G01 X33.8320 Y15.6946
G01 X33.8601 Y15.6987
G01 X33.8675 Y15.7002
G01 X33.8949 Y15.7072
G01 X33.9216 Y15.7166
G01 X33.9286 Y15.7195
G01 X33.9541 Y15.7317
G01 X33.9800 Y15.7471
G01 X34.0074 Y15.7673
G01 X34.0312 Y15.7888
G01 X44.1912 Y25.9488
G01 X44.2139 Y25.9741
G01 X44.2318 Y25.9984
G01 X44.2465 Y26.0226
G01 X44.2500 Y26.0293
G01 X44.2605 Y26.0514
G01 X44.2634 Y26.0584
G01 X44.2728 Y26.0851
G01 X44.2806 Y26.1162
G01 X44.2854 Y26.1480
G01 X44.2868 Y26.1762
G01 X44.2869 Y27.8537
G01 X44.3164 Y27.8645
G01 X44.3952 Y27.9018
G01 X44.4765 Y27.9505
G01 X44.5450 Y28.0013
G01 X44.5508 Y28.0060
G01 X44.6153 Y28.0647
G01 X44.6752 Y28.1306
G01 X44.7284 Y28.2020
G01 X44.7326 Y28.2083
G01 X44.7774 Y28.2831
G01 X44.8147 Y28.3619
G01 X44.8176 Y28.3688
G01 X44.8469 Y28.4510
G01 X44.8682 Y28.5355
G01 X44.8696 Y28.5429
G01 X44.8823 Y28.6292
G01 X44.8868 Y28.7200
G01 X44.8823 Y28.8108
G01 X44.8690 Y28.9008
G01 X44.8469 Y28.9890
G01 X44.8163 Y29.0747
G01 X44.7774 Y29.1569
G01 X44.7316 Y29.2333
G01 X44.6764 Y29.3080
G01 X44.6179 Y29.3726
G01 X44.6126 Y29.3779
G01 X44.5508 Y29.4340
G01 X44.5450 Y29.4387
G01 X44.4749 Y29.4906
G01 X44.4002 Y29.5355
G01 X44.3935 Y29.5391
G01 X44.3147 Y29.5763
G01 X44.2290 Y29.6069
G01 X44.1408 Y29.6290
G01 X44.0546 Y29.6419
G01 X44.0471 Y29.6426
G01 X43.9600 Y29.6468
G01 X43.8729 Y29.6426
G01 X43.8654 Y29.6419
G01 X43.7829 Y29.6296
G01 X43.7755 Y29.6282
G01 X43.6910 Y29.6069
G01 X43.6053 Y29.5763
G01 X43.5231 Y29.5374
G01 X43.4483 Y29.4926
G01 X43.4420 Y29.4884
G01 X43.3720 Y29.4364
G01 X43.3074 Y29.3779
G01 X43.3021 Y29.3726
G01 X43.2448 Y29.3094
G01 X43.1894 Y29.2349
G01 X43.1426 Y29.1569
G01 X43.1037 Y29.0747
G01 X43.0731 Y28.9890
G01 X43.0510 Y28.9008
G01 X43.0377 Y28.8108
G01 X43.0332 Y28.7200
G01 X43.0379 Y28.6273
G01 X43.0510 Y28.5392
G01 X43.0721 Y28.4546
G01 X43.0743 Y28.4474
G01 X43.1037 Y28.3653
G01 X43.1409 Y28.2865
G01 X43.1445 Y28.2798
G01 X43.1894 Y28.2051
G01 X43.2424 Y28.1335
G01 X43.3021 Y28.0674
G01 X43.3074 Y28.0621
G01 X43.3720 Y28.0036
G01 X43.4435 Y27.9505
G01 X43.5248 Y27.9018
G01 X43.6036 Y27.8645
G01 X43.6331 Y27.8537
G01 X43.6331 Y26.3154
G01 X33.6646 Y16.3469
G01 X28.8554 Y16.3469
G01 X16.3469 Y28.8554
G01 X16.3469 Y43.8246
G01 X28.8554 Y56.3331
G01 X30.3937 Y56.3331
G01 X30.4045 Y56.3036
G01 X30.4435 Y56.2215
G01 X30.4894 Y56.1451
G01 X30.5424 Y56.0735
G01 X30.6021 Y56.0074
G01 X30.6074 Y56.0021
G01 X30.6720 Y55.9436
G01 X30.7435 Y55.8905
G01 X30.8198 Y55.8445
G01 X30.8265 Y55.8409
G01 X30.9053 Y55.8037
G01 X30.9910 Y55.7731
G01 X31.0792 Y55.7510
G01 X31.1654 Y55.7381
G01 X31.1729 Y55.7374
G01 X31.2600 Y55.7332
G01 X31.3471 Y55.7374
G01 X31.3546 Y55.7381
G01 X31.4408 Y55.7510
G01 X31.5290 Y55.7731
G01 X31.6147 Y55.8037
G01 X31.6935 Y55.8409
G01 X31.7002 Y55.8445
G01 X31.7765 Y55.8905
G01 X31.8480 Y55.9436
G01 X31.9126 Y56.0021
G01 X31.9179 Y56.0074
G01 X31.9776 Y56.0735
G01 X32.0306 Y56.1451
G01 X32.0765 Y56.2215
G01 X32.1155 Y56.3036
G01 X32.1263 Y56.3331
G01 X58.3337 Y56.3331
G01 X58.3445 Y56.3036
G01 X58.3835 Y56.2215
G01 X58.4294 Y56.1451
G01 X58.4824 Y56.0735
G01 X58.5421 Y56.0074
G01 X58.5474 Y56.0021
G01 X58.6120 Y55.9436
G01 X58.6835 Y55.8905
G01 X58.7598 Y55.8445
G01 X58.7665 Y55.8409
G01 X58.8453 Y55.8037
G01 X58.9310 Y55.7731
G01 X59.0192 Y55.7510
G01 X59.1054 Y55.7381
G01 X59.1129 Y55.7374
G01 X59.2019 Y55.7332
G01 X59.2908 Y55.7377
G01 X59.3771 Y55.7504
G01 X59.3845 Y55.7518
G01 X59.4690 Y55.7731
G01 X59.5512 Y55.8024
G01 X59.5581 Y55.8053
G01 X59.6369 Y55.8426
G01 X59.7117 Y55.8874
G01 X59.7180 Y55.8916
G01 X59.7880 Y55.9436
G01 X59.8526 Y56.0021
G01 X59.8579 Y56.0074
G01 X59.9164 Y56.0720
G01 X59.9684 Y56.1420
G01 X59.9726 Y56.1483
G01 X60.0174 Y56.2231
G01 X60.0547 Y56.3019
G01 X60.0576 Y56.3088
G01 X60.0869 Y56.3910
G01 X60.1082 Y56.4755
G01 X60.1096 Y56.4829
G01 X60.1223 Y56.5692
G01 X60.1267 Y56.6562
G01 X60.1267 Y56.6638
G01 X60.1223 Y56.7508
G01 X60.1096 Y56.8371
G01 X60.1082 Y56.8445
G01 X60.0869 Y56.9290
G01 X60.0576 Y57.0112
G01 X60.0547 Y57.0181
G01 X60.0174 Y57.0969
G01 X59.9716 Y57.1733
G01 X59.9164 Y57.2480
G01 X59.8579 Y57.3126
G01 X59.8526 Y57.3179
G01 X59.7880 Y57.3764
G01 X59.7180 Y57.4284
G01 X59.7117 Y57.4326
G01 X59.6369 Y57.4774
G01 X59.5547 Y57.5163
G01 X59.4726 Y57.5457
G01 X59.4654 Y57.5479
G01 X59.3808 Y57.5690
G01 X59.2946 Y57.5819
G01 X59.2871 Y57.5826
G01 X59.2000 Y57.5868
G01 X59.1129 Y57.5826
G01 X59.1054 Y57.5819
G01 X59.0192 Y57.5690
G01 X58.9310 Y57.5469
G01 X58.8453 Y57.5163
G01 X58.7665 Y57.4791
G01 X58.7598 Y57.4755
G01 X58.6835 Y57.4295
G01 X58.6120 Y57.3764
G01 X58.5474 Y57.3179
G01 X58.5421 Y57.3126
G01 X58.4824 Y57.2465
G01 X58.4294 Y57.1749
G01 X58.3835 Y57.0985
G01 X58.3445 Y57.0164
G01 X58.3337 Y56.9869
G01 X32.1263 Y56.9869
G01 X32.1155 Y57.0164
G01 X32.0765 Y57.0985
G01 X32.0306 Y57.1749
G01 X31.9776 Y57.2465
G01 X31.9179 Y57.3126
G01 X31.9126 Y57.3179
G01 X31.8480 Y57.3764
G01 X31.7765 Y57.4295
G01 X31.7002 Y57.4755
G01 X31.6935 Y57.4791
G01 X31.6147 Y57.5163
G01 X31.5290 Y57.5469
G01 X31.4408 Y57.5690
G01 X31.3546 Y57.5819
G01 X31.3471 Y57.5826
G01 X31.2600 Y57.5868
G01 X31.1729 Y57.5826
G01 X31.1654 Y57.5819
G01 X31.0792 Y57.5690
G01 X30.9910 Y57.5469
G01 X30.9053 Y57.5163
G01 X30.8265 Y57.4791
G01 X30.8198 Y57.4755
G01 X30.7435 Y57.4295
G01 X30.6720 Y57.3764
G01 X30.6074 Y57.3179
G01 X30.6021 Y57.3126
G01 X30.5424 Y57.2465
G01 X30.4894 Y57.1749
G01 X30.4435 Y57.0985
G01 X30.4045 Y57.0164
G01 X30.3937 Y56.9869
G01 X28.7181 Y56.9869
G01 X28.6880 Y56.9854
G01 X28.6599 Y56.9813
G01 X28.6525 Y56.9798
G01 X28.6251 Y56.9728
G01 X28.5984 Y56.9634
G01 X28.5914 Y56.9605
G01 X28.5659 Y56.9483
G01 X28.5400 Y56.9329
G01 X28.5126 Y56.9127
G01 X28.4888 Y56.8912
G01 X15.7888 Y44.1912
G01 X15.7673 Y44.1674
G01 X15.7482 Y44.1416
G01 X15.7317 Y44.1141
G01 X15.7187 Y44.0868
G01 X15.7072 Y44.0549
G01 X15.6994 Y44.0238
G01 X15.6946 Y43.9920
G01 X15.6931 Y43.9600
G01 X15.6932 Y28.7162
G00 Z2.0000
G00 X18.1081 Y28.7162
G01 F60.00
G01 Z-0.1000
G01 F120.00
G01 X18.1102 Y28.6757
G01 X18.1167 Y28.6318
G01 X18.1275 Y28.5888
G01 X18.1424 Y28.5470
G01 X18.1614 Y28.5069
G01 X18.1842 Y28.4689
G01 X18.2106 Y28.4333
G01 X18.2404 Y28.4004
G01 X28.4004 Y18.2404
G01 X28.4333 Y18.2106
G01 X28.4689 Y18.1842
G01 X28.5069 Y18.1614
G01 X28.5436 Y18.1439
G01 X28.5505 Y18.1411
G01 X28.5888 Y18.1275
G01 X28.6318 Y18.1167
G01 X28.6720 Y18.1107
G01 X28.6795 Y18.1099
G01 X28.7200 Y18.1080
G01 X33.8019 Y18.1080
G01 X33.8443 Y18.1102
G01 X33.8845 Y18.1161
G01 X33.8919 Y18.1175
G01 X33.9312 Y18.1275
G01 X33.9695 Y18.1411
G01 X33.9764 Y18.1439
G01 X34.0131 Y18.1614
G01 X34.0495 Y18.1832
G01 X34.0867 Y18.2106
G01 X34.1196 Y18.2404
G01 X41.7396 Y25.8604
G01 X41.7669 Y25.8904
G01 X41.7717 Y25.8962
G01 X41.7958 Y25.9289
G01 X41.8168 Y25.9637
G01 X41.8203 Y25.9703
G01 X41.8376 Y26.0070
G01 X41.8525 Y26.0488
G01 X41.8625 Y26.0881
G01 X41.8639 Y26.0955
G01 X41.8693 Y26.1320
G01 X41.8701 Y26.1395
G01 X41.8720 Y26.1800
G01 X41.8720 Y27.9116
G01 X41.9349 Y27.9494
G01 X42.0080 Y28.0036
G01 X42.0753 Y28.0647
G01 X42.1364 Y28.1320
G01 X42.1906 Y28.2051
G01 X42.2374 Y28.2831
G01 X42.2763 Y28.3653
G01 X42.3069 Y28.4510
G01 X42.3290 Y28.5392
G01 X42.3423 Y28.6292
G01 X42.3468 Y28.7200
G01 X42.3423 Y28.8108
G01 X42.3290 Y28.9008
G01 X42.3069 Y28.9890
G01 X42.2763 Y29.0747
G01 X42.2391 Y29.1535
G01 X42.2355 Y29.1602
G01 X42.1906 Y29.2349
G01 X42.1387 Y29.3050
G01 X42.1340 Y29.3108
G01 X42.0779 Y29.3726
G01 X42.0726 Y29.3779
G01 X42.0080 Y29.4364
G01 X41.9349 Y29.4906
G01 X41.8569 Y29.5374
G01 X41.7781 Y29.5747
G01 X41.7712 Y29.5776
G01 X41.6890 Y29.6069
G01 X41.6045 Y29.6282
G01 X41.5971 Y29.6296
G01 X41.5108 Y29.6423
G01 X41.4200 Y29.6468
G01 X41.3329 Y29.6426
G01 X41.3254 Y29.6419
G01 X41.2392 Y29.6290
G01 X41.1546 Y29.6079
G01 X41.1474 Y29.6057
G01 X41.0653 Y29.5763
G01 X40.9831 Y29.5374
G01 X40.9083 Y29.4926
G01 X40.9020 Y29.4884
G01 X40.8320 Y29.4364
G01 X40.7674 Y29.3779
G01 X40.7621 Y29.3726
G01 X40.7048 Y29.3094
G01 X40.6494 Y29.2349
G01 X40.6026 Y29.1569
G01 X40.5637 Y29.0747
G01 X40.5331 Y28.9890
G01 X40.5110 Y28.9008
G01 X40.4977 Y28.8108
G01 X40.4932 Y28.7200
G01 X40.4977 Y28.6292
G01 X40.5104 Y28.5429
G01 X40.5118 Y28.5355
G01 X40.5331 Y28.4510
G01 X40.5624 Y28.3688
G01 X40.5653 Y28.3619
G01 X40.6026 Y28.2831
G01 X40.6494 Y28.2051
G01 X40.7036 Y28.1320
G01 X40.7621 Y28.0674
G01 X40.7674 Y28.0621
G01 X40.8292 Y28.0060
G01 X40.8350 Y28.0013
G01 X40.9051 Y27.9494
G01 X40.9680 Y27.9116
G01 X40.9680 Y26.3672
G01 X33.6128 Y19.0120
G01 X28.9072 Y19.0120
G01 X19.0120 Y28.9072
G01 X19.0120 Y43.7728
G01 X28.9072 Y53.6680
G01 X30.4516 Y53.6680
G01 X30.4894 Y53.6051
G01 X30.5413 Y53.5350
G01 X30.5460 Y53.5292
G01 X30.6047 Y53.4647
G01 X30.6692 Y53.4060
G01 X30.6750 Y53.4013
G01 X30.7451 Y53.3494
G01 X30.8198 Y53.3045
G01 X30.8265 Y53.3009
G01 X30.9053 Y53.2637
G01 X30.9874 Y53.2343
G01 X30.9946 Y53.2321
G01 X31.0792 Y53.2110
G01 X31.1654 Y53.1981
G01 X31.1729 Y53.1974
G01 X31.2600 Y53.1932
G01 X31.3471 Y53.1974
G01 X31.3546 Y53.1981
G01 X31.4408 Y53.2110
G01 X31.5254 Y53.2321
G01 X31.5326 Y53.2343
G01 X31.6147 Y53.2637
G01 X31.6935 Y53.3009
G01 X31.7002 Y53.3045
G01 X31.7749 Y53.3494
G01 X31.8450 Y53.4013
G01 X31.8508 Y53.4060
G01 X31.9153 Y53.4647
G01 X31.9740 Y53.5292
G01 X31.9787 Y53.5350
G01 X32.0306 Y53.6051
G01 X32.0684 Y53.6680
G01 X58.3916 Y53.6680
G01 X58.4294 Y53.6051
G01 X58.4813 Y53.5350
G01 X58.4860 Y53.5292
G01 X58.5447 Y53.4647
G01 X58.6092 Y53.4060
G01 X58.6150 Y53.4013
G01 X58.6851 Y53.3494
G01 X58.7598 Y53.3045
G01 X58.7665 Y53.3009
G01 X58.8453 Y53.2637
G01 X58.9274 Y53.2343
G01 X58.9346 Y53.2321
G01 X59.0192 Y53.2110
G01 X59.1054 Y53.1981
G01 X59.1129 Y53.1974
G01 X59.2019 Y53.1932
G01 X59.2908 Y53.1977
G01 X59.3771 Y53.2104
G01 X59.3845 Y53.2118
G01 X59.4690 Y53.2331
G01 X59.5512 Y53.2624
G01 X59.5581 Y53.2653
G01 X59.6369 Y53.3026
G01 X59.7117 Y53.3474
G01 X59.7180 Y53.3516
G01 X59.7880 Y53.4036
G01 X59.8526 Y53.4621
G01 X59.8579 Y53.4674
G01 X59.9164 Y53.5320
G01 X59.9684 Y53.6020
G01 X59.9726 Y53.6083
G01 X60.0174 Y53.6831
G01 X60.0547 Y53.7619
G01 X60.0576 Y53.7688
G01 X60.0869 Y53.8510
G01 X60.1082 Y53.9355
G01 X60.1096 Y53.9429
G01 X60.1223 Y54.0292
G01 X60.1267 Y54.1162
G01 X60.1267 Y54.1238
G01 X60.1223 Y54.2108
G01 X60.1096 Y54.2971
G01 X60.1082 Y54.3045
G01 X60.0869 Y54.3890
G01 X60.0576 Y54.4712
G01 X60.0547 Y54.4781
G01 X60.0174 Y54.5569
G01 X59.9716 Y54.6333
G01 X59.9164 Y54.7080
G01 X59.8579 Y54.7726
G01 X59.8526 Y54.7779
G01 X59.7880 Y54.8364
G01 X59.7180 Y54.8884
G01 X59.7117 Y54.8926
G01 X59.6369 Y54.9374
G01 X59.5547 Y54.9763
G01 X59.4726 Y55.0057
G01 X59.4654 Y55.0079
G01 X59.3808 Y55.0290
G01 X59.2946 Y55.0419
G01 X59.2871 Y55.0426
G01 X59.2000 Y55.0468
G01 X59.1129 Y55.0426
G01 X59.1054 Y55.0419
G01 X59.0192 Y55.0290
G01 X58.9346 Y55.0079
G01 X58.9274 Y55.0057
G01 X58.8453 Y54.9763
G01 X58.7665 Y54.9391
G01 X58.7598 Y54.9355
G01 X58.6851 Y54.8906
G01 X58.6150 Y54.8387
G01 X58.6092 Y54.8340
G01 X58.5447 Y54.7753
G01 X58.4860 Y54.7108
G01 X58.4813 Y54.7050
G01 X58.4294 Y54.6349
G01 X58.3916 Y54.5720
G01 X32.0684 Y54.5720
G01 X32.0306 Y54.6349
G01 X31.9787 Y54.7050
G01 X31.9740 Y54.7108
G01 X31.9153 Y54.7753
G01 X31.8508 Y54.8340
G01 X31.8450 Y54.8387
G01 X31.7749 Y54.8906
G01 X31.7002 Y54.9355
G01 X31.6935 Y54.9391
G01 X31.6147 Y54.9763
G01 X31.5326 Y55.0057
G01 X31.5254 Y55.0079
G01 X31.4408 Y55.0290
G01 X31.3546 Y55.0419
G01 X31.3471 Y55.0426
G01 X31.2600 Y55.0468
G01 X31.1729 Y55.0426
G01 X31.1654 Y55.0419
G01 X31.0792 Y55.0290
G01 X30.9946 Y55.0079
G01 X30.9874 Y55.0057
G01 X30.9053 Y54.9763
G01 X30.8265 Y54.9391
G01 X30.8198 Y54.9355
G01 X30.7451 Y54.8906
G01 X30.6750 Y54.8387
G01 X30.6692 Y54.8340
G01 X30.6047 Y54.7753
G01 X30.5460 Y54.7108
G01 X30.5413 Y54.7050
G01 X30.4894 Y54.6349
G01 X30.4516 Y54.5720
G01 X28.7162 Y54.5719
G01 X28.6757 Y54.5698
G01 X28.6355 Y54.5639
G01 X28.6281 Y54.5625
G01 X28.5888 Y54.5525
G01 X28.5505 Y54.5389
G01 X28.5436 Y54.5361
G01 X28.5069 Y54.5186
G01 X28.4705 Y54.4968
G01 X28.4333 Y54.4694
G01 X28.4004 Y54.4396
G01 X18.2404 Y44.2796
G01 X18.2106 Y44.2467
G01 X18.1842 Y44.2111
G01 X18.1614 Y44.1731
G01 X18.1424 Y44.1330
G01 X18.1275 Y44.0912
G01 X18.1167 Y44.0482
G01 X18.1102 Y44.0043
G01 X18.1080 Y43.9600
G01 X18.1081 Y28.7162
G00 Z2.0000
G00 X20.6481 Y28.7162
G01 F60.00
G01 Z-0.1000
G01 F120.00
G01 X20.6502 Y28.6757
G01 X20.6567 Y28.6318
G01 X20.6675 Y28.5888
G01 X20.6824 Y28.5470
G01 X20.7014 Y28.5069
G01 X20.7242 Y28.4689
G01 X20.7506 Y28.4333
G01 X20.7804 Y28.4004
G01 X28.4004 Y20.7804
G01 X28.4333 Y20.7506
G01 X28.4658 Y20.7264
G01 X28.4721 Y20.7222
G01 X28.5037 Y20.7032
G01 X28.5103 Y20.6997
G01 X28.5470 Y20.6824
G01 X28.5888 Y20.6675
G01 X28.6318 Y20.6567
G01 X28.6720 Y20.6507
G01 X28.6795 Y20.6499
G01 X28.7200 Y20.6480
G01 X33.8000 Y20.6480
G01 X33.8443 Y20.6502
G01 X33.8845 Y20.6561
G01 X33.8919 Y20.6575
G01 X33.9312 Y20.6675
G01 X33.9695 Y20.6811
G01 X33.9764 Y20.6839
G01 X34.0114 Y20.7005
G01 X34.0479 Y20.7222
G01 X34.0542 Y20.7264
G01 X34.0867 Y20.7506
G01 X34.1196 Y20.7804
G01 X39.1996 Y25.8604
G01 X39.2294 Y25.8933
G01 X39.2558 Y25.9289
G01 X39.2786 Y25.9669
G01 X39.2961 Y26.0036
G01 X39.2989 Y26.0105
G01 X39.3125 Y26.0488
G01 X39.3233 Y26.0918
G01 X39.3298 Y26.1357
G01 X39.3320 Y26.1781
G01 X39.3320 Y27.9116
G01 X39.3949 Y27.9494
G01 X39.4680 Y28.0036
G01 X39.5353 Y28.0647
G01 X39.5940 Y28.1292
G01 X39.5987 Y28.1350
G01 X39.6484 Y28.2020
G01 X39.6526 Y28.2083
G01 X39.6974 Y28.2831
G01 X39.7347 Y28.3619
G01 X39.7376 Y28.3688
G01 X39.7657 Y28.4474
G01 X39.7679 Y28.4546
G01 X39.7890 Y28.5392
G01 X39.8023 Y28.6292
G01 X39.8067 Y28.7162
G01 X39.8067 Y28.7238
G01 X39.8023 Y28.8108
G01 X39.7893 Y28.8990
G01 X39.7669 Y28.9890
G01 X39.7363 Y29.0747
G01 X39.6974 Y29.1569
G01 X39.6506 Y29.2349
G01 X39.5964 Y29.3080
G01 X39.5353 Y29.3753
G01 X39.4680 Y29.4364
G01 X39.3949 Y29.4906
G01 X39.3169 Y29.5374
G01 X39.2347 Y29.5763
G01 X39.1490 Y29.6069
G01 X39.0608 Y29.6290
G01 X38.9708 Y29.6423
G01 X38.8800 Y29.6468
G01 X38.7892 Y29.6423
G01 X38.7010 Y29.6293
G01 X38.6110 Y29.6069
G01 X38.5288 Y29.5776
G01 X38.5219 Y29.5747
G01 X38.4465 Y29.5391
G01 X38.4398 Y29.5355
G01 X38.3651 Y29.4906
G01 X38.2920 Y29.4364
G01 X38.2247 Y29.3753
G01 X38.1660 Y29.3108
G01 X38.1613 Y29.3050
G01 X38.1116 Y29.2380
G01 X38.1074 Y29.2317
G01 X38.0626 Y29.1569
G01 X38.0237 Y29.0747
G01 X37.9931 Y28.9890
G01 X37.9718 Y28.9045
G01 X37.9704 Y28.8971
G01 X37.9575 Y28.8090
G01 X37.9532 Y28.7200
G01 X37.9574 Y28.6329
G01 X37.9581 Y28.6254
G01 X37.9710 Y28.5392
G01 X37.9931 Y28.4510
G01 X38.0224 Y28.3688
G01 X38.0253 Y28.3619
G01 X38.0626 Y28.2831
G01 X38.1094 Y28.2051
G01 X38.1613 Y28.1350
G01 X38.1660 Y28.1292
G01 X38.2247 Y28.0647
G01 X38.2892 Y28.0060
G01 X38.2950 Y28.0013
G01 X38.3651 Y27.9494
G01 X38.4280 Y27.9116
G01 X38.4280 Y26.3672
G01 X33.6128 Y21.5520
G01 X28.9072 Y21.5520
G01 X21.5520 Y28.9072
G01 X21.5520 Y43.7728
G01 X28.9072 Y51.1280
G01 X30.4516 Y51.1280
G01 X30.4894 Y51.0651
G01 X30.5413 Y50.9950
G01 X30.5460 Y50.9892
G01 X30.6047 Y50.9247
G01 X30.6692 Y50.8660
G01 X30.6750 Y50.8613
G01 X30.7451 Y50.8094
G01 X30.8198 Y50.7645
G01 X30.8265 Y50.7609
G01 X30.9053 Y50.7237
G01 X30.9874 Y50.6943
G01 X30.9946 Y50.6921
G01 X31.0792 Y50.6710
G01 X31.1654 Y50.6581
G01 X31.1729 Y50.6574
G01 X31.2600 Y50.6532
G01 X31.3471 Y50.6574
G01 X31.3546 Y50.6581
G01 X31.4408 Y50.6710
G01 X31.5254 Y50.6921
G01 X31.5326 Y50.6943
G01 X31.6147 Y50.7237
G01 X31.6935 Y50.7609
G01 X31.7002 Y50.7645
G01 X31.7749 Y50.8094
G01 X31.8450 Y50.8613
G01 X31.8508 Y50.8660
G01 X31.9153 Y50.9247
G01 X31.9740 Y50.9892
G01 X31.9787 Y50.9950
G01 X32.0306 Y51.0651
G01 X32.0684 Y51.1280
G01 X58.3916 Y51.1280
G01 X58.4294 Y51.0651
G01 X58.4813 Y50.9950
G01 X58.4860 Y50.9892
G01 X58.5447 Y50.9247
G01 X58.6092 Y50.8660
G01 X58.6150 Y50.8613
G01 X58.6851 Y50.8094
G01 X58.7598 Y50.7645
G01 X58.7665 Y50.7609
G01 X58.8453 Y50.7237
G01 X58.9274 Y50.6943
G01 X58.9346 Y50.6921
G01 X59.0192 Y50.6710
G01 X59.1054 Y50.6581
G01 X59.1129 Y50.6574
G01 X59.2019 Y50.6532
G01 X59.2871 Y50.6574
G01 X59.2946 Y50.6581
G01 X59.3808 Y50.6710
G01 X59.4654 Y50.6921
G01 X59.4726 Y50.6943
G01 X59.5547 Y50.7237
G01 X59.6335 Y50.7609
G01 X59.6402 Y50.7645
G01 X59.7149 Y50.8094
G01 X59.7850 Y50.8613
G01 X59.7908 Y50.8660
G01 X59.8553 Y50.9247
G01 X59.9140 Y50.9892
G01 X59.9187 Y50.9950
G01 X59.9706 Y51.0651
G01 X60.0155 Y51.1398
G01 X60.0191 Y51.1465
G01 X60.0563 Y51.2253
G01 X60.0857 Y51.3074
G01 X60.0879 Y51.3146
G01 X60.1090 Y51.3992
G01 X60.1219 Y51.4854
G01 X60.1226 Y51.4929
G01 X60.1268 Y51.5800
G01 X60.1226 Y51.6671
G01 X60.1219 Y51.6746
G01 X60.1090 Y51.7608
G01 X60.0879 Y51.8454
G01 X60.0857 Y51.8526
G01 X60.0563 Y51.9347
G01 X60.0191 Y52.0135
G01 X60.0155 Y52.0202
G01 X59.9706 Y52.0949
G01 X59.9187 Y52.1650
G01 X59.9140 Y52.1708
G01 X59.8553 Y52.2353
G01 X59.7908 Y52.2940
G01 X59.7850 Y52.2987
G01 X59.7149 Y52.3506
G01 X59.6402 Y52.3955
G01 X59.6335 Y52.3991
G01 X59.5547 Y52.4363
G01 X59.4726 Y52.4657
G01 X59.4654 Y52.4679
G01 X59.3808 Y52.4890
G01 X59.2946 Y52.5019
G01 X59.2871 Y52.5026
G01 X59.2019 Y52.5068
G01 X59.1129 Y52.5026
G01 X59.1054 Y52.5019
G01 X59.0192 Y52.4890
G01 X58.9346 Y52.4679
G01 X58.9274 Y52.4657
G01 X58.8453 Y52.4363
G01 X58.7665 Y52.3991
G01 X58.7598 Y52.3955
G01 X58.6851 Y52.3506
G01 X58.6150 Y52.2987
G01 X58.6092 Y52.2940
G01 X58.5447 Y52.2353
G01 X58.4860 Y52.1708
G01 X58.4813 Y52.1650
G01 X58.4294 Y52.0949
G01 X58.3916 Y52.0320
G01 X32.0684 Y52.0320
G01 X32.0306 Y52.0949
G01 X31.9787 Y52.1650
G01 X31.9740 Y52.1708
G01 X31.9153 Y52.2353
G01 X31.8508 Y52.2940
G01 X31.8450 Y52.2987
G01 X31.7749 Y52.3506
G01 X31.7002 Y52.3955
G01 X31.6935 Y52.3991
G01 X31.6147 Y52.4363
G01 X31.5326 Y52.4657
G01 X31.5254 Y52.4679
G01 X31.4408 Y52.4890
G01 X31.3546 Y52.5019
G01 X31.3471 Y52.5026
G01 X31.2600 Y52.5068
G01 X31.1729 Y52.5026
G01 X31.1654 Y52.5019
G01 X31.0792 Y52.4890
G01 X30.9946 Y52.4679
G01 X30.9874 Y52.4657
G01 X30.9053 Y52.4363
G01 X30.8265 Y52.3991
G01 X30.8198 Y52.3955
G01 X30.7451 Y52.3506
G01 X30.6750 Y52.2987
G01 X30.6692 Y52.2940
G01 X30.6047 Y52.2353
G01 X30.5460 Y52.1708
G01 X30.5413 Y52.1650
G01 X30.4894 Y52.0949
G01 X30.4516 Y52.0320
G01 X28.7181 Y52.0320
G01 X28.6795 Y52.0301
G01 X28.6720 Y52.0293
G01 X28.6318 Y52.0233
G01 X28.5924 Y52.0135
G01 X28.5852 Y52.0113
G01 X28.5470 Y51.9976
G01 X28.5103 Y51.9803
G01 X28.5037 Y51.9768
G01 X28.4689 Y51.9558
G01 X28.4362 Y51.9317
G01 X28.4304 Y51.9269
G01 X28.4004 Y51.8996
G01 X20.7804 Y44.2796
G01 X20.7506 Y44.2467
G01 X20.7264 Y44.2142
G01 X20.7222 Y44.2079
G01 X20.7014 Y44.1731
G01 X20.6839 Y44.1364
G01 X20.6811 Y44.1295
G01 X20.6680 Y44.0930
G01 X20.6575 Y44.0519
G01 X20.6561 Y44.0445
G01 X20.6502 Y44.0043
G01 X20.6480 Y43.9600
G01 X20.6481 Y28.7162
G00 Z2.0000
G00 X23.1881 Y28.7162
G01 F60.00
G01 Z-0.1000
G01 F120.00
G01 X23.1902 Y28.6757
G01 X23.1967 Y28.6318
G01 X23.2075 Y28.5888
G01 X23.2224 Y28.5470
G01 X23.2414 Y28.5069
G01 X23.2642 Y28.4689
G01 X23.2906 Y28.4333
G01 X23.3204 Y28.4004
G01 X28.4004 Y23.3204
G01 X28.4304 Y23.2931
G01 X28.4362 Y23.2883
G01 X28.4689 Y23.2642
G01 X28.5069 Y23.2414
G01 X28.5436 Y23.2239
G01 X28.5505 Y23.2211
G01 X28.5888 Y23.2075
G01 X28.6318 Y23.1967
G01 X28.6757 Y23.1902
G01 X28.7200 Y23.1880
G01 X33.8000 Y23.1880
G01 X33.8443 Y23.1902
G01 X33.8845 Y23.1961
G01 X33.8919 Y23.1975
G01 X33.9276 Y23.2065
G01 X33.9348 Y23.2087
G01 X33.9695 Y23.2211
G01 X33.9764 Y23.2239
G01 X34.0131 Y23.2414
G01 X34.0479 Y23.2622
G01 X34.0542 Y23.2664
G01 X34.0867 Y23.2906
G01 X34.1183 Y23.3191
G01 X36.6596 Y25.8604
G01 X36.6869 Y25.8904
G01 X36.6917 Y25.8962
G01 X36.7158 Y25.9289
G01 X36.7368 Y25.9637
G01 X36.7403 Y25.9703
G01 X36.7576 Y26.0070
G01 X36.7731 Y26.0506
G01 X36.7833 Y26.0918
G01 X36.7893 Y26.1320
G01 X36.7901 Y26.1395
G01 X36.7920 Y26.1800
G01 X36.7920 Y27.9116
G01 X36.8549 Y27.9494
G01 X36.9280 Y28.0036
G01 X36.9953 Y28.0647
G01 X37.0540 Y28.1292
G01 X37.0587 Y28.1350
G01 X37.1084 Y28.2020
G01 X37.1126 Y28.2083
G01 X37.1574 Y28.2831
G01 X37.1947 Y28.3619
G01 X37.1976 Y28.3688
G01 X37.2257 Y28.4474
G01 X37.2279 Y28.4546
G01 X37.2490 Y28.5392
G01 X37.2623 Y28.6292
G01 X37.2667 Y28.7162
G01 X37.2667 Y28.7238
G01 X37.2623 Y28.8108
G01 X37.2493 Y28.8990
G01 X37.2269 Y28.9890
G01 X37.1963 Y29.0747
G01 X37.1574 Y29.1569
G01 X37.1106 Y29.2349
G01 X37.0564 Y29.3080
G01 X36.9953 Y29.3753
G01 X36.9280 Y29.4364
G01 X36.8549 Y29.4906
G01 X36.7769 Y29.5374
G01 X36.6947 Y29.5763
G01 X36.6090 Y29.6069
G01 X36.5208 Y29.6290
G01 X36.4308 Y29.6423
G01 X36.3400 Y29.6468
G01 X36.2492 Y29.6423
G01 X36.1610 Y29.6293
G01 X36.0710 Y29.6069
G01 X35.9888 Y29.5776
G01 X35.9819 Y29.5747
G01 X35.9065 Y29.5391
G01 X35.8998 Y29.5355
G01 X35.8251 Y29.4906
G01 X35.7520 Y29.4364
G01 X35.6847 Y29.3753
G01 X35.6260 Y29.3108
G01 X35.6213 Y29.3050
G01 X35.5716 Y29.2380
G01 X35.5674 Y29.2317
G01 X35.5226 Y29.1569
G01 X35.4837 Y29.0747
G01 X35.4531 Y28.9890
G01 X35.4318 Y28.9045
G01 X35.4304 Y28.8971
G01 X35.4175 Y28.8090
G01 X35.4132 Y28.7200
G01 X35.4174 Y28.6329
G01 X35.4181 Y28.6254
G01 X35.4310 Y28.5392
G01 X35.4531 Y28.4510
G01 X35.4824 Y28.3688
G01 X35.4853 Y28.3619
G01 X35.5226 Y28.2831
G01 X35.5694 Y28.2051
G01 X35.6213 Y28.1350
G01 X35.6260 Y28.1292
G01 X35.6847 Y28.0647
G01 X35.7492 Y28.0060
G01 X35.7550 Y28.0013
G01 X35.8251 Y27.9494
G01 X35.8880 Y27.9116
G01 X35.8880 Y26.3672
G01 X33.6128 Y24.0920
G01 X28.9072 Y24.0920
G01 X24.0920 Y28.9072
G01 X24.0920 Y43.7728
G01 X28.9072 Y48.5880
G01 X30.4516 Y48.5880
G01 X30.4894 Y48.5251
G01 X30.5413 Y48.4550
G01 X30.5460 Y48.4492
G01 X30.6047 Y48.3847
G01 X30.6692 Y48.3260
G01 X30.6750 Y48.3213
G01 X30.7451 Y48.2694
G01 X30.8198 Y48.2245
G01 X30.8265 Y48.2209
G01 X30.9053 Y48.1837
G01 X30.9874 Y48.1543
G01 X30.9946 Y48.1521
G01 X31.0792 Y48.1310
G01 X31.1654 Y48.1181
G01 X31.1729 Y48.1174
G01 X31.2600 Y48.1132
G01 X31.3471 Y48.1174
G01 X31.3546 Y48.1181
G01 X31.4408 Y48.1310
G01 X31.5254 Y48.1521
G01 X31.5326 Y48.1543
G01 X31.6147 Y48.1837
G01 X31.6935 Y48.2209
G01 X31.7002 Y48.2245
G01 X31.7749 Y48.2694
G01 X31.8450 Y48.3213
G01 X31.8508 Y48.3260
G01 X31.9153 Y48.3847
G01 X31.9740 Y48.4492
G01 X31.9787 Y48.4550
G01 X32.0306 Y48.5251
G01 X32.0684 Y48.5880
G01 X58.3916 Y48.5880
G01 X58.4294 Y48.5251
G01 X58.4813 Y48.4550
G01 X58.4860 Y48.4492
G01 X58.5447 Y48.3847
G01 X58.6092 Y48.3260
G01 X58.6150 Y48.3213
G01 X58.6851 Y48.2694
G01 X58.7598 Y48.2245
G01 X58.7665 Y48.2209
G01 X58.8453 Y48.1837
G01 X58.9274 Y48.1543
G01 X58.9346 Y48.1521
G01 X59.0192 Y48.1310
G01 X59.1054 Y48.1181
G01 X59.1129 Y48.1174
G01 X59.2019 Y48.1132
G01 X59.2871 Y48.1174
G01 X59.2946 Y48.1181
G01 X59.3808 Y48.1310
G01 X59.4654 Y48.1521
G01 X59.4726 Y48.1543
G01 X59.5547 Y48.1837
G01 X59.6335 Y48.2209
G01 X59.6402 Y48.2245
G01 X59.7149 Y48.2694
G01 X59.7850 Y48.3213
G01 X59.7908 Y48.3260
G01 X59.8553 Y48.3847
G01 X59.9140 Y48.4492
G01 X59.9187 Y48.4550
G01 X59.9706 Y48.5251
G01 X60.0155 Y48.5998
G01 X60.0191 Y48.6065
G01 X60.0563 Y48.6853
G01 X60.0857 Y48.7674
G01 X60.0879 Y48.7746
G01 X60.1090 Y48.8592
G01 X60.1219 Y48.9454
G01 X60.1226 Y48.9529
G01 X60.1268 Y49.0400
G01 X60.1226 Y49.1271
G01 X60.1219 Y49.1346
G01 X60.1090 Y49.2208
G01 X60.0879 Y49.3054
G01 X60.0857 Y49.3126
G01 X60.0563 Y49.3947
G01 X60.0165 Y49.4785
G01 X59.9706 Y49.5549
G01 X59.9187 Y49.6250
G01 X59.9140 Y49.6308
G01 X59.8553 Y49.6953
G01 X59.7908 Y49.7540
G01 X59.7850 Y49.7587
G01 X59.7149 Y49.8106
G01 X59.6402 Y49.8555
G01 X59.6335 Y49.8591
G01 X59.5547 Y49.8963
G01 X59.4726 Y49.9257
G01 X59.4654 Y49.9279
G01 X59.3808 Y49.9490
G01 X59.2946 Y49.9619
G01 X59.2871 Y49.9626
G01 X59.2019 Y49.9668
G01 X59.1129 Y49.9626
G01 X59.1054 Y49.9619
G01 X59.0192 Y49.9490
G01 X58.9346 Y49.9279
G01 X58.9274 Y49.9257
G01 X58.8453 Y49.8963
G01 X58.7665 Y49.8591
G01 X58.7598 Y49.8555
G01 X58.6851 Y49.8106
G01 X58.6150 Y49.7587
G01 X58.6092 Y49.7540
G01 X58.5447 Y49.6953
G01 X58.4860 Y49.6308
G01 X58.4813 Y49.6250
G01 X58.4294 Y49.5549
G01 X58.3916 Y49.4920
G01 X32.0684 Y49.4920
G01 X32.0306 Y49.5549
G01 X31.9787 Y49.6250
G01 X31.9740 Y49.6308
G01 X31.9153 Y49.6953
G01 X31.8508 Y49.7540
G01 X31.8450 Y49.7587
G01 X31.7749 Y49.8106
G01 X31.7002 Y49.8555
G01 X31.6935 Y49.8591
G01 X31.6147 Y49.8963
G01 X31.5326 Y49.9257
G01 X31.5254 Y49.9279
G01 X31.4408 Y49.9490
G01 X31.3546 Y49.9619
G01 X31.3471 Y49.9626
G01 X31.2600 Y49.9668
G01 X31.1729 Y49.9626
G01 X31.1654 Y49.9619
G01 X31.0792 Y49.9490
G01 X30.9946 Y49.9279
G01 X30.9874 Y49.9257
G01 X30.9053 Y49.8963
G01 X30.8265 Y49.8591
G01 X30.8198 Y49.8555
G01 X30.7451 Y49.8106
G01 X30.6750 Y49.7587
G01 X30.6692 Y49.7540
G01 X30.6047 Y49.6953
G01 X30.5460 Y49.6308
G01 X30.5413 Y49.6250
G01 X30.4894 Y49.5549
G01 X30.4516 Y49.4920
G01 X28.7181 Y49.4920
G01 X28.6795 Y49.4901
G01 X28.6720 Y49.4893
G01 X28.6318 Y49.4833
G01 X28.5924 Y49.4735
G01 X28.5852 Y49.4713
G01 X28.5470 Y49.4576
G01 X28.5053 Y49.4377
G01 X28.4689 Y49.4158
G01 X28.4362 Y49.3917
G01 X28.4304 Y49.3869
G01 X28.4004 Y49.3596
G01 X23.3204 Y44.2796
G01 X23.2931 Y44.2496
G01 X23.2883 Y44.2438
G01 X23.2642 Y44.2111
G01 X23.2432 Y44.1763
G01 X23.2397 Y44.1697
G01 X23.2224 Y44.1330
G01 X23.2087 Y44.0948
G01 X23.2065 Y44.0876
G01 X23.1967 Y44.0482
G01 X23.1907 Y44.0080
G01 X23.1899 Y44.0005
G01 X23.1880 Y43.9600
G01 X23.1881 Y28.7162
G00 Z2.0000
G00 X25.6030 Y31.2562
G01 F60.00
G01 Z-0.1000
G01 F120.00
G01 X25.6057 Y31.2034
G01 X25.6140 Y31.1474
G01 X25.6278 Y31.0925
G01 X25.6469 Y31.0392
G01 X25.6711 Y30.9880
G01 X25.7002 Y30.9394
G01 X25.7339 Y30.8939
G01 X25.7706 Y30.8533
G01 X28.3133 Y28.3106
G01 X28.3511 Y28.2764
G01 X28.3569 Y28.2716
G01 X28.3994 Y28.2402
G01 X28.4447 Y28.2129
G01 X28.4513 Y28.2094
G01 X28.4992 Y28.1869
G01 X28.5525 Y28.1678
G01 X28.6074 Y28.1540
G01 X28.6597 Y28.1462
G01 X28.6672 Y28.1455
G01 X28.7200 Y28.1429
G01 X33.0754 Y28.1429
G01 X33.0860 Y28.1292
G01 X33.1447 Y28.0647
G01 X33.2120 Y28.0036
G01 X33.2851 Y27.9494
G01 X33.3598 Y27.9045
G01 X33.3665 Y27.9009
G01 X33.4419 Y27.8653
G01 X33.4488 Y27.8624
G01 X33.5310 Y27.8331
G01 X33.6155 Y27.8118
G01 X33.6229 Y27.8104
G01 X33.7092 Y27.7977
G01 X33.7962 Y27.7933
G01 X33.8038 Y27.7933
G01 X33.8908 Y27.7977
G01 X33.9808 Y27.8110
G01 X34.0690 Y27.8331
G01 X34.1512 Y27.8624
G01 X34.1581 Y27.8653
G01 X34.2335 Y27.9009
G01 X34.2402 Y27.9045
G01 X34.3149 Y27.9494
G01 X34.3850 Y28.0013
G01 X34.3908 Y28.0060
G01 X34.4526 Y28.0621
G01 X34.4579 Y28.0674
G01 X34.5164 Y28.1320
G01 X34.5706 Y28.2051
G01 X34.6174 Y28.2831
G01 X34.6547 Y28.3619
G01 X34.6576 Y28.3688
G01 X34.6869 Y28.4510
G01 X34.7090 Y28.5392
G01 X34.7223 Y28.6292
G01 X34.7268 Y28.7200
G01 X34.7226 Y28.8071
G01 X34.7219 Y28.8146
G01 X34.7096 Y28.8971
G01 X34.7082 Y28.9045
G01 X34.6869 Y28.9890
G01 X34.6576 Y29.0712
G01 X34.6547 Y29.0781
G01 X34.6174 Y29.1569
G01 X34.5706 Y29.2349
G01 X34.5164 Y29.3080
G01 X34.4553 Y29.3753
G01 X34.3880 Y29.4364
G01 X34.3180 Y29.4884
G01 X34.3117 Y29.4926
G01 X34.2369 Y29.5374
G01 X34.1581 Y29.5747
G01 X34.1512 Y29.5776
G01 X34.0726 Y29.6057
G01 X34.0654 Y29.6079
G01 X33.9808 Y29.6290
G01 X33.8946 Y29.6419
G01 X33.8871 Y29.6426
G01 X33.8000 Y29.6468
G01 X33.7129 Y29.6426
G01 X33.7054 Y29.6419
G01 X33.6192 Y29.6290
G01 X33.5346 Y29.6079
G01 X33.5274 Y29.6057
G01 X33.4453 Y29.5763
G01 X33.3665 Y29.5391
G01 X33.3598 Y29.5355
G01 X33.2851 Y29.4906
G01 X33.2150 Y29.4387
G01 X33.2092 Y29.4340
G01 X33.1447 Y29.3753
G01 X33.0860 Y29.3108
G01 X33.0754 Y29.2971
G01 X28.9590 Y29.2971
G01 X26.7571 Y31.4990
G01 X26.7571 Y43.7210
G01 X28.9590 Y45.9229
G01 X30.5354 Y45.9229
G01 X30.5460 Y45.9092
G01 X30.6047 Y45.8447
G01 X30.6720 Y45.7836
G01 X30.7451 Y45.7294
G01 X30.8198 Y45.6845
G01 X30.8265 Y45.6809
G01 X30.9019 Y45.6453
G01 X30.9088 Y45.6424
G01 X30.9910 Y45.6131
G01 X31.0755 Y45.5918
G01 X31.0829 Y45.5904
G01 X31.1692 Y45.5777
G01 X31.2600 Y45.5732
G01 X31.3508 Y45.5777
G01 X31.4371 Y45.5904
G01 X31.4445 Y45.5918
G01 X31.5290 Y45.6131
G01 X31.6112 Y45.6424
G01 X31.6181 Y45.6453
G01 X31.6952 Y45.6818
G01 X31.7749 Y45.7294
G01 X31.8494 Y45.7848
G01 X31.9167 Y45.8460
G01 X31.9752 Y45.9106
G01 X32.0035 Y45.9483
G01 X58.4565 Y45.9483
G01 X58.4848 Y45.9106
G01 X58.5433 Y45.8460
G01 X58.6106 Y45.7848
G01 X58.6851 Y45.7294
G01 X58.7648 Y45.6818
G01 X58.8419 Y45.6453
G01 X58.8488 Y45.6424
G01 X58.9310 Y45.6131
G01 X59.0155 Y45.5918
G01 X59.0229 Y45.5904
G01 X59.1092 Y45.5777
G01 X59.2019 Y45.5732
G01 X59.2871 Y45.5774
G01 X59.2946 Y45.5781
G01 X59.3808 Y45.5910
G01 X59.4654 Y45.6121
G01 X59.4726 Y45.6143
G01 X59.5547 Y45.6437
G01 X59.6369 Y45.6826
G01 X59.7117 Y45.7274
G01 X59.7180 Y45.7316
G01 X59.7880 Y45.7836
G01 X59.8526 Y45.8421
G01 X59.8579 Y45.8474
G01 X59.9164 Y45.9120
G01 X59.9706 Y45.9851
G01 X60.0174 Y46.0631
G01 X60.0547 Y46.1419
G01 X60.0576 Y46.1488
G01 X60.0869 Y46.2310
G01 X60.1082 Y46.3155
G01 X60.1096 Y46.3229
G01 X60.1223 Y46.4092
G01 X60.1267 Y46.4962
G01 X60.1267 Y46.5038
G01 X60.1223 Y46.5908
G01 X60.1096 Y46.6771
G01 X60.1082 Y46.6845
G01 X60.0869 Y46.7690
G01 X60.0555 Y46.8564
G01 X60.0174 Y46.9369
G01 X59.9726 Y47.0117
G01 X59.9684 Y47.0180
G01 X59.9164 Y47.0880
G01 X59.8553 Y47.1553
G01 X59.7908 Y47.2140
G01 X59.7850 Y47.2187
G01 X59.7149 Y47.2706
G01 X59.6369 Y47.3174
G01 X59.5581 Y47.3547
G01 X59.5512 Y47.3576
G01 X59.4690 Y47.3869
G01 X59.3808 Y47.4090
G01 X59.2946 Y47.4219
G01 X59.2871 Y47.4226
G01 X59.2000 Y47.4268
G01 X59.1092 Y47.4223
G01 X59.0192 Y47.4090
G01 X58.9310 Y47.3869
G01 X58.8488 Y47.3576
G01 X58.8419 Y47.3547
G01 X58.7631 Y47.3174
G01 X58.6883 Y47.2726
G01 X58.6820 Y47.2684
G01 X58.6150 Y47.2187
G01 X58.6092 Y47.2140
G01 X58.5447 Y47.1553
G01 X58.4966 Y47.1025
G01 X31.9634 Y47.1025
G01 X31.9153 Y47.1553
G01 X31.8508 Y47.2140
G01 X31.8450 Y47.2187
G01 X31.7780 Y47.2684
G01 X31.7717 Y47.2726
G01 X31.6969 Y47.3174
G01 X31.6181 Y47.3547
G01 X31.6112 Y47.3576
G01 X31.5290 Y47.3869
G01 X31.4408 Y47.4090
G01 X31.3508 Y47.4223
G01 X31.2581 Y47.4268
G01 X31.1692 Y47.4223
G01 X31.0829 Y47.4096
G01 X31.0755 Y47.4082
G01 X30.9910 Y47.3869
G01 X30.9088 Y47.3576
G01 X30.9019 Y47.3547
G01 X30.8265 Y47.3191
G01 X30.8198 Y47.3155
G01 X30.7451 Y47.2706
G01 X30.6720 Y47.2164
G01 X30.6047 Y47.1553
G01 X30.5460 Y47.0908
G01 X30.5354 Y47.0771
G01 X28.7181 Y47.0770
G01 X28.6634 Y47.0743
G01 X28.6074 Y47.0660
G01 X28.5525 Y47.0522
G01 X28.4974 Y47.0324
G01 X28.4480 Y47.0089
G01 X28.3994 Y46.9798
G01 X28.3539 Y46.9461
G01 X28.3120 Y46.9080
G01 X25.7706 Y44.3667
G01 X25.7339 Y44.3261
G01 X25.7024 Y44.2837
G01 X25.6982 Y44.2774
G01 X25.6711 Y44.2320
G01 X25.6469 Y44.1808
G01 X25.6290 Y44.1311
G01 X25.6268 Y44.1239
G01 X25.6137 Y44.0707
G01 X25.6057 Y44.0166
G01 X25.6029 Y43.9600
G01 X25.6030 Y31.2562
G00 Z2.0000
M05
G00 Z2.0000
G00 Z15.00


